;FLAVOR:UltiGCode
;TIME:6335      
;MATERIAL:10583     
;MATERIAL2:0         

;Layer count: 58
;LAYER:0
M107
G92 E0 
;SKIRT
G1 F2000 X150 Y80 Z0.1 E15.1
G1 F2000 X150 Y150 E19.61
G1 F2000 X80 Y150 E27.5981
G1 F2000 X80 Y80 E34.6209
G1 F2000 X150 Y80 E37.0396
G1 F2000 X149.7 Y80.3
G1 F2000 X149.7 Y149.7 E41.5425
G1 F2000 X80.3 Y149.7 E49.5032
G1 F2000 X80.3 Y80.3 E56.5038
G1 F2000 X149.7 Y80.3 E58.9349
G1 F2000 X149.4 Y80.6
G1 F2000 X149.4 Y149.4 E63.4308
G1 F2000 X80.6 Y149.4 E71.3642
G1 F2000 X80.6 Y80.6 E78.3425
G1 F2000 X149.4 Y80.6 E80.7863
G1 F2000 X149.1 Y80.9
G1 F2000 X149.1 Y149.1 E85.2755
G1 F2000 X80.9 Y149.1 E93.1815
G1 F2000 X80.9 Y80.9 E100.138
G1 F2000 X149.1 Y80.9 E102.594
G1 F2000 X148.8 Y81.2
G1 F2000 X148.8 Y148.8 E107.077
G1 F2000 X81.2 Y148.8 E114.956
G1 F2000 X81.2 Y81.2 E121.89
G1 F2000 X148.8 Y81.2 E124.36
G1 F2000 X148.5 Y81.5
G1 F2000 X148.5 Y148.5 E128.836
G1 F2000 X81.5 Y148.5 E136.687
G1 F2000 X81.5 Y81.5001 E143.599
G1 F2000 X148.5 Y81.5001 E146.082
G1 F2000 X148.2 Y81.8001
G1 F2000 X148.2 Y148.2 E150.552
G1 F2000 X81.8 Y148.2 E158.376
G1 F2000 X81.8 Y81.8001 E165.266
G1 F2000 X148.2 Y81.8001 E167.763
G1 F2000 X147.9 Y82.1001
G1 F2000 X147.9 Y147.9 E172.227
G1 F2000 X82.1 Y147.9 E180.024
G1 F2000 X82.1 Y82.1001 E186.892
G1 F2000 X147.9 Y82.1001 E189.403
G1 F2000 X147.6 Y82.4001
G1 F2000 X144.4 Y115 E190.385
G1 F2000 X144.4 Y115 E190.385
G1 F2000 X144.342 Y116.846 E190.441
G1 F2000 X144.168 Y118.685 E190.496
G1 F2000 X143.879 Y120.509 E190.552
G1 F2000 X143.476 Y122.311 E190.607
G1 F2000 X142.961 Y124.085 E190.662
G1 F2000 X142.335 Y125.823 E190.718
G1 F2000 X141.602 Y127.518 E190.773
G1 F2000 X140.763 Y129.164 E190.829
G1 F2000 X139.823 Y130.753 E190.884
G1 F2000 X138.785 Y132.281 E190.939
G1 F2000 X137.653 Y133.74 E190.995
G1 F2000 X136.432 Y135.126 E191.05
G1 F2000 X135.126 Y136.432 E191.106
G1 F2000 X133.74 Y137.653 E191.161
G1 F2000 X132.281 Y138.785 E191.216
G1 F2000 X130.753 Y139.823 E191.272
G1 F2000 X129.164 Y140.763 E191.327
G1 F2000 X127.518 Y141.602 E191.383
G1 F2000 X125.823 Y142.335 E191.438
G1 F2000 X124.085 Y142.961 E191.494
G1 F2000 X122.311 Y143.476 E191.549
G1 F2000 X120.509 Y143.879 E191.604
G1 F2000 X118.685 Y144.168 E191.66
G1 F2000 X116.846 Y144.342 E191.715
G1 F2000 X115 Y144.4 E191.771
G1 F2000 X113.154 Y144.342 E191.826
G1 F2000 X111.315 Y144.168 E191.881
G1 F2000 X109.491 Y143.879 E191.937
G1 F2000 X107.689 Y143.476 E191.992
G1 F2000 X105.915 Y142.961 E192.048
G1 F2000 X104.177 Y142.335 E192.103
G1 F2000 X102.482 Y141.602 E192.158
G1 F2000 X100.836 Y140.763 E192.214
G1 F2000 X99.2467 Y139.823 E192.269
G1 F2000 X97.7191 Y138.785 E192.325
G1 F2000 X96.2597 Y137.653 E192.38
G1 F2000 X94.8743 Y136.432 E192.435
G1 F2000 X93.5683 Y135.126 E192.491
G1 F2000 X92.3469 Y133.74 E192.546
G1 F2000 X91.2149 Y132.281 E192.602
G1 F2000 X90.1768 Y130.753 E192.657
G1 F2000 X89.2366 Y129.164 E192.712
G1 F2000 X88.3981 Y127.518 E192.768
G1 F2000 X87.6646 Y125.823 E192.823
G1 F2000 X87.0389 Y124.085 E192.879
G1 F2000 X86.5237 Y122.311 E192.934
G1 F2000 X86.1208 Y120.509 E192.989
G1 F2000 X85.8318 Y118.685 E193.045
G1 F2000 X85.658 Y116.846 E193.1
G1 F2000 X85.6 Y115 E193.156
G1 F2000 X85.658 Y113.154 E193.211
G1 F2000 X85.8318 Y111.315 E193.266
G1 F2000 X86.1208 Y109.491 E193.322
G1 F2000 X86.5237 Y107.689 E193.377
G1 F2000 X87.0389 Y105.915 E193.433
G1 F2000 X87.6646 Y104.177 E193.488
G1 F2000 X88.3981 Y102.482 E193.543
G1 F2000 X89.2366 Y100.836 E193.599
G1 F2000 X90.1768 Y99.2467 E193.654
G1 F2000 X91.2149 Y97.7191 E193.71
G1 F2000 X92.3469 Y96.2597 E193.765
G1 F2000 X93.5683 Y94.8743 E193.821
G1 F2000 X94.8743 Y93.5683 E193.876
G1 F2000 X96.2597 Y92.3469 E193.931
G1 F2000 X97.7191 Y91.2149 E193.987
G1 F2000 X99.2467 Y90.1768 E194.042
G1 F2000 X100.836 Y89.2366 E194.098
G1 F2000 X102.482 Y88.3981 E194.153
G1 F2000 X104.177 Y87.6646 E194.208
G1 F2000 X105.915 Y87.0389 E194.264
G1 F2000 X107.689 Y86.5237 E194.319
G1 F2000 X109.491 Y86.1208 E194.375
G1 F2000 X111.315 Y85.8318 E194.43
G1 F2000 X113.154 Y85.658 E194.485
G1 F2000 X115 Y85.6 E194.541
G1 F2000 X116.846 Y85.658 E194.596
G1 F2000 X118.685 Y85.8318 E194.652
G1 F2000 X120.509 Y86.1208 E194.707
G1 F2000 X122.311 Y86.5237 E194.762
G1 F2000 X124.085 Y87.0389 E194.818
G1 F2000 X125.823 Y87.6646 E194.873
G1 F2000 X127.518 Y88.3981 E194.929
G1 F2000 X129.164 Y89.2366 E194.984
G1 F2000 X130.753 Y90.1768 E195.039
G1 F2000 X132.281 Y91.2149 E195.095
G1 F2000 X133.74 Y92.3469 E195.15
G1 F2000 X135.126 Y93.5683 E195.206
G1 F2000 X136.432 Y94.8743 E195.261
G1 F2000 X137.653 Y96.2597 E195.316
G1 F2000 X138.785 Y97.7191 E195.372
G1 F2000 X139.823 Y99.2467 E195.427
G1 F2000 X140.763 Y100.836 E195.483
G1 F2000 X141.602 Y102.482 E195.538
G1 F2000 X142.335 Y104.177 E195.593
G1 F2000 X142.961 Y105.915 E195.649
G1 F2000 X143.476 Y107.689 E195.704
G1 F2000 X143.879 Y109.491 E195.76
G1 F2000 X144.168 Y111.315 E195.815
G1 F2000 X144.342 Y113.154 E195.87
G1 F2000 X144.4 Y115 E195.926
G1 F2000 X144.7 Y115 E195.935
G1 F2000 X144.7 Y115 E195.935
G1 F2000 X144.641 Y116.865 E195.991
G1 F2000 X144.466 Y118.722 E196.047
G1 F2000 X144.174 Y120.565 E196.103
G1 F2000 X143.767 Y122.386 E196.159
G1 F2000 X143.246 Y124.178 E196.215
G1 F2000 X142.614 Y125.933 E196.271
G1 F2000 X141.873 Y127.646 E196.327
G1 F2000 X141.026 Y129.308 E196.383
G1 F2000 X140.077 Y130.914 E196.439
G1 F2000 X139.028 Y132.457 E196.495
G1 F2000 X137.884 Y133.931 E196.551
G1 F2000 X136.65 Y135.331 E196.607
G1 F2000 X135.331 Y136.65 E196.663
G1 F2000 X133.931 Y137.884 E196.718
G1 F2000 X132.457 Y139.028 E196.774
G1 F2000 X130.914 Y140.077 E196.83
G1 F2000 X129.308 Y141.026 E196.886
G1 F2000 X127.646 Y141.873 E196.942
G1 F2000 X125.933 Y142.614 E196.998
G1 F2000 X124.178 Y143.246 E197.054
G1 F2000 X122.386 Y143.767 E197.11
G1 F2000 X120.565 Y144.174 E197.166
G1 F2000 X118.722 Y144.466 E197.222
G1 F2000 X116.865 Y144.641 E197.278
G1 F2000 X115 Y144.7 E197.334
G1 F2000 X113.135 Y144.641 E197.39
G1 F2000 X111.278 Y144.466 E197.446
G1 F2000 X109.435 Y144.174 E197.502
G1 F2000 X107.614 Y143.767 E197.558
G1 F2000 X105.822 Y143.246 E197.614
G1 F2000 X104.067 Y142.614 E197.67
G1 F2000 X102.354 Y141.873 E197.726
G1 F2000 X100.692 Y141.026 E197.782
G1 F2000 X99.0859 Y140.077 E197.838
G1 F2000 X97.5428 Y139.028 E197.894
G1 F2000 X96.0685 Y137.884 E197.95
G1 F2000 X94.669 Y136.65 E198.006
G1 F2000 X93.3496 Y135.331 E198.062
G1 F2000 X92.1158 Y133.931 E198.118
G1 F2000 X90.9722 Y132.457 E198.174
G1 F2000 X89.9235 Y130.914 E198.23
G1 F2000 X88.9737 Y129.308 E198.286
G1 F2000 X88.1266 Y127.646 E198.342
G1 F2000 X87.3856 Y125.933 E198.398
G1 F2000 X86.7536 Y124.178 E198.454
G1 F2000 X86.2331 Y122.386 E198.509
G1 F2000 X85.8261 Y120.565 E198.565
G1 F2000 X85.5342 Y118.722 E198.621
G1 F2000 X85.3586 Y116.865 E198.677
G1 F2000 X85.3 Y115 E198.733
G1 F2000 X85.3586 Y113.135 E198.789
G1 F2000 X85.5342 Y111.278 E198.845
G1 F2000 X85.8261 Y109.435 E198.901
G1 F2000 X86.2331 Y107.614 E198.957
G1 F2000 X86.7536 Y105.822 E199.013
G1 F2000 X87.3856 Y104.067 E199.069
G1 F2000 X88.1266 Y102.354 E199.125
G1 F2000 X88.9737 Y100.692 E199.181
G1 F2000 X89.9235 Y99.086 E199.237
G1 F2000 X90.9722 Y97.5428 E199.293
G1 F2000 X92.1158 Y96.0685 E199.349
G1 F2000 X93.3496 Y94.669 E199.405
G1 F2000 X94.6689 Y93.3496 E199.461
G1 F2000 X96.0685 Y92.1158 E199.517
G1 F2000 X97.5428 Y90.9722 E199.573
G1 F2000 X99.0859 Y89.9235 E199.629
G1 F2000 X100.692 Y88.9737 E199.685
G1 F2000 X102.354 Y88.1266 E199.741
G1 F2000 X104.067 Y87.3856 E199.797
G1 F2000 X105.822 Y86.7536 E199.853
G1 F2000 X107.614 Y86.2331 E199.909
G1 F2000 X109.435 Y85.8261 E199.965
G1 F2000 X111.278 Y85.5342 E200.021
G1 F2000 X113.135 Y85.3586 E200.077
G1 F2000 X115 Y85.3 E200.133
G1 F2000 X116.865 Y85.3586 E200.189
G1 F2000 X118.722 Y85.5342 E200.245
G1 F2000 X120.565 Y85.8261 E200.301
G1 F2000 X122.386 Y86.2331 E200.356
G1 F2000 X124.178 Y86.7536 E200.412
G1 F2000 X125.933 Y87.3856 E200.468
G1 F2000 X127.646 Y88.1266 E200.524
G1 F2000 X129.308 Y88.9737 E200.58
G1 F2000 X130.914 Y89.9235 E200.636
G1 F2000 X132.457 Y90.9722 E200.692
G1 F2000 X133.931 Y92.1158 E200.748
G1 F2000 X135.331 Y93.3496 E200.804
G1 F2000 X136.65 Y94.6689 E200.86
G1 F2000 X137.884 Y96.0685 E200.916
G1 F2000 X139.028 Y97.5428 E200.972
G1 F2000 X140.077 Y99.0859 E201.028
G1 F2000 X141.026 Y100.692 E201.084
G1 F2000 X141.873 Y102.354 E201.14
G1 F2000 X142.614 Y104.067 E201.196
G1 F2000 X143.246 Y105.822 E201.252
G1 F2000 X143.767 Y107.614 E201.308
G1 F2000 X144.174 Y109.435 E201.364
G1 F2000 X144.466 Y111.278 E201.42
G1 F2000 X144.641 Y113.135 E201.476
G1 F2000 X144.7 Y115 E201.532
;NEWLAYER
G1 F1200 X144.7 Y115 Z0.2
G1 F2000 X144.4 Y115 E201.541
G1 F2000 X144.4 Y115 E201.541
G1 F2000 X144.342 Y116.846 E201.596
G1 F2000 X144.168 Y118.685 E201.652
G1 F2000 X143.879 Y120.509 E201.707
G1 F2000 X143.476 Y122.311 E201.762
G1 F2000 X142.961 Y124.085 E201.818
G1 F2000 X142.335 Y125.823 E201.873
G1 F2000 X141.602 Y127.518 E201.929
G1 F2000 X140.763 Y129.164 E201.984
G1 F2000 X139.823 Y130.753 E202.039
G1 F2000 X138.785 Y132.281 E202.095
G1 F2000 X137.653 Y133.74 E202.15
G1 F2000 X136.432 Y135.126 E202.206
G1 F2000 X135.126 Y136.432 E202.261
G1 F2000 X133.74 Y137.653 E202.317
G1 F2000 X132.281 Y138.785 E202.372
G1 F2000 X130.753 Y139.823 E202.427
G1 F2000 X129.164 Y140.763 E202.483
G1 F2000 X127.518 Y141.602 E202.538
G1 F2000 X125.823 Y142.335 E202.594
G1 F2000 X124.085 Y142.961 E202.649
G1 F2000 X122.311 Y143.476 E202.704
G1 F2000 X120.509 Y143.879 E202.76
G1 F2000 X118.685 Y144.168 E202.815
G1 F2000 X116.846 Y144.342 E202.871
G1 F2000 X115 Y144.4 E202.926
G1 F2000 X113.154 Y144.342 E202.981
G1 F2000 X111.315 Y144.168 E203.037
G1 F2000 X109.491 Y143.879 E203.092
G1 F2000 X107.689 Y143.476 E203.148
G1 F2000 X105.915 Y142.961 E203.203
G1 F2000 X104.177 Y142.335 E203.258
G1 F2000 X102.482 Y141.602 E203.314
G1 F2000 X100.836 Y140.763 E203.369
G1 F2000 X99.2467 Y139.823 E203.425
G1 F2000 X97.7191 Y138.785 E203.48
G1 F2000 X96.2597 Y137.653 E203.535
G1 F2000 X94.8743 Y136.432 E203.591
G1 F2000 X93.5683 Y135.126 E203.646
G1 F2000 X92.3469 Y133.74 E203.702
G1 F2000 X91.2149 Y132.281 E203.757
G1 F2000 X90.1768 Y130.753 E203.812
G1 F2000 X89.2366 Y129.164 E203.868
G1 F2000 X88.3981 Y127.518 E203.923
G1 F2000 X87.6646 Y125.823 E203.979
G1 F2000 X87.0389 Y124.085 E204.034
G1 F2000 X86.5237 Y122.311 E204.089
G1 F2000 X86.1208 Y120.509 E204.145
G1 F2000 X85.8318 Y118.685 E204.2
G1 F2000 X85.658 Y116.846 E204.256
G1 F2000 X85.6 Y115 E204.311
G1 F2000 X85.658 Y113.154 E204.366
G1 F2000 X85.8318 Y111.315 E204.422
G1 F2000 X86.1208 Y109.491 E204.477
G1 F2000 X86.5237 Y107.689 E204.533
G1 F2000 X87.0389 Y105.915 E204.588
G1 F2000 X87.6646 Y104.177 E204.644
G1 F2000 X88.3981 Y102.482 E204.699
G1 F2000 X89.2366 Y100.836 E204.754
G1 F2000 X90.1768 Y99.2467 E204.81
G1 F2000 X91.2149 Y97.7191 E204.865
G1 F2000 X92.3469 Y96.2597 E204.921
G1 F2000 X93.5683 Y94.8743 E204.976
G1 F2000 X94.8743 Y93.5683 E205.031
G1 F2000 X96.2597 Y92.3469 E205.087
G1 F2000 X97.7191 Y91.2149 E205.142
G1 F2000 X99.2467 Y90.1768 E205.198
G1 F2000 X100.836 Y89.2366 E205.253
G1 F2000 X102.482 Y88.3981 E205.308
G1 F2000 X104.177 Y87.6646 E205.364
G1 F2000 X105.915 Y87.0389 E205.419
G1 F2000 X107.689 Y86.5237 E205.475
G1 F2000 X109.491 Y86.1208 E205.53
G1 F2000 X111.315 Y85.8318 E205.585
G1 F2000 X113.154 Y85.658 E205.641
G1 F2000 X115 Y85.6 E205.696
G1 F2000 X116.846 Y85.658 E205.752
G1 F2000 X118.685 Y85.8318 E205.807
G1 F2000 X120.509 Y86.1208 E205.862
G1 F2000 X122.311 Y86.5237 E205.918
G1 F2000 X124.085 Y87.0389 E205.973
G1 F2000 X125.823 Y87.6646 E206.029
G1 F2000 X127.518 Y88.3981 E206.084
G1 F2000 X129.164 Y89.2366 E206.139
G1 F2000 X130.753 Y90.1768 E206.195
G1 F2000 X132.281 Y91.2149 E206.25
G1 F2000 X133.74 Y92.3469 E206.306
G1 F2000 X135.126 Y93.5683 E206.361
G1 F2000 X136.432 Y94.8743 E206.416
G1 F2000 X137.653 Y96.2597 E206.472
G1 F2000 X138.785 Y97.7191 E206.527
G1 F2000 X139.823 Y99.2467 E206.583
G1 F2000 X140.763 Y100.836 E206.638
G1 F2000 X141.602 Y102.482 E206.693
G1 F2000 X142.335 Y104.177 E206.749
G1 F2000 X142.961 Y105.915 E206.804
G1 F2000 X143.476 Y107.689 E206.86
G1 F2000 X143.879 Y109.491 E206.915
G1 F2000 X144.168 Y111.315 E206.971
G1 F2000 X144.342 Y113.154 E207.026
G1 F2000 X144.4 Y115 E207.081
G1 F2000 X144.7 Y115 E207.09
G1 F2000 X144.7 Y115 E207.09
G1 F2000 X144.641 Y116.865 E207.146
G1 F2000 X144.466 Y118.722 E207.202
G1 F2000 X144.174 Y120.565 E207.258
G1 F2000 X143.767 Y122.386 E207.314
G1 F2000 X143.246 Y124.178 E207.37
G1 F2000 X142.614 Y125.933 E207.426
G1 F2000 X141.873 Y127.646 E207.482
G1 F2000 X141.026 Y129.308 E207.538
G1 F2000 X140.077 Y130.914 E207.594
G1 F2000 X139.028 Y132.457 E207.65
G1 F2000 X137.884 Y133.931 E207.706
G1 F2000 X136.65 Y135.331 E207.762
G1 F2000 X135.331 Y136.65 E207.818
G1 F2000 X133.931 Y137.884 E207.874
G1 F2000 X132.457 Y139.028 E207.93
G1 F2000 X130.914 Y140.077 E207.986
G1 F2000 X129.308 Y141.026 E208.042
G1 F2000 X127.646 Y141.873 E208.098
G1 F2000 X125.933 Y142.614 E208.154
G1 F2000 X124.178 Y143.246 E208.21
G1 F2000 X122.386 Y143.767 E208.266
G1 F2000 X120.565 Y144.174 E208.322
G1 F2000 X118.722 Y144.466 E208.378
G1 F2000 X116.865 Y144.641 E208.434
G1 F2000 X115 Y144.7 E208.49
G1 F2000 X113.135 Y144.641 E208.546
G1 F2000 X111.278 Y144.466 E208.602
G1 F2000 X109.435 Y144.174 E208.657
G1 F2000 X107.614 Y143.767 E208.713
G1 F2000 X105.822 Y143.246 E208.769
G1 F2000 X104.067 Y142.614 E208.825
G1 F2000 X102.354 Y141.873 E208.881
G1 F2000 X100.692 Y141.026 E208.937
G1 F2000 X99.0859 Y140.077 E208.993
G1 F2000 X97.5428 Y139.028 E209.049
G1 F2000 X96.0685 Y137.884 E209.105
G1 F2000 X94.669 Y136.65 E209.161
G1 F2000 X93.3496 Y135.331 E209.217
G1 F2000 X92.1158 Y133.931 E209.273
G1 F2000 X90.9722 Y132.457 E209.329
G1 F2000 X89.9235 Y130.914 E209.385
G1 F2000 X88.9737 Y129.308 E209.441
G1 F2000 X88.1266 Y127.646 E209.497
G1 F2000 X87.3856 Y125.933 E209.553
G1 F2000 X86.7536 Y124.178 E209.609
G1 F2000 X86.2331 Y122.386 E209.665
G1 F2000 X85.8261 Y120.565 E209.721
G1 F2000 X85.5342 Y118.722 E209.777
G1 F2000 X85.3586 Y116.865 E209.833
G1 F2000 X85.3 Y115 E209.889
G1 F2000 X85.3586 Y113.135 E209.945
G1 F2000 X85.5342 Y111.278 E210.001
G1 F2000 X85.8261 Y109.435 E210.057
G1 F2000 X86.2331 Y107.614 E210.113
G1 F2000 X86.7536 Y105.822 E210.169
G1 F2000 X87.3856 Y104.067 E210.225
G1 F2000 X88.1266 Y102.354 E210.281
G1 F2000 X88.9737 Y100.692 E210.337
G1 F2000 X89.9235 Y99.086 E210.393
G1 F2000 X90.9722 Y97.5428 E210.448
G1 F2000 X92.1158 Y96.0685 E210.504
G1 F2000 X93.3496 Y94.669 E210.56
G1 F2000 X94.6689 Y93.3496 E210.616
G1 F2000 X96.0685 Y92.1158 E210.672
G1 F2000 X97.5428 Y90.9722 E210.728
G1 F2000 X99.0859 Y89.9235 E210.784
G1 F2000 X100.692 Y88.9737 E210.84
G1 F2000 X102.354 Y88.1266 E210.896
G1 F2000 X104.067 Y87.3856 E210.952
G1 F2000 X105.822 Y86.7536 E211.008
G1 F2000 X107.614 Y86.2331 E211.064
G1 F2000 X109.435 Y85.8261 E211.12
G1 F2000 X111.278 Y85.5342 E211.176
G1 F2000 X113.135 Y85.3586 E211.232
G1 F2000 X115 Y85.3 E211.288
G1 F2000 X116.865 Y85.3586 E211.344
G1 F2000 X118.722 Y85.5342 E211.4
G1 F2000 X120.565 Y85.8261 E211.456
G1 F2000 X122.386 Y86.2331 E211.512
G1 F2000 X124.178 Y86.7536 E211.568
G1 F2000 X125.933 Y87.3856 E211.624
G1 F2000 X127.646 Y88.1266 E211.68
G1 F2000 X129.308 Y88.9737 E211.736
G1 F2000 X130.914 Y89.9235 E211.792
G1 F2000 X132.457 Y90.9722 E211.848
G1 F2000 X133.931 Y92.1158 E211.904
G1 F2000 X135.331 Y93.3496 E211.96
G1 F2000 X136.65 Y94.6689 E212.016
G1 F2000 X137.884 Y96.0685 E212.072
G1 F2000 X139.028 Y97.5428 E212.128
G1 F2000 X140.077 Y99.0859 E212.184
G1 F2000 X141.026 Y100.692 E212.24
G1 F2000 X141.873 Y102.354 E212.295
G1 F2000 X142.614 Y104.067 E212.351
G1 F2000 X143.246 Y105.822 E212.407
G1 F2000 X143.767 Y107.614 E212.463
G1 F2000 X144.174 Y109.435 E212.519
G1 F2000 X144.466 Y111.278 E212.575
G1 F2000 X144.641 Y113.135 E212.631
G1 F2000 X144.7 Y115 E212.687
;NEWLAYER
G1 F1200 X144.7 Y115 Z0.3
G1 F2000 X144.4 Y115 E212.696
G1 F2000 X144.4 Y115 E212.696
G1 F2000 X144.342 Y116.846 E212.752
G1 F2000 X144.168 Y118.685 E212.807
