;FLAVOR:UltiGCode
;TIME:6335      
;MATERIAL:10583     
;MATERIAL2:0         

;Layer count: 58
;LAYER:0
M107
;SKIRT
G1 F2000 X85 Y125 Z0.1 E4.53487
G1 F2000 X85 Y215 E7.29258
G1 F2000 X-5 Y215 E15.6091
G1 F2000 X-5 Y125 E24.7604
G1 F2000 X85 Y125 E29.4705
G1 F2000 X84.7 Y125.3
G1 F2000 X84.7 Y214.7 E32.2303
G1 F2000 X-4.7 Y214.7 E40.5228
G1 F2000 X-4.7 Y125.3 E49.6469
G1 F2000 X84.7 Y125.3 E54.3479
G1 F2000 X84.4 Y125.6
G1 F2000 X84.4 Y214.4 E57.1101
G1 F2000 X-4.40001 Y214.4 E65.3787
G1 F2000 X-4.40001 Y125.6 E74.4757
G1 F2000 X84.4 Y125.6 E79.1677
G1 F2000 X84.1 Y125.9
G1 F2000 X84.1 Y214.1 E81.9326
G1 F2000 X-4.10001 Y214.1 E90.1772
G1 F2000 X-4.10001 Y125.9 E99.2471
G1 F2000 X84.1 Y125.9 E103.93
G1 F2000 X83.8 Y126.2
G1 F2000 X83.8 Y213.8 E106.698
G1 F2000 X-3.80002 Y213.8 E114.919
G1 F2000 X-3.80002 Y126.2 E123.962
G1 F2000 X83.8 Y126.2 E128.636
G1 F2000 X83.5 Y126.5
G1 F2000 X83.5 Y213.5 E131.407
G1 F2000 X-3.50002 Y213.5 E139.604
G1 F2000 X-3.50002 Y126.5 E148.62
G1 F2000 X83.5 Y126.5 E153.286
G1 F2000 X83.2 Y126.8
G1 F2000 X83.2 Y213.2 E156.061
G1 F2000 X-3.20003 Y213.2 E164.234
G1 F2000 X-3.20003 Y126.8 E173.222
G1 F2000 X83.2 Y126.8 E177.88
G1 F2000 X82.9 Y127.1
G1 F2000 X82.9 Y212.9 E180.659
G1 F2000 X-2.90003 Y212.9 E188.808
G1 F2000 X-2.90003 Y127.1 E197.769
G1 F2000 X82.9 Y127.1 E202.419
G1 F2000 X82.6 Y127.4
G1 F2000 X80 Y155 E203.25
G1 F2000 X80 Y182.6 E207.763
G1 F2000 X2.4 Y182.6 E215
G1 F2000 X2.4 Y155 E221.306
G1 F2000 X80 Y155 E226.474
G1 F2000 X80.3 Y154.7
G1 F2000 X80.3 Y182.9 E230.969
G1 F2000 X2.10001 Y182.9 E238.23
G1 F2000 X2.10001 Y154.7 E244.563
G1 F2000 X80.3 Y154.7 E249.736
G1 F2000 X80.6 Y154.4
G1 F2000 X80.6 Y183.2 E254.213
G1 F2000 X1.80001 Y183.2 E261.498
G1 F2000 X1.80001 Y154.4 E267.858
G1 F2000 X80.6 Y154.4 E273.034
G1 F2000 X80.9 Y154.1
G1 F2000 X80.9 Y183.5 E277.493
G1 F2000 X1.50002 Y183.5 E284.803
G1 F2000 X1.50002 Y154.1 E291.19
G1 F2000 X80.9 Y154.1 E296.37
G1 F2000 X81.2 Y153.8
;NEWLAYER
G1 F1200 X81.2 Y153.8 Z0.2
G1 F2000 X80 Y155 E296.421
G1 F2000 X80 Y182.6 E300.934
G1 F2000 X2.4 Y182.6 E308.171
G1 F2000 X2.4 Y155 E314.477
G1 F2000 X80 Y155 E319.645
G1 F2000 X80.3 Y154.7
G1 F2000 X80.3 Y182.9 E324.14
G1 F2000 X2.10001 Y182.9 E331.401
G1 F2000 X2.10001 Y154.7 E337.734
G1 F2000 X80.3 Y154.7 E342.906
G1 F2000 X80.6 Y154.4
G1 F2000 X80.6 Y183.2 E347.384
G1 F2000 X1.80001 Y183.2 E354.669
G1 F2000 X1.80001 Y154.4 E361.029
G1 F2000 X80.6 Y154.4 E366.205
G1 F2000 X80.9 Y154.1
G1 F2000 X80.9 Y183.5 E370.664
G1 F2000 X1.50002 Y183.5 E377.974
G1 F2000 X1.50002 Y154.1 E384.361
G1 F2000 X80.9 Y154.1 E389.541
G1 F2000 X81.2 Y153.8
;NEWLAYER
G1 F1200 X81.2 Y153.8 Z0.3
G1 F2000 X80 Y155 E389.592
G1 F2000 X80 Y182.6 E394.105
G1 F2000 X2.4 Y182.6 E401.341
G1 F2000 X2.4 Y155 E407.648
G1 F2000 X80 Y155 E412.816
G1 F2000 X80.3 Y154.7
G1 F2000 X80.3 Y182.9 E417.311
G1 F2000 X2.10001 Y182.9 E424.572
G1 F2000 X2.10001 Y154.7 E430.905
G1 F2000 X80.3 Y154.7 E436.077
G1 F2000 X80.6 Y154.4
G1 F2000 X80.6 Y183.2 E440.554
G1 F2000 X1.80001 Y183.2 E447.84
G1 F2000 X1.80001 Y154.4 E454.2
G1 F2000 X80.6 Y154.4 E459.376
G1 F2000 X80.9 Y154.1
G1 F2000 X80.9 Y183.5 E463.835
G1 F2000 X1.50002 Y183.5 E471.145
G1 F2000 X1.50002 Y154.1 E477.532
G1 F2000 X80.9 Y154.1 E482.712
G1 F2000 X81.2 Y153.8
;NEWLAYER
G1 F1200 X81.2 Y153.8 Z0.4
G1 F2000 X80 Y155 E482.763
G1 F2000 X80 Y182.6 E487.276
G1 F2000 X2.4 Y182.6 E494.512
G1 F2000 X2.4 Y155 E500.819
G1 F2000 X80 Y155 E505.987
G1 F2000 X80.3 Y154.7
G1 F2000 X80.3 Y182.9 E510.482
G1 F2000 X2.10001 Y182.9 E517.743
G1 F2000 X2.10001 Y154.7 E524.076
G1 F2000 X80.3 Y154.7 E529.248
G1 F2000 X80.6 Y154.4
G1 F2000 X80.6 Y183.2 E533.725
G1 F2000 X1.80001 Y183.2 E541.011
G1 F2000 X1.80001 Y154.4 E547.371
G1 F2000 X80.6 Y154.4 E552.547
G1 F2000 X80.9 Y154.1
G1 F2000 X80.9 Y183.5 E557.006
G1 F2000 X1.50002 Y183.5 E564.316
G1 F2000 X1.50002 Y154.1 E570.703
G1 F2000 X80.9 Y154.1 E575.883
G1 F2000 X81.2 Y153.8
;NEWLAYER
G1 F1200 X81.2 Y153.8 Z0.5
G1 F2000 X80 Y155 E575.934
G1 F2000 X80 Y182.6 E580.447
G1 F2000 X2.4 Y182.6 E587.683
G1 F2000 X2.4 Y155 E593.99
G1 F2000 X80 Y155 E599.158
G1 F2000 X80.3 Y154.7
G1 F2000 X80.3 Y182.9 E603.653
G1 F2000 X2.10001 Y182.9 E610.914
G1 F2000 X2.10001 Y154.7 E617.247
G1 F2000 X80.3 Y154.7 E622.419
G1 F2000 X80.6 Y154.4
G1 F2000 X80.6 Y183.2 E626.896
G1 F2000 X1.80001 Y183.2 E634.181
G1 F2000 X1.80001 Y154.4 E640.542
G1 F2000 X80.6 Y154.4 E645.718
G1 F2000 X80.9 Y154.1
G1 F2000 X80.9 Y183.5 E650.177
G1 F2000 X1.50002 Y183.5 E657.487
G1 F2000 X1.50002 Y154.1 E663.874
G1 F2000 X80.9 Y154.1 E669.054
G1 F2000 X81.2 Y153.8
;NEWLAYER
G1 F1200 X81.2 Y153.8 Z0.6
G1 F2000 X80 Y155 E669.105
G1 F2000 X80 Y182.6 E673.618
G1 F2000 X2.4 Y182.6 E680.854
G1 F2000 X2.4 Y155 E687.161
G1 F2000 X80 Y155 E692.329
G1 F2000 X80.3 Y154.7
G1 F2000 X80.3 Y182.9 E696.824
G1 F2000 X2.10001 Y182.9 E704.085
G1 F2000 X2.10001 Y154.7 E710.418
G1 F2000 X80.3 Y154.7 E715.59
G1 F2000 X80.6 Y154.4
G1 F2000 X80.6 Y183.2 E720.067
G1 F2000 X1.80001 Y183.2 E727.352
G1 F2000 X1.80001 Y154.4 E733.713
G1 F2000 X80.6 Y154.4 E738.889
G1 F2000 X80.9 Y154.1
G1 F2000 X80.9 Y183.5 E743.348
G1 F2000 X1.50002 Y183.5 E750.658
G1 F2000 X1.50002 Y154.1 E757.045
G1 F2000 X80.9 Y154.1 E762.225
G1 F2000 X81.2 Y153.8
;NEWLAYER
G1 F1200 X81.2 Y153.8 Z0.7
G1 F2000 X80 Y155 E762.276
G1 F2000 X80 Y182.6 E766.789
G1 F2000 X2.4 Y182.6 E774.025
G1 F2000 X2.4 Y155 E780.331
G1 F2000 X80 Y155 E785.5
G1 F2000 X80.3 Y154.7
G1 F2000 X80.3 Y182.9 E789.995
G1 F2000 X2.10001 Y182.9 E797.256
G1 F2000 X2.10001 Y154.7 E803.589
G1 F2000 X80.3 Y154.7 E808.761
G1 F2000 X80.6 Y154.4
G1 F2000 X80.6 Y183.2 E813.238
G1 F2000 X1.80001 Y183.2 E820.523
G1 F2000 X1.80001 Y154.4 E826.883
G1 F2000 X80.6 Y154.4 E832.06
G1 F2000 X80.9 Y154.1
G1 F2000 X80.9 Y183.5 E836.519
G1 F2000 X1.50002 Y183.5 E843.828
G1 F2000 X1.50002 Y154.1 E850.216
G1 F2000 X80.9 Y154.1 E855.396
G1 F2000 X81.2 Y153.8
;NEWLAYER
G1 F1200 X81.2 Y153.8 Z0.8
G1 F2000 X80 Y155 E855.447
G1 F2000 X80 Y182.6 E859.96
G1 F2000 X2.4 Y182.6 E867.196
G1 F2000 X2.4 Y155 E873.502
G1 F2000 X80 Y155 E878.671
G1 F2000 X80.3 Y154.7
G1 F2000 X80.3 Y182.9 E883.166
G1 F2000 X2.10001 Y182.9 E890.426
G1 F2000 X2.10001 Y154.7 E896.76
G1 F2000 X80.3 Y154.7 E901.932
G1 F2000 X80.6 Y154.4
G1 F2000 X80.6 Y183.2 E906.409
G1 F2000 X1.80001 Y183.2 E913.694
G1 F2000 X1.80001 Y154.4 E920.054
G1 F2000 X80.6 Y154.4 E925.23
G1 F2000 X80.9 Y154.1
G1 F2000 X80.9 Y183.5 E929.69
G1 F2000 X1.50002 Y183.5 E936.999
G1 F2000 X1.50002 Y154.1 E943.387
G1 F2000 X80.9 Y154.1 E948.567
G1 F2000 X81.2 Y153.8
;NEWLAYER
G1 F1200 X81.2 Y153.8 Z0.9
G1 F2000 X80 Y155 E948.618
G1 F2000 X80 Y182.6 E953.131
G1 F2000 X2.4 Y182.6 E960.367
G1 F2000 X2.4 Y155 E966.673
G1 F2000 X80 Y155 E971.842
G1 F2000 X80.3 Y154.7
G1 F2000 X80.3 Y182.9 E976.337
G1 F2000 X2.10001 Y182.9 E983.597
G1 F2000 X2.10001 Y154.7 E989.931
G1 F2000 X80.3 Y154.7 E995.103
G1 F2000 X80.6 Y154.4
G1 F2000 X80.6 Y183.2 E999.58
G1 F2000 X1.80001 Y183.2 E1006.87
G1 F2000 X1.80001 Y154.4 E1013.23
G1 F2000 X80.6 Y154.4 E1018.4
G1 F2000 X80.9 Y154.1
G1 F2000 X80.9 Y183.5 E1022.86
G1 F2000 X1.50002 Y183.5 E1030.17
G1 F2000 X1.50002 Y154.1 E1036.56
G1 F2000 X80.9 Y154.1 E1041.74
G1 F2000 X81.2 Y153.8
;NEWLAYER
G1 F1200 X81.2 Y153.8 Z1
G1 F2000 X80 Y155 E1041.79
G1 F2000 X80 Y182.6 E1046.3
G1 F2000 X2.4 Y182.6 E1053.54
G1 F2000 X2.4 Y155 E1059.84
G1 F2000 X80 Y155 E1065.01
G1 F2000 X80.3 Y154.7
G1 F2000 X80.3 Y182.9 E1069.51
G1 F2000 X2.10001 Y182.9 E1076.77
G1 F2000 X2.10001 Y154.7 E1083.1
G1 F2000 X80.3 Y154.7 E1088.27
G1 F2000 X80.6 Y154.4
G1 F2000 X80.6 Y183.2 E1092.75
G1 F2000 X1.80001 Y183.2 E1100.04
G1 F2000 X1.80001 Y154.4 E1106.4
G1 F2000 X80.6 Y154.4 E1111.57
G1 F2000 X80.9 Y154.1
G1 F2000 X80.9 Y183.5 E1116.03
G1 F2000 X1.50002 Y183.5 E1123.34
G1 F2000 X1.50002 Y154.1 E1129.73
G1 F2000 X80.9 Y154.1 E1134.91
G1 F2000 X81.2 Y153.8
;NEWLAYER
G1 F1200 X81.2 Y153.8 Z1.1
G1 F2000 X80 Y155 E1134.96
G1 F2000 X80 Y182.6 E1139.47
G1 F2000 X2.4 Y182.6 E1146.71
G1 F2000 X2.4 Y155 E1153.02
G1 F2000 X80 Y155 E1158.18
G1 F2000 X80.3 Y154.7
G1 F2000 X80.3 Y182.9 E1162.68
G1 F2000 X2.10001 Y182.9 E1169.94
G1 F2000 X2.10001 Y154.7 E1176.27
G1 F2000 X80.3 Y154.7 E1181.44
G1 F2000 X80.6 Y154.4
G1 F2000 X80.6 Y183.2 E1185.92
G1 F2000 X1.80001 Y183.2 E1193.21
G1 F2000 X1.80001 Y154.4 E1199.57
G1 F2000 X80.6 Y154.4 E1204.74
G1 F2000 X80.9 Y154.1
G1 F2000 X80.9 Y183.5 E1209.2
G1 F2000 X1.50002 Y183.5 E1216.51
G1 F2000 X1.50002 Y154.1 E1222.9
G1 F2000 X80.9 Y154.1 E1228.08
G1 F2000 X81.2 Y153.8
;NEWLAYER
G1 F1200 X81.2 Y153.8 Z1.2
G1 F2000 X80 Y155 E1228.13
G1 F2000 X80 Y182.6 E1232.64
G1 F2000 X2.4 Y182.6 E1239.88
G1 F2000 X2.4 Y155 E1246.19
G1 F2000 X80 Y155 E1251.35
G1 F2000 X80.3 Y154.7
G1 F2000 X80.3 Y182.9 E1255.85
G1 F2000 X2.10001 Y182.9 E1263.11
G1 F2000 X2.10001 Y154.7 E1269.44
G1 F2000 X80.3 Y154.7 E1274.62
G1 F2000 X80.6 Y154.4
G1 F2000 X80.6 Y183.2 E1279.09
G1 F2000 X1.80001 Y183.2 E1286.38
G1 F2000 X1.80001 Y154.4 E1292.74
G1 F2000 X80.6 Y154.4 E1297.91
G1 F2000 X80.9 Y154.1
G1 F2000 X80.9 Y183.5 E1302.37
G1 F2000 X1.50002 Y183.5 E1309.68
G1 F2000 X1.50002 Y154.1 E1316.07
G1 F2000 X80.9 Y154.1 E1321.25
G1 F2000 X81.2 Y153.8
;NEWLAYER
G1 F1200 X81.2 Y153.8 Z1.3
G1 F2000 X80 Y155 E1321.3
G1 F2000 X80 Y182.6 E1325.81
G1 F2000 X2.4 Y182.6 E1333.05
G1 F2000 X2.4 Y155 E1339.36
G1 F2000 X80 Y155 E1344.53
G1 F2000 X80.3 Y154.7
G1 F2000 X80.3 Y182.9 E1349.02
G1 F2000 X2.10001 Y182.9 E1356.28
G1 F2000 X2.10001 Y154.7 E1362.61
G1 F2000 X80.3 Y154.7 E1367.79
G1 F2000 X80.6 Y154.4
G1 F2000 X80.6 Y183.2 E1372.26
G1 F2000 X1.80001 Y183.2 E1379.55
G1 F2000 X1.80001 Y154.4 E1385.91
G1 F2000 X80.6 Y154.4 E1391.09
G1 F2000 X80.9 Y154.1
G1 F2000 X80.9 Y183.5 E1395.54
G1 F2000 X1.50002 Y183.5 E1402.85
G1 F2000 X1.50002 Y154.1 E1409.24
G1 F2000 X80.9 Y154.1 E1414.42
G1 F2000 X81.2 Y153.8
;NEWLAYER
G1 F1200 X81.2 Y153.8 Z1.4
G1 F2000 X80 Y155 E1414.47
G1 F2000 X80 Y182.6 E1418.99
G1 F2000 X2.4 Y182.6 E1426.22
G1 F2000 X2.4 Y155 E1432.53
G1 F2000 X80 Y155 E1437.7
G1 F2000 X80.3 Y154.7
G1 F2000 X80.3 Y182.9 E1442.19
G1 F2000 X2.10001 Y182.9 E1449.45
G1 F2000 X2.10001 Y154.7 E1455.79
G1 F2000 X80.3 Y154.7 E1460.96
G1 F2000 X80.6 Y154.4
G1 F2000 X80.6 Y183.2 E1465.43
G1 F2000 X1.80001 Y183.2 E1472.72
G1 F2000 X1.80001 Y154.4 E1479.08
G1 F2000 X80.6 Y154.4 E1484.26
G1 F2000 X80.9 Y154.1
G1 F2000 X80.9 Y183.5 E1488.72
G1 F2000 X1.50002 Y183.5 E1496.03
G1 F2000 X1.50002 Y154.1 E1502.41
G1 F2000 X80.9 Y154.1 E1507.59
G1 F2000 X81.2 Y153.8
;NEWLAYER
G1 F1200 X81.2 Y153.8 Z1.5
G1 F2000 X80 Y155 E1507.64
G1 F2000 X80 Y182.6 E1512.16
G1 F2000 X2.4 Y182.6 E1519.39
G1 F2000 X2.4 Y155 E1525.7
G1 F2000 X80 Y155 E1530.87
G1 F2000 X80.3 Y154.7
G1 F2000 X80.3 Y182.9 E1535.36
G1 F2000 X2.10001 Y182.9 E1542.62
G1 F2000 X2.10001 Y154.7 E1548.96
G1 F2000 X80.3 Y154.7 E1554.13
G1 F2000 X80.6 Y154.4
G1 F2000 X80.6 Y183.2 E1558.61
G1 F2000 X1.80001 Y183.2 E1565.89
G1 F2000 X1.80001 Y154.4 E1572.25
G1 F2000 X80.6 Y154.4 E1577.43
G1 F2000 X80.9 Y154.1
G1 F2000 X80.9 Y183.5 E1581.89
G1 F2000 X1.50002 Y183.5 E1589.2
G1 F2000 X1.50002 Y154.1 E1595.58
G1 F2000 X80.9 Y154.1 E1600.76
G1 F2000 X81.2 Y153.8
;NEWLAYER
G1 F1200 X81.2 Y153.8 Z1.6
G1 F2000 X80 Y155 E1600.81
G1 F2000 X80 Y182.6 E1605.33
G1 F2000 X2.4 Y182.6 E1612.56
G1 F2000 X2.4 Y155 E1618.87
G1 F2000 X80 Y155 E1624.04
G1 F2000 X80.3 Y154.7
G1 F2000 X80.3 Y182.9 E1628.53
G1 F2000 X2.10001 Y182.9 E1635.79
G1 F2000 X2.10001 Y154.7 E1642.13
G1 F2000 X80.3 Y154.7 E1647.3
G1 F2000 X80.6 Y154.4
G1 F2000 X80.6 Y183.2 E1651.78
G1 F2000 X1.80001 Y183.2 E1659.06
G1 F2000 X1.80001 Y154.4 E1665.42
G1 F2000 X80.6 Y154.4 E1670.6
G1 F2000 X80.9 Y154.1
G1 F2000 X80.9 Y183.5 E1675.06
G1 F2000 X1.50002 Y183.5 E1682.37
G1 F2000 X1.50002 Y154.1 E1688.75
G1 F2000 X80.9 Y154.1 E1693.93
G1 F2000 X81.2 Y153.8
;NEWLAYER
G1 F1200 X81.2 Y153.8 Z1.7
G1 F2000 X80 Y155 E1693.99
G1 F2000 X80 Y182.6 E1698.5
G1 F2000 X2.4 Y182.6 E1705.73
G1 F2000 X2.4 Y155 E1712.04
G1 F2000 X80 Y155 E1717.21
G1 F2000 X80.3 Y154.7
G1 F2000 X80.3 Y182.9 E1721.7
G1 F2000 X2.10001 Y182.9 E1728.97
G1 F2000 X2.10001 Y154.7 E1735.3
G1 F2000 X80.3 Y154.7 E1740.47
G1 F2000 X80.6 Y154.4
G1 F2000 X80.6 Y183.2 E1744.95
G1 F2000 X1.80001 Y183.2 E1752.23
G1 F2000 X1.80001 Y154.4 E1758.59
G1 F2000 X80.6 Y154.4 E1763.77
G1 F2000 X80.9 Y154.1
G1 F2000 X80.9 Y183.5 E1768.23
G1 F2000 X1.50002 Y183.5 E1775.54
G1 F2000 X1.50002 Y154.1 E1781.93
G1 F2000 X80.9 Y154.1 E1787.11
G1 F2000 X81.2 Y153.8
;NEWLAYER
G1 F1200 X81.2 Y153.8 Z1.8
G1 F2000 X80 Y155 E1787.16
G1 F2000 X80 Y182.6 E1791.67
G1 F2000 X2.4 Y182.6 E1798.91
G1 F2000 X2.4 Y155 E1805.21
G1 F2000 X80 Y155 E1810.38
G1 F2000 X80.3 Y154.7
G1 F2000 X80.3 Y182.9 E1814.88
G1 F2000 X2.10001 Y182.9 E1822.14
G1 F2000 X2.10001 Y154.7 E1828.47
G1 F2000 X80.3 Y154.7 E1833.64
G1 F2000 X80.6 Y154.4
G1 F2000 X80.6 Y183.2 E1838.12
G1 F2000 X1.80001 Y183.2 E1845.4
G1 F2000 X1.80001 Y154.4 E1851.76
G1 F2000 X80.6 Y154.4 E1856.94
G1 F2000 X80.9 Y154.1
G1 F2000 X80.9 Y183.5 E1861.4
G1 F2000 X1.50002 Y183.5 E1868.71
G1 F2000 X1.50002 Y154.1 E1875.1
G1 F2000 X80.9 Y154.1 E1880.28
G1 F2000 X81.2 Y153.8
;NEWLAYER
G1 F1200 X81.2 Y153.8 Z1.9
G1 F2000 X80 Y155 E1880.33
G1 F2000 X80 Y182.6 E1884.84
G1 F2000 X2.4 Y182.6 E1892.08
G1 F2000 X2.4 Y155 E1898.38
G1 F2000 X80 Y155 E1903.55
G1 F2000 X80.3 Y154.7
G1 F2000 X80.3 Y182.9 E1908.05
G1 F2000 X2.10001 Y182.9 E1915.31
G1 F2000 X2.10001 Y154.7 E1921.64
G1 F2000 X80.3 Y154.7 E1926.81
G1 F2000 X80.6 Y154.4
G1 F2000 X80.6 Y183.2 E1931.29
G1 F2000 X1.80001 Y183.2 E1938.58
G1 F2000 X1.80001 Y154.4 E1944.94
G1 F2000 X80.6 Y154.4 E1950.11
G1 F2000 X80.9 Y154.1
G1 F2000 X80.9 Y183.5 E1954.57
G1 F2000 X1.50002 Y183.5 E1961.88
G1 F2000 X1.50002 Y154.1 E1968.27
G1 F2000 X80.9 Y154.1 E1973.45
G1 F2000 X81.2 Y153.8
;NEWLAYER
G1 F1200 X81.2 Y153.8 Z2
G1 F2000 X80 Y155 E1973.5
G1 F2000 X80 Y182.6 E1978.01
G1 F2000 X2.4 Y182.6 E1985.25
G1 F2000 X2.4 Y155 E1991.55
G1 F2000 X80 Y155 E1996.72
G1 F2000 X80.3 Y154.7
G1 F2000 X80.3 Y182.9 E2001.22
G1 F2000 X2.10001 Y182.9 E2008.48
G1 F2000 X2.10001 Y154.7 E2014.81
G1 F2000 X80.3 Y154.7 E2019.98
G1 F2000 X80.6 Y154.4
G1 F2000 X80.6 Y183.2 E2024.46
G1 F2000 X1.80001 Y183.2 E2031.75
G1 F2000 X1.80001 Y154.4 E2038.11
G1 F2000 X80.6 Y154.4 E2043.28
G1 F2000 X80.9 Y154.1
G1 F2000 X80.9 Y183.5 E2047.74
G1 F2000 X1.50002 Y183.5 E2055.05
G1 F2000 X1.50002 Y154.1 E2061.44
G1 F2000 X80.9 Y154.1 E2066.62
G1 F2000 X81.2 Y153.8
;NEWLAYER
G1 F1200 X81.2 Y153.8 Z2.1
G1 F2000 X80 Y155 E2066.67
G1 F2000 X80 Y182.6 E2071.18
G1 F2000 X2.4 Y182.6 E2078.42
G1 F2000 X2.4 Y155 E2084.73
G1 F2000 X80 Y155 E2089.89
G1 F2000 X80.3 Y154.7
G1 F2000 X80.3 Y182.9 E2094.39
G1 F2000 X2.10001 Y182.9 E2101.65
G1 F2000 X2.10001 Y154.7 E2107.98
G1 F2000 X80.3 Y154.7 E2113.16
G1 F2000 X80.6 Y154.4
G1 F2000 X80.6 Y183.2 E2117.63
G1 F2000 X1.80001 Y183.2 E2124.92
G1 F2000 X1.80001 Y154.4 E2131.28
G1 F2000 X80.6 Y154.4 E2136.45
G1 F2000 X80.9 Y154.1
G1 F2000 X80.9 Y183.5 E2140.91
G1 F2000 X1.50002 Y183.5 E2148.22
G1 F2000 X1.50002 Y154.1 E2154.61
G1 F2000 X80.9 Y154.1 E2159.79
G1 F2000 X81.2 Y153.8
;NEWLAYER
G1 F1200 X81.2 Y153.8 Z2.2
G1 F2000 X80 Y155 E2159.84
G1 F2000 X80 Y182.6 E2164.35
G1 F2000 X2.4 Y182.6 E2171.59
G1 F2000 X2.4 Y155 E2177.9
G1 F2000 X80 Y155 E2183.06
G1 F2000 X80.3 Y154.7
G1 F2000 X80.3 Y182.9 E2187.56
G1 F2000 X2.10001 Y182.9 E2194.82
G1 F2000 X2.10001 Y154.7 E2201.15
G1 F2000 X80.3 Y154.7 E2206.33
G1 F2000 X80.6 Y154.4
G1 F2000 X80.6 Y183.2 E2210.8
G1 F2000 X1.80001 Y183.2 E2218.09
G1 F2000 X1.80001 Y154.4 E2224.45
G1 F2000 X80.6 Y154.4 E2229.62
G1 F2000 X80.9 Y154.1
G1 F2000 X80.9 Y183.5 E2234.08
G1 F2000 X1.50002 Y183.5 E2241.39
G1 F2000 X1.50002 Y154.1 E2247.78
G1 F2000 X80.9 Y154.1 E2252.96
G1 F2000 X81.2 Y153.8
;NEWLAYER
G1 F1200 X81.2 Y153.8 Z2.3
G1 F2000 X80 Y155 E2253.01
G1 F2000 X80 Y182.6 E2257.52
G1 F2000 X2.4 Y182.6 E2264.76
G1 F2000 X2.4 Y155 E2271.07
G1 F2000 X80 Y155 E2276.24
G1 F2000 X80.3 Y154.7
G1 F2000 X80.3 Y182.9 E2280.73
G1 F2000 X2.10001 Y182.9 E2287.99
G1 F2000 X2.10001 Y154.7 E2294.32
