;FLAVOR:UltiGCode
;TIME:6335      
;MATERIAL:10583     
;MATERIAL2:0         

;Layer count: 58
;LAYER:0
M107
G92 E0 
;SKIRT
G1 F2000 X75 Y135 Z0.1 E14.633
G1 F2000 X75 Y205 E17.6104
G1 F2000 X5 Y205 E25.1434
G1 F2000 X5 Y135 E33.3947
G1 F2000 X75 Y135 E37.8897
G1 F2000 X74.7 Y135.3
G1 F2000 X74.7 Y204.7 E40.8782
G1 F2000 X5.3 Y204.7 E48.3882
G1 F2000 X5.3 Y135.3 E56.6127
G1 F2000 X74.7 Y135.3 E61.1042
G1 F2000 X74.4 Y135.6
G1 F2000 X74.4 Y204.4 E64.1038
G1 F2000 X5.59999 Y204.4 E71.591
G1 F2000 X5.59999 Y135.6 E79.7887
G1 F2000 X74.4 Y135.6 E84.2768
G1 F2000 X74.1 Y135.9
G1 F2000 X74.1 Y204.1 E87.2879
G1 F2000 X5.89999 Y204.1 E94.7522
G1 F2000 X5.89999 Y135.9 E102.923
G1 F2000 X74.1 Y135.9 E107.408
G1 F2000 X73.8 Y136.2
G1 F2000 X73.8 Y203.8 E110.431
G1 F2000 X6.19998 Y203.8 E117.872
G1 F2000 X6.19998 Y136.2 E126.016
G1 F2000 X73.8 Y136.2 E130.498
G1 F2000 X73.5 Y136.5
G1 F2000 X73.5 Y203.5 E133.533
G1 F2000 X6.49998 Y203.5 E140.952
G1 F2000 X6.49998 Y136.5 E149.069
G1 F2000 X73.5 Y136.5 E153.548
G1 F2000 X73.2 Y136.8
G1 F2000 X73.2 Y203.2 E156.595
G1 F2000 X6.79997 Y203.2 E163.991
G1 F2000 X6.79997 Y136.8 E172.082
G1 F2000 X73.2 Y136.8 E176.558
G1 F2000 X72.9 Y137.1
G1 F2000 X72.9 Y202.9 E179.617
G1 F2000 X7.09997 Y202.9 E186.991
G1 F2000 X7.09997 Y137.1 E195.055
G1 F2000 X72.9 Y137.1 E199.529
G1 F2000 X72.6 Y137.4
G1 F2000 X68.8 Y170 E200.513
G1 F2000 X68.8 Y170 E200.513
G1 F2000 X68.7432 Y171.808 E200.568
G1 F2000 X68.5729 Y173.61 E200.622
G1 F2000 X68.2899 Y175.397 E200.676
G1 F2000 X67.8952 Y177.162 E200.73
G1 F2000 X67.3904 Y178.9 E200.785
G1 F2000 X66.7776 Y180.602 E200.839
G1 F2000 X66.059 Y182.262 E200.893
G1 F2000 X65.2376 Y183.875 E200.948
G1 F2000 X64.3166 Y185.432 E201.002
G1 F2000 X63.2997 Y186.928 E201.056
G1 F2000 X62.1908 Y188.358 E201.11
G1 F2000 X60.9943 Y189.715 E201.165
G1 F2000 X59.715 Y190.994 E201.219
G1 F2000 X58.3578 Y192.191 E201.273
G1 F2000 X56.9282 Y193.3 E201.327
G1 F2000 X55.4318 Y194.317 E201.382
G1 F2000 X53.8745 Y195.238 E201.436
G1 F2000 X52.2624 Y196.059 E201.49
G1 F2000 X50.602 Y196.778 E201.545
G1 F2000 X48.8997 Y197.39 E201.599
G1 F2000 X47.1623 Y197.895 E201.653
G1 F2000 X45.3966 Y198.29 E201.707
G1 F2000 X43.6096 Y198.573 E201.762
G1 F2000 X41.8084 Y198.743 E201.816
G1 F2000 X40 Y198.8 E201.87
G1 F2000 X38.1916 Y198.743 E201.925
G1 F2000 X36.3904 Y198.573 E201.979
G1 F2000 X34.6034 Y198.29 E202.033
G1 F2000 X32.8377 Y197.895 E202.087
G1 F2000 X31.1003 Y197.39 E202.142
G1 F2000 X29.398 Y196.778 E202.196
G1 F2000 X27.7376 Y196.059 E202.25
G1 F2000 X26.1255 Y195.238 E202.304
G1 F2000 X24.5682 Y194.317 E202.359
G1 F2000 X23.0718 Y193.3 E202.413
G1 F2000 X21.6422 Y192.191 E202.467
G1 F2000 X20.285 Y190.994 E202.522
G1 F2000 X19.0057 Y189.715 E202.576
G1 F2000 X17.8092 Y188.358 E202.63
G1 F2000 X16.7003 Y186.928 E202.684
G1 F2000 X15.6834 Y185.432 E202.739
G1 F2000 X14.7624 Y183.875 E202.793
G1 F2000 X13.941 Y182.262 E202.847
G1 F2000 X13.2224 Y180.602 E202.901
G1 F2000 X12.6096 Y178.9 E202.956
G1 F2000 X12.1048 Y177.162 E203.01
G1 F2000 X11.7101 Y175.397 E203.064
G1 F2000 X11.4271 Y173.61 E203.119
G1 F2000 X11.2568 Y171.808 E203.173
G1 F2000 X11.2 Y170 E203.227
G1 F2000 X11.2568 Y168.192 E203.281
G1 F2000 X11.4271 Y166.39 E203.336
G1 F2000 X11.7101 Y164.603 E203.39
G1 F2000 X12.1048 Y162.838 E203.444
G1 F2000 X12.6096 Y161.1 E203.499
G1 F2000 X13.2224 Y159.398 E203.553
G1 F2000 X13.941 Y157.738 E203.607
G1 F2000 X14.7624 Y156.126 E203.661
G1 F2000 X15.6834 Y154.568 E203.716
G1 F2000 X16.7003 Y153.072 E203.77
G1 F2000 X17.8092 Y151.642 E203.824
G1 F2000 X19.0057 Y150.285 E203.878
G1 F2000 X20.285 Y149.006 E203.933
G1 F2000 X21.6422 Y147.809 E203.987
G1 F2000 X23.0718 Y146.7 E204.041
G1 F2000 X24.5682 Y145.683 E204.096
G1 F2000 X26.1255 Y144.762 E204.15
G1 F2000 X27.7375 Y143.941 E204.204
G1 F2000 X29.398 Y143.222 E204.258
G1 F2000 X31.1003 Y142.61 E204.313
G1 F2000 X32.8377 Y142.105 E204.367
G1 F2000 X34.6034 Y141.71 E204.421
G1 F2000 X36.3904 Y141.427 E204.475
G1 F2000 X38.1916 Y141.257 E204.53
G1 F2000 X40 Y141.2 E204.584
G1 F2000 X41.8084 Y141.257 E204.638
G1 F2000 X43.6096 Y141.427 E204.693
G1 F2000 X45.3966 Y141.71 E204.747
G1 F2000 X47.1623 Y142.105 E204.801
G1 F2000 X48.8997 Y142.61 E204.855
G1 F2000 X50.602 Y143.222 E204.91
G1 F2000 X52.2624 Y143.941 E204.964
G1 F2000 X53.8745 Y144.762 E205.018
G1 F2000 X55.4318 Y145.683 E205.072
G1 F2000 X56.9282 Y146.7 E205.127
G1 F2000 X58.3578 Y147.809 E205.181
G1 F2000 X59.7149 Y149.006 E205.235
G1 F2000 X60.9943 Y150.285 E205.29
G1 F2000 X62.1908 Y151.642 E205.344
G1 F2000 X63.2997 Y153.072 E205.398
G1 F2000 X64.3166 Y154.568 E205.452
G1 F2000 X65.2376 Y156.125 E205.507
G1 F2000 X66.059 Y157.738 E205.561
G1 F2000 X66.7776 Y159.398 E205.615
G1 F2000 X67.3904 Y161.1 E205.67
G1 F2000 X67.8952 Y162.838 E205.724
G1 F2000 X68.2899 Y164.603 E205.778
G1 F2000 X68.5729 Y166.39 E205.832
G1 F2000 X68.7432 Y168.192 E205.887
G1 F2000 X68.8 Y170 E205.941
G1 F2000 X69.1 Y170 E205.95
G1 F2000 X69.1 Y170 E205.95
G1 F2000 X69.0426 Y171.827 E206.005
G1 F2000 X68.8705 Y173.647 E206.06
G1 F2000 X68.5846 Y175.453 E206.114
G1 F2000 X68.1858 Y177.237 E206.169
G1 F2000 X67.6757 Y178.992 E206.224
G1 F2000 X67.0565 Y180.712 E206.279
G1 F2000 X66.3305 Y182.39 E206.334
G1 F2000 X65.5005 Y184.019 E206.389
G1 F2000 X64.5699 Y185.593 E206.443
G1 F2000 X63.5424 Y187.105 E206.498
G1 F2000 X62.4219 Y188.549 E206.553
G1 F2000 X61.213 Y189.92 E206.608
G1 F2000 X59.9203 Y191.213 E206.663
G1 F2000 X58.549 Y192.422 E206.718
G1 F2000 X57.1046 Y193.542 E206.773
G1 F2000 X55.5926 Y194.57 E206.827
G1 F2000 X54.019 Y195.501 E206.882
G1 F2000 X52.3902 Y196.33 E206.937
G1 F2000 X50.7124 Y197.056 E206.992
G1 F2000 X48.9924 Y197.676 E207.047
G1 F2000 X47.2369 Y198.186 E207.102
G1 F2000 X45.4528 Y198.585 E207.156
G1 F2000 X43.6472 Y198.871 E207.211
G1 F2000 X41.8272 Y199.043 E207.266
G1 F2000 X40 Y199.1 E207.321
G1 F2000 X38.1728 Y199.043 E207.376
G1 F2000 X36.3528 Y198.871 E207.431
G1 F2000 X34.5472 Y198.585 E207.485
G1 F2000 X32.7631 Y198.186 E207.54
G1 F2000 X31.0076 Y197.676 E207.595
G1 F2000 X29.2876 Y197.057 E207.65
G1 F2000 X27.6098 Y196.33 E207.705
G1 F2000 X25.981 Y195.501 E207.76
G1 F2000 X24.4074 Y194.57 E207.814
G1 F2000 X22.8955 Y193.542 E207.869
G1 F2000 X21.451 Y192.422 E207.924
G1 F2000 X20.0797 Y191.213 E207.979
G1 F2000 X18.787 Y189.92 E208.034
G1 F2000 X17.5781 Y188.549 E208.089
G1 F2000 X16.4576 Y187.105 E208.144
G1 F2000 X15.4301 Y185.593 E208.198
G1 F2000 X14.4995 Y184.019 E208.253
G1 F2000 X13.6695 Y182.39 E208.308
G1 F2000 X12.9435 Y180.712 E208.363
G1 F2000 X12.3243 Y178.992 E208.418
G1 F2000 X11.8142 Y177.237 E208.473
G1 F2000 X11.4154 Y175.453 E208.527
G1 F2000 X11.1295 Y173.647 E208.582
G1 F2000 X10.9574 Y171.827 E208.637
G1 F2000 X10.9 Y170 E208.692
G1 F2000 X10.9574 Y168.173 E208.747
G1 F2000 X11.1295 Y166.353 E208.802
G1 F2000 X11.4154 Y164.547 E208.856
G1 F2000 X11.8142 Y162.763 E208.911
G1 F2000 X12.3243 Y161.008 E208.966
G1 F2000 X12.9435 Y159.288 E209.021
G1 F2000 X13.6695 Y157.61 E209.076
G1 F2000 X14.4995 Y155.981 E209.131
G1 F2000 X15.4301 Y154.407 E209.185
G1 F2000 X16.4576 Y152.895 E209.24
G1 F2000 X17.5781 Y151.451 E209.295
G1 F2000 X18.787 Y150.08 E209.35
G1 F2000 X20.0797 Y148.787 E209.405
G1 F2000 X21.451 Y147.578 E209.46
G1 F2000 X22.8954 Y146.458 E209.515
G1 F2000 X24.4074 Y145.43 E209.569
G1 F2000 X25.981 Y144.499 E209.624
G1 F2000 X27.6098 Y143.67 E209.679
G1 F2000 X29.2876 Y142.944 E209.734
G1 F2000 X31.0076 Y142.324 E209.789
G1 F2000 X32.7631 Y141.814 E209.844
G1 F2000 X34.5472 Y141.415 E209.898
G1 F2000 X36.3528 Y141.129 E209.953
G1 F2000 X38.1728 Y140.957 E210.008
G1 F2000 X40 Y140.9 E210.063
G1 F2000 X41.8272 Y140.957 E210.118
G1 F2000 X43.6472 Y141.129 E210.173
G1 F2000 X45.4528 Y141.415 E210.227
G1 F2000 X47.2369 Y141.814 E210.282
G1 F2000 X48.9924 Y142.324 E210.337
G1 F2000 X50.7124 Y142.943 E210.392
G1 F2000 X52.3902 Y143.67 E210.447
G1 F2000 X54.019 Y144.499 E210.502
G1 F2000 X55.5925 Y145.43 E210.556
G1 F2000 X57.1045 Y146.458 E210.611
G1 F2000 X58.549 Y147.578 E210.666
G1 F2000 X59.9203 Y148.787 E210.721
G1 F2000 X61.213 Y150.08 E210.776
G1 F2000 X62.4219 Y151.451 E210.831
G1 F2000 X63.5424 Y152.895 E210.886
G1 F2000 X64.5699 Y154.407 E210.94
G1 F2000 X65.5005 Y155.981 E210.995
G1 F2000 X66.3305 Y157.61 E211.05
G1 F2000 X67.0565 Y159.288 E211.105
G1 F2000 X67.6757 Y161.008 E211.16
G1 F2000 X68.1858 Y162.763 E211.215
G1 F2000 X68.5846 Y164.547 E211.269
G1 F2000 X68.8705 Y166.353 E211.324
G1 F2000 X69.0426 Y168.173 E211.379
G1 F2000 X69.1 Y170 E211.434
G1 F2000 X69.4 Y170 E211.443
G1 F2000 X69.4 Y170 E211.443
G1 F2000 X69.342 Y171.846 E211.498
G1 F2000 X69.1682 Y173.685 E211.554
G1 F2000 X68.8792 Y175.509 E211.609
G1 F2000 X68.4763 Y177.311 E211.665
G1 F2000 X67.9611 Y179.085 E211.72
G1 F2000 X67.3354 Y180.823 E211.775
G1 F2000 X66.6019 Y182.518 E211.831
G1 F2000 X65.7634 Y184.164 E211.886
G1 F2000 X64.8232 Y185.753 E211.942
G1 F2000 X63.7851 Y187.281 E211.997
G1 F2000 X62.6531 Y188.74 E212.052
G1 F2000 X61.4317 Y190.126 E212.108
G1 F2000 X60.1257 Y191.432 E212.163
G1 F2000 X58.7403 Y192.653 E212.219
G1 F2000 X57.2809 Y193.785 E212.274
G1 F2000 X55.7533 Y194.823 E212.329
G1 F2000 X54.1636 Y195.763 E212.385
G1 F2000 X52.5179 Y196.602 E212.44
G1 F2000 X50.8229 Y197.335 E212.496
G1 F2000 X49.0851 Y197.961 E212.551
G1 F2000 X47.3115 Y198.476 E212.606
G1 F2000 X45.509 Y198.879 E212.662
G1 F2000 X43.6848 Y199.168 E212.717
G1 F2000 X41.846 Y199.342 E212.773
G1 F2000 X40 Y199.4 E212.828
G1 F2000 X38.154 Y199.342 E212.883
G1 F2000 X36.3152 Y199.168 E212.939
G1 F2000 X34.491 Y198.879 E212.994
G1 F2000 X32.6885 Y198.476 E213.05
G1 F2000 X30.9149 Y197.961 E213.105
G1 F2000 X29.1771 Y197.335 E213.16
G1 F2000 X27.4821 Y196.602 E213.216
G1 F2000 X25.8364 Y195.763 E213.271
G1 F2000 X24.2467 Y194.823 E213.327
G1 F2000 X22.7191 Y193.785 E213.382
G1 F2000 X21.2597 Y192.653 E213.438
G1 F2000 X19.8743 Y191.432 E213.493
G1 F2000 X18.5683 Y190.126 E213.548
G1 F2000 X17.3469 Y188.74 E213.604
G1 F2000 X16.2149 Y187.281 E213.659
G1 F2000 X15.1768 Y185.753 E213.715
G1 F2000 X14.2366 Y184.164 E213.77
G1 F2000 X13.3981 Y182.518 E213.825
G1 F2000 X12.6646 Y180.823 E213.881
G1 F2000 X12.0389 Y179.085 E213.936
G1 F2000 X11.5237 Y177.311 E213.992
G1 F2000 X11.1208 Y175.509 E214.047
G1 F2000 X10.8318 Y173.685 E214.102
G1 F2000 X10.658 Y171.846 E214.158
G1 F2000 X10.6 Y170 E214.213
G1 F2000 X10.658 Y168.154 E214.269
G1 F2000 X10.8318 Y166.315 E214.324
G1 F2000 X11.1208 Y164.491 E214.379
G1 F2000 X11.5237 Y162.689 E214.435
G1 F2000 X12.0389 Y160.915 E214.49
G1 F2000 X12.6646 Y159.177 E214.546
G1 F2000 X13.3981 Y157.482 E214.601
G1 F2000 X14.2366 Y155.836 E214.656
G1 F2000 X15.1768 Y154.247 E214.712
G1 F2000 X16.2149 Y152.719 E214.767
G1 F2000 X17.3469 Y151.26 E214.823
G1 F2000 X18.5683 Y149.874 E214.878
G1 F2000 X19.8743 Y148.568 E214.933
G1 F2000 X21.2597 Y147.347 E214.989
G1 F2000 X22.7191 Y146.215 E215.044
G1 F2000 X24.2467 Y145.177 E215.1
G1 F2000 X25.8364 Y144.237 E215.155
G1 F2000 X27.4821 Y143.398 E215.21
G1 F2000 X29.1771 Y142.665 E215.266
G1 F2000 X30.9149 Y142.039 E215.321
G1 F2000 X32.6885 Y141.524 E215.377
G1 F2000 X34.491 Y141.121 E215.432
G1 F2000 X36.3152 Y140.832 E215.487
G1 F2000 X38.1539 Y140.658 E215.543
G1 F2000 X40 Y140.6 E215.598
G1 F2000 X41.846 Y140.658 E215.654
G1 F2000 X43.6848 Y140.832 E215.709
G1 F2000 X45.509 Y141.121 E215.765
G1 F2000 X47.3115 Y141.524 E215.82
G1 F2000 X49.0851 Y142.039 E215.875
G1 F2000 X50.8229 Y142.665 E215.931
G1 F2000 X52.5179 Y143.398 E215.986
G1 F2000 X54.1635 Y144.237 E216.042
G1 F2000 X55.7533 Y145.177 E216.097
G1 F2000 X57.2809 Y146.215 E216.152
G1 F2000 X58.7403 Y147.347 E216.208
G1 F2000 X60.1257 Y148.568 E216.263
G1 F2000 X61.4317 Y149.874 E216.319
G1 F2000 X62.6531 Y151.26 E216.374
G1 F2000 X63.7851 Y152.719 E216.429
G1 F2000 X64.8232 Y154.247 E216.485
G1 F2000 X65.7634 Y155.836 E216.54
G1 F2000 X66.6019 Y157.482 E216.596
G1 F2000 X67.3354 Y159.177 E216.651
G1 F2000 X67.9611 Y160.915 E216.706
G1 F2000 X68.4763 Y162.689 E216.762
G1 F2000 X68.8792 Y164.491 E216.817
G1 F2000 X69.1682 Y166.315 E216.873
G1 F2000 X69.342 Y168.154 E216.928
G1 F2000 X69.4 Y170 E216.983
G1 F2000 X69.7 Y170 E216.992
G1 F2000 X69.7 Y170 E216.992
G1 F2000 X69.6414 Y171.865 E217.048
G1 F2000 X69.4658 Y173.722 E217.104
G1 F2000 X69.1739 Y175.565 E217.16
G1 F2000 X68.7669 Y177.386 E217.216
G1 F2000 X68.2464 Y179.178 E217.272
G1 F2000 X67.6144 Y180.933 E217.328
G1 F2000 X66.8734 Y182.646 E217.384
G1 F2000 X66.0263 Y184.308 E217.44
G1 F2000 X65.0765 Y185.914 E217.496
G1 F2000 X64.0278 Y187.457 E217.552
G1 F2000 X62.8842 Y188.931 E217.608
G1 F2000 X61.6504 Y190.331 E217.664
G1 F2000 X60.331 Y191.65 E217.72
G1 F2000 X58.9315 Y192.884 E217.776
G1 F2000 X57.4572 Y194.028 E217.832
G1 F2000 X55.9141 Y195.077 E217.888
G1 F2000 X54.3081 Y196.026 E217.944
G1 F2000 X52.6456 Y196.873 E218
G1 F2000 X50.9333 Y197.614 E218.056
G1 F2000 X49.1778 Y198.246 E218.112
G1 F2000 X47.3861 Y198.767 E218.168
G1 F2000 X45.5652 Y199.174 E218.224
G1 F2000 X43.7224 Y199.466 E218.28
G1 F2000 X41.8649 Y199.641 E218.336
G1 F2000 X40 Y199.7 E218.392
G1 F2000 X38.1351 Y199.641 E218.448
G1 F2000 X36.2776 Y199.466 E218.504
G1 F2000 X34.4348 Y199.174 E218.56
G1 F2000 X32.6139 Y198.767 E218.616
G1 F2000 X30.8222 Y198.246 E218.672
G1 F2000 X29.0667 Y197.614 E218.727
G1 F2000 X27.3544 Y196.873 E218.783
G1 F2000 X25.6919 Y196.026 E218.839
G1 F2000 X24.0859 Y195.077 E218.895
G1 F2000 X22.5428 Y194.028 E218.951
G1 F2000 X21.0685 Y192.884 E219.007
G1 F2000 X19.669 Y191.65 E219.063
G1 F2000 X18.3496 Y190.331 E219.119
G1 F2000 X17.1158 Y188.931 E219.175
G1 F2000 X15.9722 Y187.457 E219.231
G1 F2000 X14.9235 Y185.914 E219.287
G1 F2000 X13.9737 Y184.308 E219.343
G1 F2000 X13.1266 Y182.646 E219.399
G1 F2000 X12.3856 Y180.933 E219.455
G1 F2000 X11.7536 Y179.178 E219.511
G1 F2000 X11.2331 Y177.386 E219.567
G1 F2000 X10.8261 Y175.565 E219.623
G1 F2000 X10.5342 Y173.722 E219.679
G1 F2000 X10.3586 Y171.865 E219.735
G1 F2000 X10.3 Y170 E219.791
G1 F2000 X10.3586 Y168.135 E219.847
G1 F2000 X10.5342 Y166.278 E219.903
G1 F2000 X10.8261 Y164.435 E219.959
G1 F2000 X11.2331 Y162.614 E220.015
G1 F2000 X11.7536 Y160.822 E220.071
G1 F2000 X12.3856 Y159.067 E220.127
G1 F2000 X13.1266 Y157.354 E220.183
G1 F2000 X13.9737 Y155.692 E220.239
G1 F2000 X14.9235 Y154.086 E220.295
G1 F2000 X15.9722 Y152.543 E220.351
G1 F2000 X17.1158 Y151.069 E220.407
G1 F2000 X18.3496 Y149.669 E220.463
G1 F2000 X19.6689 Y148.35 E220.518
G1 F2000 X21.0685 Y147.116 E220.574
G1 F2000 X22.5428 Y145.972 E220.63
G1 F2000 X24.0859 Y144.923 E220.686
G1 F2000 X25.6919 Y143.974 E220.742
G1 F2000 X27.3543 Y143.127 E220.798
G1 F2000 X29.0667 Y142.386 E220.854
G1 F2000 X30.8222 Y141.754 E220.91
G1 F2000 X32.6139 Y141.233 E220.966
G1 F2000 X34.4348 Y140.826 E221.022
G1 F2000 X36.2776 Y140.534 E221.078
G1 F2000 X38.1351 Y140.359 E221.134
G1 F2000 X40 Y140.3 E221.19
G1 F2000 X41.8649 Y140.359 E221.246
G1 F2000 X43.7224 Y140.534 E221.302
G1 F2000 X45.5652 Y140.826 E221.358
G1 F2000 X47.3861 Y141.233 E221.414
G1 F2000 X49.1778 Y141.754 E221.47
G1 F2000 X50.9333 Y142.386 E221.526
G1 F2000 X52.6456 Y143.127 E221.582
G1 F2000 X54.3081 Y143.974 E221.638
G1 F2000 X55.914 Y144.923 E221.694
G1 F2000 X57.4572 Y145.972 E221.75
G1 F2000 X58.9315 Y147.116 E221.806
G1 F2000 X60.331 Y148.35 E221.862
G1 F2000 X61.6504 Y149.669 E221.918
G1 F2000 X62.8842 Y151.068 E221.974
G1 F2000 X64.0278 Y152.543 E222.03
G1 F2000 X65.0765 Y154.086 E222.086
G1 F2000 X66.0263 Y155.692 E222.142
G1 F2000 X66.8734 Y157.354 E222.198
G1 F2000 X67.6144 Y159.067 E222.254
G1 F2000 X68.2464 Y160.822 E222.31
G1 F2000 X68.7669 Y162.614 E222.365
G1 F2000 X69.1739 Y164.435 E222.421
G1 F2000 X69.4658 Y166.278 E222.477
G1 F2000 X69.6414 Y168.135 E222.533
G1 F2000 X69.7 Y170 E222.589
;NEWLAYER
G1 F1200 X69.7 Y170 Z0.2
G1 F2000 X68.81 Y170 E222.616
G1 F2000 X68.81 Y170 E222.616
G1 F2000 X68.7532 Y171.809 E222.67
G1 F2000 X68.5828 Y173.611 E222.725
G1 F2000 X68.2997 Y175.398 E222.779
G1 F2000 X67.9049 Y177.165 E222.833
G1 F2000 X67.3999 Y178.903 E222.888
