;FLAVOR:UltiGCode
;TIME:6335      
;MATERIAL:10583     
;MATERIAL2:0         

;Layer count: 58
;LAYER:0
M107
G92 E0 
;SKIRT
G1 F2000 X150 Y80 Z0.1 E15.1
G1 F2000 X150 Y150 E19.61
G1 F2000 X80 Y150 E27.5981
G1 F2000 X80 Y80 E34.6209
G1 F2000 X150 Y80 E37.0396
G1 F2000 X149.7 Y80.3
G1 F2000 X149.7 Y149.7 E41.5425
G1 F2000 X80.3 Y149.7 E49.5032
G1 F2000 X80.3 Y80.3 E56.5038
G1 F2000 X149.7 Y80.3 E58.9349
G1 F2000 X149.4 Y80.6
G1 F2000 X149.4 Y149.4 E63.4308
G1 F2000 X80.6 Y149.4 E71.3642
G1 F2000 X80.6 Y80.6 E78.3425
G1 F2000 X149.4 Y80.6 E80.7863
G1 F2000 X149.1 Y80.9
G1 F2000 X149.1 Y149.1 E85.2755
G1 F2000 X80.9 Y149.1 E93.1815
G1 F2000 X80.9 Y80.9 E100.138
G1 F2000 X149.1 Y80.9 E102.594
G1 F2000 X148.8 Y81.2
G1 F2000 X148.8 Y148.8 E107.077
G1 F2000 X81.2 Y148.8 E114.956
G1 F2000 X81.2 Y81.2 E121.89
G1 F2000 X148.8 Y81.2 E124.36
G1 F2000 X148.5 Y81.5
G1 F2000 X148.5 Y148.5 E128.836
G1 F2000 X81.5 Y148.5 E136.687
G1 F2000 X81.5 Y81.5001 E143.599
G1 F2000 X148.5 Y81.5001 E146.082
G1 F2000 X148.2 Y81.8001
G1 F2000 X148.2 Y148.2 E150.552
G1 F2000 X81.8 Y148.2 E158.376
G1 F2000 X81.8 Y81.8001 E165.266
G1 F2000 X148.2 Y81.8001 E167.763
G1 F2000 X147.9 Y82.1001
G1 F2000 X147.9 Y147.9 E172.227
G1 F2000 X82.1 Y147.9 E180.024
G1 F2000 X82.1 Y82.1001 E186.892
G1 F2000 X147.9 Y82.1001 E189.403
G1 F2000 X147.6 Y82.4001
G1 F2000 X144.7 Y115 E190.385
G1 F2000 X144.7 Y115 E190.385
G1 F2000 X144.641 Y116.865 E190.441
G1 F2000 X144.466 Y118.722 E190.497
G1 F2000 X144.174 Y120.565 E190.552
G1 F2000 X143.767 Y122.386 E190.608
G1 F2000 X143.246 Y124.178 E190.664
G1 F2000 X142.614 Y125.933 E190.72
G1 F2000 X141.873 Y127.646 E190.776
G1 F2000 X141.026 Y129.308 E190.832
G1 F2000 X140.077 Y130.914 E190.888
G1 F2000 X139.028 Y132.457 E190.944
G1 F2000 X137.884 Y133.931 E191
G1 F2000 X136.65 Y135.331 E191.056
G1 F2000 X135.331 Y136.65 E191.112
G1 F2000 X133.931 Y137.884 E191.168
G1 F2000 X132.457 Y139.028 E191.224
G1 F2000 X130.914 Y140.077 E191.28
G1 F2000 X129.308 Y141.026 E191.336
G1 F2000 X127.646 Y141.873 E191.392
G1 F2000 X125.933 Y142.614 E191.448
G1 F2000 X124.178 Y143.246 E191.504
G1 F2000 X122.386 Y143.767 E191.56
G1 F2000 X120.565 Y144.174 E191.616
G1 F2000 X118.722 Y144.466 E191.672
G1 F2000 X116.865 Y144.641 E191.728
G1 F2000 X115 Y144.7 E191.784
G1 F2000 X113.135 Y144.641 E191.84
G1 F2000 X111.278 Y144.466 E191.896
G1 F2000 X109.435 Y144.174 E191.952
G1 F2000 X107.614 Y143.767 E192.008
G1 F2000 X105.822 Y143.246 E192.064
G1 F2000 X104.067 Y142.614 E192.12
G1 F2000 X102.354 Y141.873 E192.176
G1 F2000 X100.692 Y141.026 E192.232
G1 F2000 X99.0859 Y140.077 E192.288
G1 F2000 X97.5428 Y139.028 E192.344
G1 F2000 X96.0685 Y137.884 E192.399
G1 F2000 X94.669 Y136.65 E192.455
G1 F2000 X93.3496 Y135.331 E192.511
G1 F2000 X92.1158 Y133.931 E192.567
G1 F2000 X90.9722 Y132.457 E192.623
G1 F2000 X89.9235 Y130.914 E192.679
G1 F2000 X88.9737 Y129.308 E192.735
G1 F2000 X88.1266 Y127.646 E192.791
G1 F2000 X87.3856 Y125.933 E192.847
G1 F2000 X86.7536 Y124.178 E192.903
G1 F2000 X86.2331 Y122.386 E192.959
G1 F2000 X85.8261 Y120.565 E193.015
G1 F2000 X85.5342 Y118.722 E193.071
G1 F2000 X85.3586 Y116.865 E193.127
G1 F2000 X85.3 Y115 E193.183
G1 F2000 X85.3586 Y113.135 E193.239
G1 F2000 X85.5342 Y111.278 E193.295
G1 F2000 X85.8261 Y109.435 E193.351
G1 F2000 X86.2331 Y107.614 E193.407
G1 F2000 X86.7536 Y105.822 E193.463
G1 F2000 X87.3856 Y104.067 E193.519
G1 F2000 X88.1266 Y102.354 E193.575
G1 F2000 X88.9737 Y100.692 E193.631
G1 F2000 X89.9235 Y99.086 E193.687
G1 F2000 X90.9722 Y97.5428 E193.743
G1 F2000 X92.1158 Y96.0685 E193.799
G1 F2000 X93.3496 Y94.669 E193.855
G1 F2000 X94.6689 Y93.3496 E193.911
G1 F2000 X96.0685 Y92.1158 E193.967
G1 F2000 X97.5428 Y90.9722 E194.023
G1 F2000 X99.0859 Y89.9235 E194.079
G1 F2000 X100.692 Y88.9737 E194.135
G1 F2000 X102.354 Y88.1266 E194.19
G1 F2000 X104.067 Y87.3856 E194.246
G1 F2000 X105.822 Y86.7536 E194.302
G1 F2000 X107.614 Y86.2331 E194.358
G1 F2000 X109.435 Y85.8261 E194.414
G1 F2000 X111.278 Y85.5342 E194.47
G1 F2000 X113.135 Y85.3586 E194.526
G1 F2000 X115 Y85.3 E194.582
G1 F2000 X116.865 Y85.3586 E194.638
G1 F2000 X118.722 Y85.5342 E194.694
G1 F2000 X120.565 Y85.8261 E194.75
G1 F2000 X122.386 Y86.2331 E194.806
G1 F2000 X124.178 Y86.7536 E194.862
G1 F2000 X125.933 Y87.3856 E194.918
G1 F2000 X127.646 Y88.1266 E194.974
G1 F2000 X129.308 Y88.9737 E195.03
G1 F2000 X130.914 Y89.9235 E195.086
G1 F2000 X132.457 Y90.9722 E195.142
G1 F2000 X133.931 Y92.1158 E195.198
G1 F2000 X135.331 Y93.3496 E195.254
G1 F2000 X136.65 Y94.6689 E195.31
G1 F2000 X137.884 Y96.0685 E195.366
G1 F2000 X139.028 Y97.5428 E195.422
G1 F2000 X140.077 Y99.0859 E195.478
G1 F2000 X141.026 Y100.692 E195.534
G1 F2000 X141.873 Y102.354 E195.59
G1 F2000 X142.614 Y104.067 E195.646
G1 F2000 X143.246 Y105.822 E195.702
G1 F2000 X143.767 Y107.614 E195.758
G1 F2000 X144.174 Y109.435 E195.814
G1 F2000 X144.466 Y111.278 E195.87
G1 F2000 X144.641 Y113.135 E195.926
G1 F2000 X144.7 Y115 E195.982
G1 F2000 X145 Y115 E195.991
G1 F2000 X145 Y115 E195.991
G1 F2000 X144.941 Y116.884 E196.047
G1 F2000 X144.763 Y118.76 E196.104
G1 F2000 X144.469 Y120.621 E196.16
G1 F2000 X144.057 Y122.461 E196.217
G1 F2000 X143.532 Y124.271 E196.273
G1 F2000 X142.893 Y126.044 E196.33
G1 F2000 X142.145 Y127.773 E196.386
G1 F2000 X141.289 Y129.453 E196.443
G1 F2000 X140.33 Y131.075 E196.499
G1 F2000 X139.271 Y132.634 E196.556
G1 F2000 X138.115 Y134.123 E196.612
G1 F2000 X136.869 Y135.536 E196.669
G1 F2000 X135.536 Y136.869 E196.725
G1 F2000 X134.123 Y138.115 E196.782
G1 F2000 X132.634 Y139.271 E196.839
G1 F2000 X131.075 Y140.33 E196.895
G1 F2000 X129.453 Y141.289 E196.952
G1 F2000 X127.773 Y142.145 E197.008
G1 F2000 X126.044 Y142.893 E197.065
G1 F2000 X124.271 Y143.532 E197.121
G1 F2000 X122.461 Y144.057 E197.178
G1 F2000 X120.621 Y144.469 E197.234
G1 F2000 X118.76 Y144.763 E197.291
G1 F2000 X116.884 Y144.941 E197.347
G1 F2000 X115 Y145 E197.404
G1 F2000 X113.116 Y144.941 E197.46
G1 F2000 X111.24 Y144.763 E197.517
G1 F2000 X109.379 Y144.469 E197.573
G1 F2000 X107.539 Y144.057 E197.63
G1 F2000 X105.729 Y143.532 E197.687
G1 F2000 X103.956 Y142.893 E197.743
G1 F2000 X102.227 Y142.145 E197.8
G1 F2000 X100.547 Y141.289 E197.856
G1 F2000 X98.9252 Y140.33 E197.913
G1 F2000 X97.3664 Y139.271 E197.969
G1 F2000 X95.8773 Y138.115 E198.026
G1 F2000 X94.4636 Y136.869 E198.082
G1 F2000 X93.1309 Y135.536 E198.139
G1 F2000 X91.8846 Y134.123 E198.195
G1 F2000 X90.7295 Y132.634 E198.252
G1 F2000 X89.6702 Y131.075 E198.308
G1 F2000 X88.7108 Y129.453 E198.365
G1 F2000 X87.8552 Y127.773 E198.421
G1 F2000 X87.1067 Y126.044 E198.478
G1 F2000 X86.4683 Y124.271 E198.535
G1 F2000 X85.9425 Y122.461 E198.591
G1 F2000 X85.5314 Y120.621 E198.648
G1 F2000 X85.2366 Y118.76 E198.704
G1 F2000 X85.0592 Y116.884 E198.761
G1 F2000 X85 Y115 E198.817
G1 F2000 X85.0592 Y113.116 E198.874
G1 F2000 X85.2366 Y111.24 E198.93
G1 F2000 X85.5314 Y109.379 E198.987
G1 F2000 X85.9425 Y107.539 E199.043
G1 F2000 X86.4683 Y105.729 E199.1
G1 F2000 X87.1067 Y103.956 E199.156
G1 F2000 X87.8552 Y102.227 E199.213
G1 F2000 X88.7108 Y100.547 E199.269
G1 F2000 X89.6702 Y98.9252 E199.326
G1 F2000 X90.7295 Y97.3664 E199.383
G1 F2000 X91.8846 Y95.8773 E199.439
G1 F2000 X93.1309 Y94.4636 E199.496
G1 F2000 X94.4636 Y93.131 E199.552
G1 F2000 X95.8773 Y91.8846 E199.609
G1 F2000 X97.3664 Y90.7295 E199.665
G1 F2000 X98.9252 Y89.6702 E199.722
G1 F2000 X100.547 Y88.7108 E199.778
G1 F2000 X102.227 Y87.8552 E199.835
G1 F2000 X103.956 Y87.1067 E199.891
G1 F2000 X105.729 Y86.4683 E199.948
G1 F2000 X107.539 Y85.9425 E200.004
G1 F2000 X109.379 Y85.5314 E200.061
G1 F2000 X111.24 Y85.2366 E200.117
G1 F2000 X113.116 Y85.0592 E200.174
G1 F2000 X115 Y85 E200.231
G1 F2000 X116.884 Y85.0592 E200.287
G1 F2000 X118.76 Y85.2366 E200.344
G1 F2000 X120.621 Y85.5314 E200.4
G1 F2000 X122.461 Y85.9425 E200.457
G1 F2000 X124.271 Y86.4683 E200.513
G1 F2000 X126.044 Y87.1067 E200.57
G1 F2000 X127.773 Y87.8552 E200.626
G1 F2000 X129.453 Y88.7108 E200.683
G1 F2000 X131.075 Y89.6702 E200.739
G1 F2000 X132.634 Y90.7295 E200.796
G1 F2000 X134.123 Y91.8846 E200.852
G1 F2000 X135.536 Y93.1309 E200.909
G1 F2000 X136.869 Y94.4636 E200.965
G1 F2000 X138.115 Y95.8773 E201.022
G1 F2000 X139.271 Y97.3664 E201.079
G1 F2000 X140.33 Y98.9252 E201.135
G1 F2000 X141.289 Y100.547 E201.192
G1 F2000 X142.145 Y102.227 E201.248
G1 F2000 X142.893 Y103.956 E201.305
G1 F2000 X143.532 Y105.729 E201.361
G1 F2000 X144.057 Y107.539 E201.418
G1 F2000 X144.469 Y109.379 E201.474
G1 F2000 X144.763 Y111.24 E201.531
G1 F2000 X144.941 Y113.116 E201.587
G1 F2000 X145 Y115 E201.644
;NEWLAYER
G1 F1200 X145 Y115 Z0.2
G1 F2000 X144.71 Y115 E201.653
G1 F2000 X144.71 Y115 E201.653
G1 F2000 X144.651 Y116.866 E201.709
G1 F2000 X144.476 Y118.724 E201.765
G1 F2000 X144.184 Y120.567 E201.821
G1 F2000 X143.777 Y122.389 E201.877
G1 F2000 X143.256 Y124.181 E201.933
G1 F2000 X142.624 Y125.937 E201.989
G1 F2000 X141.882 Y127.65 E202.045
G1 F2000 X141.035 Y129.313 E202.101
G1 F2000 X140.085 Y130.919 E202.157
G1 F2000 X139.036 Y132.463 E202.213
G1 F2000 X137.892 Y133.938 E202.269
G1 F2000 X136.658 Y135.338 E202.325
G1 F2000 X135.338 Y136.658 E202.381
G1 F2000 X133.938 Y137.892 E202.437
G1 F2000 X132.463 Y139.036 E202.493
G1 F2000 X130.919 Y140.085 E202.549
G1 F2000 X129.313 Y141.035 E202.605
G1 F2000 X127.65 Y141.882 E202.661
G1 F2000 X125.937 Y142.624 E202.717
G1 F2000 X124.181 Y143.256 E202.773
G1 F2000 X122.389 Y143.777 E202.829
G1 F2000 X120.567 Y144.184 E202.885
G1 F2000 X118.724 Y144.476 E202.941
G1 F2000 X116.866 Y144.651 E202.997
G1 F2000 X115 Y144.71 E203.053
G1 F2000 X113.134 Y144.651 E203.109
G1 F2000 X111.276 Y144.476 E203.165
G1 F2000 X109.433 Y144.184 E203.221
G1 F2000 X107.611 Y143.777 E203.277
G1 F2000 X105.819 Y143.256 E203.333
G1 F2000 X104.063 Y142.624 E203.389
G1 F2000 X102.35 Y141.882 E203.445
G1 F2000 X100.687 Y141.035 E203.501
G1 F2000 X99.0806 Y140.085 E203.557
G1 F2000 X97.5369 Y139.036 E203.613
G1 F2000 X96.0621 Y137.892 E203.669
G1 F2000 X94.6621 Y136.658 E203.725
G1 F2000 X93.3423 Y135.338 E203.781
G1 F2000 X92.1081 Y133.938 E203.837
G1 F2000 X90.9641 Y132.463 E203.893
G1 F2000 X89.915 Y130.919 E203.949
G1 F2000 X88.9649 Y129.313 E204.005
G1 F2000 X88.1176 Y127.65 E204.061
G1 F2000 X87.3763 Y125.937 E204.117
G1 F2000 X86.7441 Y124.181 E204.173
G1 F2000 X86.2234 Y122.389 E204.229
G1 F2000 X85.8162 Y120.567 E204.285
G1 F2000 X85.5243 Y118.724 E204.341
G1 F2000 X85.3486 Y116.866 E204.397
G1 F2000 X85.29 Y115 E204.453
G1 F2000 X85.3486 Y113.134 E204.509
G1 F2000 X85.5243 Y111.276 E204.565
G1 F2000 X85.8162 Y109.433 E204.621
G1 F2000 X86.2234 Y107.611 E204.677
G1 F2000 X86.7441 Y105.819 E204.733
G1 F2000 X87.3763 Y104.063 E204.789
G1 F2000 X88.1176 Y102.35 E204.845
G1 F2000 X88.9649 Y100.687 E204.901
G1 F2000 X89.915 Y99.0806 E204.957
G1 F2000 X90.9641 Y97.5369 E205.013
G1 F2000 X92.108 Y96.0621 E205.069
G1 F2000 X93.3423 Y94.6621 E205.125
G1 F2000 X94.6621 Y93.3423 E205.181
G1 F2000 X96.0621 Y92.1081 E205.237
G1 F2000 X97.5369 Y90.9641 E205.293
G1 F2000 X99.0806 Y89.915 E205.349
G1 F2000 X100.687 Y88.9649 E205.405
G1 F2000 X102.35 Y88.1176 E205.461
G1 F2000 X104.063 Y87.3763 E205.517
G1 F2000 X105.819 Y86.7441 E205.573
G1 F2000 X107.611 Y86.2234 E205.629
G1 F2000 X109.433 Y85.8162 E205.685
G1 F2000 X111.276 Y85.5243 E205.741
G1 F2000 X113.134 Y85.3486 E205.797
G1 F2000 X115 Y85.29 E205.853
G1 F2000 X116.865 Y85.3486 E205.909
G1 F2000 X118.724 Y85.5243 E205.965
G1 F2000 X120.567 Y85.8162 E206.021
G1 F2000 X122.389 Y86.2234 E206.077
G1 F2000 X124.181 Y86.7441 E206.133
G1 F2000 X125.937 Y87.3763 E206.189
G1 F2000 X127.65 Y88.1176 E206.245
G1 F2000 X129.313 Y88.9649 E206.301
G1 F2000 X130.919 Y89.915 E206.357
G1 F2000 X132.463 Y90.9641 E206.413
G1 F2000 X133.938 Y92.108 E206.469
G1 F2000 X135.338 Y93.3423 E206.525
G1 F2000 X136.658 Y94.6621 E206.581
G1 F2000 X137.892 Y96.0621 E206.637
G1 F2000 X139.036 Y97.5369 E206.693
G1 F2000 X140.085 Y99.0806 E206.749
G1 F2000 X141.035 Y100.687 E206.805
G1 F2000 X141.882 Y102.35 E206.861
G1 F2000 X142.624 Y104.063 E206.917
G1 F2000 X143.256 Y105.819 E206.973
G1 F2000 X143.777 Y107.611 E207.029
G1 F2000 X144.184 Y109.433 E207.085
G1 F2000 X144.476 Y111.276 E207.141
G1 F2000 X144.651 Y113.134 E207.197
G1 F2000 X144.71 Y115 E207.253
G1 F2000 X145.01 Y115 E207.262
G1 F2000 X145.01 Y115 E207.262
G1 F2000 X144.951 Y116.884 E207.318
G1 F2000 X144.773 Y118.761 E207.375
G1 F2000 X144.478 Y120.623 E207.431
G1 F2000 X144.067 Y122.463 E207.488
G1 F2000 X143.541 Y124.274 E207.544
G1 F2000 X142.903 Y126.047 E207.601
G1 F2000 X142.154 Y127.778 E207.658
G1 F2000 X141.298 Y129.457 E207.714
G1 F2000 X140.338 Y131.08 E207.771
G1 F2000 X139.279 Y132.639 E207.827
G1 F2000 X138.123 Y134.129 E207.884
G1 F2000 X136.876 Y135.543 E207.94
G1 F2000 X135.543 Y136.876 E207.997
G1 F2000 X134.129 Y138.123 E208.054
G1 F2000 X132.639 Y139.279 E208.11
G1 F2000 X131.08 Y140.338 E208.167
G1 F2000 X129.457 Y141.298 E208.223
G1 F2000 X127.778 Y142.154 E208.28
G1 F2000 X126.047 Y142.903 E208.336
G1 F2000 X124.274 Y143.541 E208.393
G1 F2000 X122.463 Y144.067 E208.449
G1 F2000 X120.623 Y144.478 E208.506
G1 F2000 X118.761 Y144.773 E208.563
G1 F2000 X116.884 Y144.951 E208.619
G1 F2000 X115 Y145.01 E208.676
G1 F2000 X113.116 Y144.951 E208.732
G1 F2000 X111.239 Y144.773 E208.789
G1 F2000 X109.377 Y144.478 E208.845
G1 F2000 X107.537 Y144.067 E208.902
G1 F2000 X105.726 Y143.541 E208.959
G1 F2000 X103.953 Y142.903 E209.015
G1 F2000 X102.222 Y142.154 E209.072
G1 F2000 X100.543 Y141.298 E209.128
G1 F2000 X98.9198 Y140.338 E209.185
G1 F2000 X97.3606 Y139.279 E209.241
G1 F2000 X95.8709 Y138.123 E209.298
G1 F2000 X94.4567 Y136.876 E209.354
G1 F2000 X93.1237 Y135.543 E209.411
G1 F2000 X91.8769 Y134.129 E209.468
G1 F2000 X90.7214 Y132.639 E209.524
G1 F2000 X89.6617 Y131.08 E209.581
G1 F2000 X88.702 Y129.457 E209.637
G1 F2000 X87.8461 Y127.778 E209.694
G1 F2000 X87.0974 Y126.047 E209.75
G1 F2000 X86.4588 Y124.274 E209.807
G1 F2000 X85.9328 Y122.463 E209.864
G1 F2000 X85.5216 Y120.623 E209.92
G1 F2000 X85.2266 Y118.761 E209.977
G1 F2000 X85.0492 Y116.884 E210.033
G1 F2000 X84.99 Y115 E210.09
G1 F2000 X85.0492 Y113.116 E210.146
G1 F2000 X85.2266 Y111.239 E210.203
G1 F2000 X85.5216 Y109.377 E210.26
G1 F2000 X85.9328 Y107.537 E210.316
G1 F2000 X86.4588 Y105.726 E210.373
G1 F2000 X87.0974 Y103.953 E210.429
G1 F2000 X87.8461 Y102.222 E210.486
G1 F2000 X88.702 Y100.543 E210.542
G1 F2000 X89.6617 Y98.9198 E210.599
G1 F2000 X90.7214 Y97.3606 E210.655
G1 F2000 X91.8769 Y95.8709 E210.712
G1 F2000 X93.1236 Y94.4567 E210.769
G1 F2000 X94.4567 Y93.1237 E210.825
G1 F2000 X95.8709 Y91.8769 E210.882
G1 F2000 X97.3606 Y90.7214 E210.938
G1 F2000 X98.9198 Y89.6617 E210.995
G1 F2000 X100.543 Y88.702 E211.051
G1 F2000 X102.222 Y87.8461 E211.108
G1 F2000 X103.953 Y87.0974 E211.165
G1 F2000 X105.726 Y86.4588 E211.221
G1 F2000 X107.537 Y85.9328 E211.278
G1 F2000 X109.377 Y85.5216 E211.334
G1 F2000 X111.239 Y85.2266 E211.391
G1 F2000 X113.116 Y85.0492 E211.447
G1 F2000 X115 Y84.99 E211.504
G1 F2000 X116.884 Y85.0492 E211.561
G1 F2000 X118.761 Y85.2266 E211.617
G1 F2000 X120.623 Y85.5216 E211.674
G1 F2000 X122.463 Y85.9328 E211.73
G1 F2000 X124.274 Y86.4588 E211.787
G1 F2000 X126.047 Y87.0974 E211.843
G1 F2000 X127.778 Y87.8461 E211.9
G1 F2000 X129.457 Y88.702 E211.956
G1 F2000 X131.08 Y89.6617 E212.013
G1 F2000 X132.639 Y90.7214 E212.07
G1 F2000 X134.129 Y91.8769 E212.126
G1 F2000 X135.543 Y93.1236 E212.183
G1 F2000 X136.876 Y94.4567 E212.239
G1 F2000 X138.123 Y95.8709 E212.296
G1 F2000 X139.279 Y97.3606 E212.352
G1 F2000 X140.338 Y98.9198 E212.409
G1 F2000 X141.298 Y100.543 E212.466
G1 F2000 X142.154 Y102.222 E212.522
G1 F2000 X142.903 Y103.953 E212.579
G1 F2000 X143.541 Y105.726 E212.635
G1 F2000 X144.067 Y107.537 E212.692
G1 F2000 X144.478 Y109.377 E212.748
G1 F2000 X144.773 Y111.239 E212.805
G1 F2000 X144.951 Y113.116 E212.861
G1 F2000 X145.01 Y115 E212.918
;NEWLAYER
G1 F1200 X145.01 Y115 Z0.3
G1 F2000 X144.72 Y115 E212.927
G1 F2000 X144.72 Y115 E212.927
G1 F2000 X144.661 Y116.866 E212.983
G1 F2000 X144.486 Y118.725 E213.039
