;FLAVOR:UltiGCode
;TIME:6335      
;MATERIAL:10583     
;MATERIAL2:0         

;Layer count: 58
;LAYER:0
M107
;SKIRT
G1 F2000 X85 Y135 Z0.1 E4.78592
G1 F2000 X85 Y225 E7.48592
G1 F2000 X-5 Y225 E10.1859
G1 F2000 X-5 Y135 E12.8859
G1 F2000 X85 Y135 E15.5859
G1 F2000 X84.7 Y135.3
G1 F2000 X84.7 Y224.7 E18.2679
G1 F2000 X-4.7 Y224.7 E20.9499
G1 F2000 X-4.7 Y135.3 E23.6319
G1 F2000 X84.7 Y135.3 E26.3139
G1 F2000 X84.4 Y135.6
G1 F2000 X84.4 Y224.4 E28.9779
G1 F2000 X-4.40001 Y224.4 E31.6419
G1 F2000 X-4.40001 Y135.6 E34.3059
G1 F2000 X84.4 Y135.6 E36.9699
G1 F2000 X84.1 Y135.9
G1 F2000 X84.1 Y224.1 E39.6159
G1 F2000 X-4.10001 Y224.1 E42.2619
G1 F2000 X-4.10001 Y135.9 E44.9079
G1 F2000 X84.1 Y135.9 E47.5539
G1 F2000 X83.8 Y136.2
G1 F2000 X83.8 Y223.8 E50.1819
G1 F2000 X-3.80002 Y223.8 E52.8099
G1 F2000 X-3.80002 Y136.2 E55.4379
G1 F2000 X83.8 Y136.2 E58.0659
G1 F2000 X83.5 Y136.5
G1 F2000 X83.5 Y223.5 E60.6759
G1 F2000 X-3.50002 Y223.5 E63.2859
G1 F2000 X-3.50002 Y136.5 E65.8959
G1 F2000 X83.5 Y136.5 E68.5059
G1 F2000 X83.2 Y136.8
G1 F2000 X83.2 Y223.2 E71.0979
G1 F2000 X-3.20003 Y223.2 E73.6899
G1 F2000 X-3.20003 Y136.8 E76.2819
G1 F2000 X83.2 Y136.8 E78.8739
G1 F2000 X82.9 Y137.1
G1 F2000 X82.9 Y222.9 E81.4479
G1 F2000 X-2.90003 Y222.9 E84.0219
G1 F2000 X-2.90003 Y137.1 E86.5959
G1 F2000 X82.9 Y137.1 E89.1699
G1 F2000 X82.6 Y137.4
G1 F2000 X80 Y165 E90.0016
G1 F2000 X80 Y192.6 E90.8296
G1 F2000 X2.4 Y192.6 E93.1576
G1 F2000 X2.4 Y165 E93.9856
G1 F2000 X80 Y165 E96.3136
G1 F2000 X80.3 Y164.7
G1 F2000 X80.3 Y192.9 E97.1596
G1 F2000 X2.10001 Y192.9 E99.5056
G1 F2000 X2.10001 Y164.7 E100.352
G1 F2000 X80.3 Y164.7 E102.698
G1 F2000 X80.6 Y164.4
G1 F2000 X80.6 Y193.2 E103.562
G1 F2000 X1.80001 Y193.2 E105.926
G1 F2000 X1.80001 Y164.4 E106.79
G1 F2000 X80.6 Y164.4 E109.154
G1 F2000 X80.9 Y164.1
G1 F2000 X80.9 Y193.5 E110.036
G1 F2000 X1.50002 Y193.5 E112.418
G1 F2000 X1.50002 Y164.1 E113.3
G1 F2000 X80.9 Y164.1 E115.682
G1 F2000 X81.2 Y163.8
;NEWLAYER
G1 F1200 X81.2 Y163.8 Z0.2
G1 F2000 X80 Y165 E115.733
G1 F2000 X80 Y192.6 E116.561
G1 F2000 X2.4 Y192.6 E118.889
G1 F2000 X2.4 Y165 E119.717
G1 F2000 X80 Y165 E122.045
G1 F2000 X80.3 Y164.7
G1 F2000 X80.3 Y192.9 E122.891
G1 F2000 X2.10001 Y192.9 E125.237
G1 F2000 X2.10001 Y164.7 E126.083
G1 F2000 X80.3 Y164.7 E128.429
G1 F2000 X80.6 Y164.4
G1 F2000 X80.6 Y193.2 E129.293
G1 F2000 X1.80001 Y193.2 E131.657
G1 F2000 X1.80001 Y164.4 E132.521
G1 F2000 X80.6 Y164.4 E134.885
G1 F2000 X80.9 Y164.1
G1 F2000 X80.9 Y193.5 E135.767
G1 F2000 X1.50002 Y193.5 E138.149
G1 F2000 X1.50002 Y164.1 E139.031
G1 F2000 X80.9 Y164.1 E141.413
G1 F2000 X81.2 Y163.8
;NEWLAYER
G1 F1200 X81.2 Y163.8 Z0.3
G1 F2000 X80 Y165 E141.463
G1 F2000 X80 Y192.6 E142.291
G1 F2000 X2.4 Y192.6 E144.619
G1 F2000 X2.4 Y165 E145.447
G1 F2000 X80 Y165 E147.775
G1 F2000 X80.3 Y164.7
G1 F2000 X80.3 Y192.9 E148.621
G1 F2000 X2.10001 Y192.9 E150.967
G1 F2000 X2.10001 Y164.7 E151.813
G1 F2000 X80.3 Y164.7 E154.159
G1 F2000 X80.6 Y164.4
G1 F2000 X80.6 Y193.2 E155.023
G1 F2000 X1.80001 Y193.2 E157.387
G1 F2000 X1.80001 Y164.4 E158.251
G1 F2000 X80.6 Y164.4 E160.615
G1 F2000 X80.9 Y164.1
G1 F2000 X80.9 Y193.5 E161.497
G1 F2000 X1.50002 Y193.5 E163.879
G1 F2000 X1.50002 Y164.1 E164.761
G1 F2000 X80.9 Y164.1 E167.143
G1 F2000 X81.2 Y163.8
;NEWLAYER
G1 F1200 X81.2 Y163.8 Z0.4
G1 F2000 X80 Y165 E167.194
G1 F2000 X80 Y192.6 E168.022
G1 F2000 X2.4 Y192.6 E170.35
G1 F2000 X2.4 Y165 E171.178
G1 F2000 X80 Y165 E173.506
G1 F2000 X80.3 Y164.7
G1 F2000 X80.3 Y192.9 E174.352
G1 F2000 X2.10001 Y192.9 E176.698
G1 F2000 X2.10001 Y164.7 E177.544
G1 F2000 X80.3 Y164.7 E179.89
G1 F2000 X80.6 Y164.4
G1 F2000 X80.6 Y193.2 E180.754
G1 F2000 X1.80001 Y193.2 E183.118
G1 F2000 X1.80001 Y164.4 E183.982
G1 F2000 X80.6 Y164.4 E186.346
G1 F2000 X80.9 Y164.1
G1 F2000 X80.9 Y193.5 E187.228
G1 F2000 X1.50002 Y193.5 E189.61
G1 F2000 X1.50002 Y164.1 E190.492
G1 F2000 X80.9 Y164.1 E192.874
G1 F2000 X81.2 Y163.8
;NEWLAYER
G1 F1200 X81.2 Y163.8 Z0.5
G1 F2000 X80 Y165 E192.925
G1 F2000 X80 Y192.6 E193.753
G1 F2000 X2.4 Y192.6 E196.081
G1 F2000 X2.4 Y165 E196.909
G1 F2000 X80 Y165 E199.237
G1 F2000 X80.3 Y164.7
G1 F2000 X80.3 Y192.9 E200.083
G1 F2000 X2.10001 Y192.9 E202.429
G1 F2000 X2.10001 Y164.7 E203.275
G1 F2000 X80.3 Y164.7 E205.621
G1 F2000 X80.6 Y164.4
G1 F2000 X80.6 Y193.2 E206.485
G1 F2000 X1.80001 Y193.2 E208.849
G1 F2000 X1.80001 Y164.4 E209.713
G1 F2000 X80.6 Y164.4 E212.077
G1 F2000 X80.9 Y164.1
G1 F2000 X80.9 Y193.5 E212.959
G1 F2000 X1.50002 Y193.5 E215.341
G1 F2000 X1.50002 Y164.1 E216.223
G1 F2000 X80.9 Y164.1 E218.605
G1 F2000 X81.2 Y163.8
;NEWLAYER
G1 F1200 X81.2 Y163.8 Z0.6
G1 F2000 X80 Y165 E218.656
G1 F2000 X80 Y192.6 E219.484
G1 F2000 X2.4 Y192.6 E221.812
G1 F2000 X2.4 Y165 E222.64
G1 F2000 X80 Y165 E224.968
G1 F2000 X80.3 Y164.7
G1 F2000 X80.3 Y192.9 E225.814
G1 F2000 X2.10001 Y192.9 E228.16
G1 F2000 X2.10001 Y164.7 E229.006
G1 F2000 X80.3 Y164.7 E231.352
G1 F2000 X80.6 Y164.4
G1 F2000 X80.6 Y193.2 E232.216
G1 F2000 X1.80001 Y193.2 E234.58
G1 F2000 X1.80001 Y164.4 E235.444
G1 F2000 X80.6 Y164.4 E237.808
G1 F2000 X80.9 Y164.1
G1 F2000 X80.9 Y193.5 E238.69
G1 F2000 X1.50002 Y193.5 E241.072
G1 F2000 X1.50002 Y164.1 E241.954
G1 F2000 X80.9 Y164.1 E244.336
G1 F2000 X81.2 Y163.8
;NEWLAYER
G1 F1200 X81.2 Y163.8 Z0.7
G1 F2000 X80 Y165 E244.387
G1 F2000 X80 Y192.6 E245.215
G1 F2000 X2.4 Y192.6 E247.543
G1 F2000 X2.4 Y165 E248.371
G1 F2000 X80 Y165 E250.699
G1 F2000 X80.3 Y164.7
G1 F2000 X80.3 Y192.9 E251.545
G1 F2000 X2.10001 Y192.9 E253.891
G1 F2000 X2.10001 Y164.7 E254.737
G1 F2000 X80.3 Y164.7 E257.083
G1 F2000 X80.6 Y164.4
G1 F2000 X80.6 Y193.2 E257.947
G1 F2000 X1.80001 Y193.2 E260.311
G1 F2000 X1.80001 Y164.4 E261.175
G1 F2000 X80.6 Y164.4 E263.539
G1 F2000 X80.9 Y164.1
G1 F2000 X80.9 Y193.5 E264.421
G1 F2000 X1.50002 Y193.5 E266.803
G1 F2000 X1.50002 Y164.1 E267.685
G1 F2000 X80.9 Y164.1 E270.067
G1 F2000 X81.2 Y163.8
;NEWLAYER
G1 F1200 X81.2 Y163.8 Z0.8
G1 F2000 X80 Y165 E270.118
G1 F2000 X80 Y192.6 E270.946
G1 F2000 X2.4 Y192.6 E273.274
G1 F2000 X2.4 Y165 E274.102
G1 F2000 X80 Y165 E276.43
G1 F2000 X80.3 Y164.7
G1 F2000 X80.3 Y192.9 E277.276
G1 F2000 X2.10001 Y192.9 E279.622
G1 F2000 X2.10001 Y164.7 E280.468
G1 F2000 X80.3 Y164.7 E282.814
G1 F2000 X80.6 Y164.4
G1 F2000 X80.6 Y193.2 E283.678
G1 F2000 X1.80001 Y193.2 E286.042
G1 F2000 X1.80001 Y164.4 E286.906
G1 F2000 X80.6 Y164.4 E289.27
G1 F2000 X80.9 Y164.1
G1 F2000 X80.9 Y193.5 E290.152
G1 F2000 X1.50002 Y193.5 E292.534
G1 F2000 X1.50002 Y164.1 E293.416
G1 F2000 X80.9 Y164.1 E295.798
G1 F2000 X81.2 Y163.8
;NEWLAYER
G1 F1200 X81.2 Y163.8 Z0.9
G1 F2000 X80 Y165 E295.849
G1 F2000 X80 Y192.6 E296.677
G1 F2000 X2.4 Y192.6 E299.005
G1 F2000 X2.4 Y165 E299.833
G1 F2000 X80 Y165 E302.161
G1 F2000 X80.3 Y164.7
G1 F2000 X80.3 Y192.9 E303.007
G1 F2000 X2.10001 Y192.9 E305.353
G1 F2000 X2.10001 Y164.7 E306.199
G1 F2000 X80.3 Y164.7 E308.545
G1 F2000 X80.6 Y164.4
G1 F2000 X80.6 Y193.2 E309.409
G1 F2000 X1.80001 Y193.2 E311.773
G1 F2000 X1.80001 Y164.4 E312.637
G1 F2000 X80.6 Y164.4 E315.001
G1 F2000 X80.9 Y164.1
G1 F2000 X80.9 Y193.5 E315.883
G1 F2000 X1.50002 Y193.5 E318.265
G1 F2000 X1.50002 Y164.1 E319.147
G1 F2000 X80.9 Y164.1 E321.529
G1 F2000 X81.2 Y163.8
;NEWLAYER
G1 F1200 X81.2 Y163.8 Z1
G1 F2000 X80 Y165 E321.58
G1 F2000 X80 Y192.6 E322.408
G1 F2000 X2.4 Y192.6 E324.736
G1 F2000 X2.4 Y165 E325.564
G1 F2000 X80 Y165 E327.892
G1 F2000 X80.3 Y164.7
G1 F2000 X80.3 Y192.9 E328.738
G1 F2000 X2.10001 Y192.9 E331.084
G1 F2000 X2.10001 Y164.7 E331.93
G1 F2000 X80.3 Y164.7 E334.276
G1 F2000 X80.6 Y164.4
G1 F2000 X80.6 Y193.2 E335.14
G1 F2000 X1.80001 Y193.2 E337.504
G1 F2000 X1.80001 Y164.4 E338.368
G1 F2000 X80.6 Y164.4 E340.732
G1 F2000 X80.9 Y164.1
G1 F2000 X80.9 Y193.5 E341.614
G1 F2000 X1.50002 Y193.5 E343.996
G1 F2000 X1.50002 Y164.1 E344.878
G1 F2000 X80.9 Y164.1 E347.26
G1 F2000 X81.2 Y163.8
;NEWLAYER
G1 F1200 X81.2 Y163.8 Z1.1
G1 F2000 X80 Y165 E347.311
G1 F2000 X80 Y192.6 E348.139
G1 F2000 X2.4 Y192.6 E350.467
G1 F2000 X2.4 Y165 E351.295
G1 F2000 X80 Y165 E353.623
G1 F2000 X80.3 Y164.7
G1 F2000 X80.3 Y192.9 E354.469
G1 F2000 X2.10001 Y192.9 E356.815
G1 F2000 X2.10001 Y164.7 E357.661
G1 F2000 X80.3 Y164.7 E360.007
G1 F2000 X80.6 Y164.4
G1 F2000 X80.6 Y193.2 E360.871
G1 F2000 X1.80001 Y193.2 E363.235
G1 F2000 X1.80001 Y164.4 E364.099
G1 F2000 X80.6 Y164.4 E366.463
G1 F2000 X80.9 Y164.1
G1 F2000 X80.9 Y193.5 E367.345
G1 F2000 X1.50002 Y193.5 E369.727
G1 F2000 X1.50002 Y164.1 E370.609
G1 F2000 X80.9 Y164.1 E372.991
G1 F2000 X81.2 Y163.8
;NEWLAYER
G1 F1200 X81.2 Y163.8 Z1.2
G1 F2000 X80 Y165 E373.042
G1 F2000 X80 Y192.6 E373.87
G1 F2000 X2.4 Y192.6 E376.198
G1 F2000 X2.4 Y165 E377.026
G1 F2000 X80 Y165 E379.354
G1 F2000 X80.3 Y164.7
G1 F2000 X80.3 Y192.9 E380.2
G1 F2000 X2.10001 Y192.9 E382.546
G1 F2000 X2.10001 Y164.7 E383.392
G1 F2000 X80.3 Y164.7 E385.738
G1 F2000 X80.6 Y164.4
G1 F2000 X80.6 Y193.2 E386.602
G1 F2000 X1.80001 Y193.2 E388.966
G1 F2000 X1.80001 Y164.4 E389.83
G1 F2000 X80.6 Y164.4 E392.194
G1 F2000 X80.9 Y164.1
G1 F2000 X80.9 Y193.5 E393.076
G1 F2000 X1.50002 Y193.5 E395.458
G1 F2000 X1.50002 Y164.1 E396.34
G1 F2000 X80.9 Y164.1 E398.722
G1 F2000 X81.2 Y163.8
;NEWLAYER
G1 F1200 X81.2 Y163.8 Z1.3
G1 F2000 X80 Y165 E398.773
G1 F2000 X80 Y192.6 E399.601
G1 F2000 X2.4 Y192.6 E401.929
G1 F2000 X2.4 Y165 E402.757
G1 F2000 X80 Y165 E405.085
G1 F2000 X80.3 Y164.7
G1 F2000 X80.3 Y192.9 E405.931
G1 F2000 X2.10001 Y192.9 E408.277
G1 F2000 X2.10001 Y164.7 E409.123
G1 F2000 X80.3 Y164.7 E411.469
G1 F2000 X80.6 Y164.4
G1 F2000 X80.6 Y193.2 E412.333
G1 F2000 X1.80001 Y193.2 E414.697
G1 F2000 X1.80001 Y164.4 E415.561
G1 F2000 X80.6 Y164.4 E417.925
G1 F2000 X80.9 Y164.1
G1 F2000 X80.9 Y193.5 E418.807
G1 F2000 X1.50002 Y193.5 E421.189
G1 F2000 X1.50002 Y164.1 E422.071
G1 F2000 X80.9 Y164.1 E424.453
G1 F2000 X81.2 Y163.8
;NEWLAYER
G1 F1200 X81.2 Y163.8 Z1.4
G1 F2000 X80 Y165 E424.504
G1 F2000 X80 Y192.6 E425.332
G1 F2000 X2.4 Y192.6 E427.66
G1 F2000 X2.4 Y165 E428.488
G1 F2000 X80 Y165 E430.816
G1 F2000 X80.3 Y164.7
G1 F2000 X80.3 Y192.9 E431.662
G1 F2000 X2.10001 Y192.9 E434.008
G1 F2000 X2.10001 Y164.7 E434.854
G1 F2000 X80.3 Y164.7 E437.2
G1 F2000 X80.6 Y164.4
G1 F2000 X80.6 Y193.2 E438.064
G1 F2000 X1.80001 Y193.2 E440.428
G1 F2000 X1.80001 Y164.4 E441.292
G1 F2000 X80.6 Y164.4 E443.656
G1 F2000 X80.9 Y164.1
G1 F2000 X80.9 Y193.5 E444.538
G1 F2000 X1.50002 Y193.5 E446.92
G1 F2000 X1.50002 Y164.1 E447.802
G1 F2000 X80.9 Y164.1 E450.184
G1 F2000 X81.2 Y163.8
;NEWLAYER
G1 F1200 X81.2 Y163.8 Z1.5
G1 F2000 X80 Y165 E450.235
G1 F2000 X80 Y192.6 E451.063
G1 F2000 X2.4 Y192.6 E453.391
G1 F2000 X2.4 Y165 E454.219
G1 F2000 X80 Y165 E456.547
G1 F2000 X80.3 Y164.7
G1 F2000 X80.3 Y192.9 E457.393
G1 F2000 X2.10001 Y192.9 E459.739
G1 F2000 X2.10001 Y164.7 E460.585
G1 F2000 X80.3 Y164.7 E462.931
G1 F2000 X80.6 Y164.4
G1 F2000 X80.6 Y193.2 E463.795
G1 F2000 X1.80001 Y193.2 E466.159
G1 F2000 X1.80001 Y164.4 E467.023
G1 F2000 X80.6 Y164.4 E469.387
G1 F2000 X80.9 Y164.1
G1 F2000 X80.9 Y193.5 E470.269
G1 F2000 X1.50002 Y193.5 E472.651
G1 F2000 X1.50002 Y164.1 E473.533
G1 F2000 X80.9 Y164.1 E475.915
G1 F2000 X81.2 Y163.8
;NEWLAYER
G1 F1200 X81.2 Y163.8 Z1.6
G1 F2000 X80 Y165 E475.966
G1 F2000 X80 Y192.6 E476.794
G1 F2000 X2.4 Y192.6 E479.122
G1 F2000 X2.4 Y165 E479.95
G1 F2000 X80 Y165 E482.278
G1 F2000 X80.3 Y164.7
G1 F2000 X80.3 Y192.9 E483.124
G1 F2000 X2.10001 Y192.9 E485.47
G1 F2000 X2.10001 Y164.7 E486.316
G1 F2000 X80.3 Y164.7 E488.662
G1 F2000 X80.6 Y164.4
G1 F2000 X80.6 Y193.2 E489.526
G1 F2000 X1.80001 Y193.2 E491.89
G1 F2000 X1.80001 Y164.4 E492.754
G1 F2000 X80.6 Y164.4 E495.118
G1 F2000 X80.9 Y164.1
G1 F2000 X80.9 Y193.5 E496
G1 F2000 X1.50002 Y193.5 E498.382
G1 F2000 X1.50002 Y164.1 E499.264
G1 F2000 X80.9 Y164.1 E501.646
G1 F2000 X81.2 Y163.8
;NEWLAYER
G1 F1200 X81.2 Y163.8 Z1.7
G1 F2000 X80 Y165 E501.697
G1 F2000 X80 Y192.6 E502.525
G1 F2000 X2.4 Y192.6 E504.853
G1 F2000 X2.4 Y165 E505.681
G1 F2000 X80 Y165 E508.009
G1 F2000 X80.3 Y164.7
G1 F2000 X80.3 Y192.9 E508.855
G1 F2000 X2.10001 Y192.9 E511.201
G1 F2000 X2.10001 Y164.7 E512.047
G1 F2000 X80.3 Y164.7 E514.393
G1 F2000 X80.6 Y164.4
G1 F2000 X80.6 Y193.2 E515.257
G1 F2000 X1.80001 Y193.2 E517.621
G1 F2000 X1.80001 Y164.4 E518.485
G1 F2000 X80.6 Y164.4 E520.849
G1 F2000 X80.9 Y164.1
G1 F2000 X80.9 Y193.5 E521.731
G1 F2000 X1.50002 Y193.5 E524.113
G1 F2000 X1.50002 Y164.1 E524.995
G1 F2000 X80.9 Y164.1 E527.377
G1 F2000 X81.2 Y163.8
;NEWLAYER
G1 F1200 X81.2 Y163.8 Z1.8
G1 F2000 X80 Y165 E527.428
G1 F2000 X80 Y192.6 E528.256
G1 F2000 X2.4 Y192.6 E530.584
G1 F2000 X2.4 Y165 E531.412
G1 F2000 X80 Y165 E533.74
G1 F2000 X80.3 Y164.7
G1 F2000 X80.3 Y192.9 E534.586
G1 F2000 X2.10001 Y192.9 E536.932
G1 F2000 X2.10001 Y164.7 E537.778
G1 F2000 X80.3 Y164.7 E540.124
G1 F2000 X80.6 Y164.4
G1 F2000 X80.6 Y193.2 E540.988
G1 F2000 X1.80001 Y193.2 E543.352
G1 F2000 X1.80001 Y164.4 E544.216
G1 F2000 X80.6 Y164.4 E546.58
G1 F2000 X80.9 Y164.1
G1 F2000 X80.9 Y193.5 E547.462
G1 F2000 X1.50002 Y193.5 E549.844
G1 F2000 X1.50002 Y164.1 E550.726
G1 F2000 X80.9 Y164.1 E553.108
G1 F2000 X81.2 Y163.8
;NEWLAYER
G1 F1200 X81.2 Y163.8 Z1.9
G1 F2000 X80 Y165 E553.159
G1 F2000 X80 Y192.6 E553.987
G1 F2000 X2.4 Y192.6 E556.315
G1 F2000 X2.4 Y165 E557.143
G1 F2000 X80 Y165 E559.471
G1 F2000 X80.3 Y164.7
G1 F2000 X80.3 Y192.9 E560.317
G1 F2000 X2.10001 Y192.9 E562.663
G1 F2000 X2.10001 Y164.7 E563.509
G1 F2000 X80.3 Y164.7 E565.855
G1 F2000 X80.6 Y164.4
G1 F2000 X80.6 Y193.2 E566.719
G1 F2000 X1.80001 Y193.2 E569.083
G1 F2000 X1.80001 Y164.4 E569.947
G1 F2000 X80.6 Y164.4 E572.311
G1 F2000 X80.9 Y164.1
G1 F2000 X80.9 Y193.5 E573.193
G1 F2000 X1.50002 Y193.5 E575.575
G1 F2000 X1.50002 Y164.1 E576.457
G1 F2000 X80.9 Y164.1 E578.839
G1 F2000 X81.2 Y163.8
;NEWLAYER
G1 F1200 X81.2 Y163.8 Z2
G1 F2000 X80 Y165 E578.89
G1 F2000 X80 Y192.6 E579.718
G1 F2000 X2.4 Y192.6 E582.046
G1 F2000 X2.4 Y165 E582.874
G1 F2000 X80 Y165 E585.202
G1 F2000 X80.3 Y164.7
G1 F2000 X80.3 Y192.9 E586.048
G1 F2000 X2.10001 Y192.9 E588.394
G1 F2000 X2.10001 Y164.7 E589.24
G1 F2000 X80.3 Y164.7 E591.586
G1 F2000 X80.6 Y164.4
G1 F2000 X80.6 Y193.2 E592.45
G1 F2000 X1.80001 Y193.2 E594.814
G1 F2000 X1.80001 Y164.4 E595.678
G1 F2000 X80.6 Y164.4 E598.042
G1 F2000 X80.9 Y164.1
G1 F2000 X80.9 Y193.5 E598.924
G1 F2000 X1.50002 Y193.5 E601.306
G1 F2000 X1.50002 Y164.1 E602.188
G1 F2000 X80.9 Y164.1 E604.57
G1 F2000 X81.2 Y163.8
;NEWLAYER
G1 F1200 X81.2 Y163.8 Z2.1
G1 F2000 X80 Y165 E604.621
G1 F2000 X80 Y192.6 E605.449
G1 F2000 X2.4 Y192.6 E607.777
G1 F2000 X2.4 Y165 E608.605
G1 F2000 X80 Y165 E610.933
G1 F2000 X80.3 Y164.7
G1 F2000 X80.3 Y192.9 E611.779
G1 F2000 X2.10001 Y192.9 E614.125
G1 F2000 X2.10001 Y164.7 E614.971
G1 F2000 X80.3 Y164.7 E617.317
G1 F2000 X80.6 Y164.4
G1 F2000 X80.6 Y193.2 E618.181
G1 F2000 X1.80001 Y193.2 E620.545
G1 F2000 X1.80001 Y164.4 E621.409
G1 F2000 X80.6 Y164.4 E623.773
G1 F2000 X80.9 Y164.1
G1 F2000 X80.9 Y193.5 E624.655
G1 F2000 X1.50002 Y193.5 E627.037
G1 F2000 X1.50002 Y164.1 E627.919
G1 F2000 X80.9 Y164.1 E630.301
G1 F2000 X81.2 Y163.8
;NEWLAYER
G1 F1200 X81.2 Y163.8 Z2.2
G1 F2000 X80 Y165 E630.352
G1 F2000 X80 Y192.6 E631.18
G1 F2000 X2.4 Y192.6 E633.508
G1 F2000 X2.4 Y165 E634.336
G1 F2000 X80 Y165 E636.664
G1 F2000 X80.3 Y164.7
G1 F2000 X80.3 Y192.9 E637.51
G1 F2000 X2.10001 Y192.9 E639.856
G1 F2000 X2.10001 Y164.7 E640.702
G1 F2000 X80.3 Y164.7 E643.048
G1 F2000 X80.6 Y164.4
G1 F2000 X80.6 Y193.2 E643.912
G1 F2000 X1.80001 Y193.2 E646.276
G1 F2000 X1.80001 Y164.4 E647.14
G1 F2000 X80.6 Y164.4 E649.504
G1 F2000 X80.9 Y164.1
G1 F2000 X80.9 Y193.5 E650.386
G1 F2000 X1.50002 Y193.5 E652.768
G1 F2000 X1.50002 Y164.1 E653.65
G1 F2000 X80.9 Y164.1 E656.032
G1 F2000 X81.2 Y163.8
;NEWLAYER
G1 F1200 X81.2 Y163.8 Z2.3
G1 F2000 X80 Y165 E656.083
G1 F2000 X80 Y192.6 E656.911
G1 F2000 X2.4 Y192.6 E659.239
G1 F2000 X2.4 Y165 E660.067
G1 F2000 X80 Y165 E662.395
G1 F2000 X80.3 Y164.7
G1 F2000 X80.3 Y192.9 E663.241
G1 F2000 X2.10001 Y192.9 E665.587
G1 F2000 X2.10001 Y164.7 E666.433
