;FLAVOR:UltiGCode
;TIME:6335      
;MATERIAL:10583     
;MATERIAL2:0         

;Layer count: 58
;LAYER:0
M107
G92 E0 
;SKIRT
G1 F2000 X150 Y80 Z0.1 E15.1
G1 F2000 X150 Y150 E19.61
G1 F2000 X80 Y150 E27.5981
G1 F2000 X80 Y80 E34.6209
G1 F2000 X150 Y80 E37.0396
G1 F2000 X149.7 Y80.3
G1 F2000 X149.7 Y149.7 E41.5425
G1 F2000 X80.3 Y149.7 E49.5032
G1 F2000 X80.3 Y80.3 E56.5038
G1 F2000 X149.7 Y80.3 E58.9349
G1 F2000 X149.4 Y80.6
G1 F2000 X149.4 Y149.4 E63.4308
G1 F2000 X80.6 Y149.4 E71.3642
G1 F2000 X80.6 Y80.6 E78.3425
G1 F2000 X149.4 Y80.6 E80.7863
G1 F2000 X149.1 Y80.9
G1 F2000 X149.1 Y149.1 E85.2755
G1 F2000 X80.9 Y149.1 E93.1815
G1 F2000 X80.9 Y80.9 E100.138
G1 F2000 X149.1 Y80.9 E102.594
G1 F2000 X148.8 Y81.2
G1 F2000 X148.8 Y148.8 E107.077
G1 F2000 X81.2 Y148.8 E114.956
G1 F2000 X81.2 Y81.2 E121.89
G1 F2000 X148.8 Y81.2 E124.36
G1 F2000 X148.5 Y81.5
G1 F2000 X148.5 Y148.5 E128.836
G1 F2000 X81.5 Y148.5 E136.687
G1 F2000 X81.5 Y81.5001 E143.599
G1 F2000 X148.5 Y81.5001 E146.082
G1 F2000 X148.2 Y81.8001
G1 F2000 X148.2 Y148.2 E150.552
G1 F2000 X81.8 Y148.2 E158.376
G1 F2000 X81.8 Y81.8001 E165.266
G1 F2000 X148.2 Y81.8001 E167.763
G1 F2000 X147.9 Y82.1001
G1 F2000 X147.9 Y147.9 E172.227
G1 F2000 X82.1 Y147.9 E180.024
G1 F2000 X82.1 Y82.1001 E186.892
G1 F2000 X147.9 Y82.1001 E189.403
G1 F2000 X147.6 Y82.4001
G1 F2000 X145.9 Y115 E190.382
G1 F2000 X145.9 Y115 E190.382
G1 F2000 X145.839 Y116.94 E190.44
G1 F2000 X145.656 Y118.873 E190.499
G1 F2000 X145.353 Y120.79 E190.557
G1 F2000 X144.929 Y122.685 E190.615
G1 F2000 X144.388 Y124.549 E190.673
G1 F2000 X143.73 Y126.375 E190.732
G1 F2000 X142.959 Y128.157 E190.79
G1 F2000 X142.078 Y129.886 E190.848
G1 F2000 X141.09 Y131.557 E190.906
G1 F2000 X139.999 Y133.163 E190.964
G1 F2000 X138.809 Y134.696 E191.023
G1 F2000 X137.525 Y136.153 E191.081
G1 F2000 X136.153 Y137.525 E191.139
G1 F2000 X134.696 Y138.809 E191.197
G1 F2000 X133.163 Y139.999 E191.256
G1 F2000 X131.557 Y141.09 E191.314
G1 F2000 X129.886 Y142.078 E191.372
G1 F2000 X128.157 Y142.959 E191.43
G1 F2000 X126.375 Y143.73 E191.489
G1 F2000 X124.549 Y144.388 E191.547
G1 F2000 X122.685 Y144.929 E191.605
G1 F2000 X120.79 Y145.353 E191.663
G1 F2000 X118.873 Y145.656 E191.722
G1 F2000 X116.94 Y145.839 E191.78
G1 F2000 X115 Y145.9 E191.838
G1 F2000 X113.06 Y145.839 E191.896
G1 F2000 X111.127 Y145.656 E191.955
G1 F2000 X109.21 Y145.353 E192.013
G1 F2000 X107.315 Y144.929 E192.071
G1 F2000 X105.451 Y144.388 E192.129
G1 F2000 X103.625 Y143.73 E192.188
G1 F2000 X101.843 Y142.959 E192.246
G1 F2000 X100.114 Y142.078 E192.304
G1 F2000 X98.443 Y141.09 E192.362
G1 F2000 X96.8374 Y139.999 E192.421
G1 F2000 X95.3036 Y138.809 E192.479
G1 F2000 X93.8475 Y137.525 E192.537
G1 F2000 X92.4749 Y136.153 E192.595
G1 F2000 X91.1911 Y134.696 E192.654
G1 F2000 X90.0014 Y133.163 E192.712
G1 F2000 X88.9103 Y131.557 E192.77
G1 F2000 X87.9221 Y129.886 E192.828
G1 F2000 X87.0408 Y128.157 E192.886
G1 F2000 X86.2699 Y126.375 E192.945
G1 F2000 X85.6124 Y124.549 E193.003
G1 F2000 X85.0708 Y122.685 E193.061
G1 F2000 X84.6473 Y120.79 E193.119
G1 F2000 X84.3437 Y118.873 E193.178
G1 F2000 X84.161 Y116.94 E193.236
G1 F2000 X84.1 Y115 E193.294
G1 F2000 X84.161 Y113.06 E193.352
G1 F2000 X84.3437 Y111.127 E193.411
G1 F2000 X84.6473 Y109.21 E193.469
G1 F2000 X85.0708 Y107.315 E193.527
G1 F2000 X85.6124 Y105.451 E193.585
G1 F2000 X86.2699 Y103.625 E193.644
G1 F2000 X87.0408 Y101.843 E193.702
G1 F2000 X87.9221 Y100.114 E193.76
G1 F2000 X88.9103 Y98.443 E193.818
G1 F2000 X90.0014 Y96.8374 E193.877
G1 F2000 X91.1911 Y95.3036 E193.935
G1 F2000 X92.4749 Y93.8475 E193.993
G1 F2000 X93.8475 Y92.4749 E194.051
G1 F2000 X95.3036 Y91.1911 E194.11
G1 F2000 X96.8374 Y90.0014 E194.168
G1 F2000 X98.4429 Y88.9103 E194.226
G1 F2000 X100.114 Y87.9221 E194.284
G1 F2000 X101.843 Y87.0408 E194.343
G1 F2000 X103.625 Y86.2699 E194.401
G1 F2000 X105.451 Y85.6124 E194.459
G1 F2000 X107.315 Y85.0708 E194.517
G1 F2000 X109.21 Y84.6473 E194.576
G1 F2000 X111.127 Y84.3437 E194.634
G1 F2000 X113.06 Y84.161 E194.692
G1 F2000 X115 Y84.1 E194.75
G1 F2000 X116.94 Y84.161 E194.809
G1 F2000 X118.873 Y84.3437 E194.867
G1 F2000 X120.79 Y84.6473 E194.925
G1 F2000 X122.685 Y85.0708 E194.983
G1 F2000 X124.549 Y85.6124 E195.041
G1 F2000 X126.375 Y86.2699 E195.1
G1 F2000 X128.157 Y87.0408 E195.158
G1 F2000 X129.886 Y87.9221 E195.216
G1 F2000 X131.557 Y88.9103 E195.274
G1 F2000 X133.163 Y90.0014 E195.333
G1 F2000 X134.696 Y91.1911 E195.391
G1 F2000 X136.152 Y92.4749 E195.449
G1 F2000 X137.525 Y93.8475 E195.507
G1 F2000 X138.809 Y95.3036 E195.566
G1 F2000 X139.999 Y96.8374 E195.624
G1 F2000 X141.09 Y98.4429 E195.682
G1 F2000 X142.078 Y100.114 E195.74
G1 F2000 X142.959 Y101.843 E195.799
G1 F2000 X143.73 Y103.625 E195.857
G1 F2000 X144.388 Y105.451 E195.915
G1 F2000 X144.929 Y107.315 E195.973
G1 F2000 X145.353 Y109.21 E196.032
G1 F2000 X145.656 Y111.127 E196.09
G1 F2000 X145.839 Y113.06 E196.148
G1 F2000 X145.9 Y115 E196.206
G1 F2000 X146.2 Y115 E196.215
G1 F2000 X146.2 Y115 E196.215
G1 F2000 X146.138 Y116.959 E196.274
G1 F2000 X145.954 Y118.91 E196.333
G1 F2000 X145.647 Y120.846 E196.392
G1 F2000 X145.22 Y122.759 E196.451
G1 F2000 X144.673 Y124.641 E196.509
G1 F2000 X144.009 Y126.485 E196.568
G1 F2000 X143.231 Y128.284 E196.627
G1 F2000 X142.341 Y130.031 E196.686
G1 F2000 X141.343 Y131.718 E196.745
G1 F2000 X140.241 Y133.339 E196.803
G1 F2000 X139.04 Y134.888 E196.862
G1 F2000 X137.744 Y136.358 E196.921
G1 F2000 X136.358 Y137.744 E196.98
G1 F2000 X134.888 Y139.04 E197.039
G1 F2000 X133.339 Y140.241 E197.097
G1 F2000 X131.718 Y141.343 E197.156
G1 F2000 X130.031 Y142.341 E197.215
G1 F2000 X128.284 Y143.231 E197.274
G1 F2000 X126.485 Y144.009 E197.333
G1 F2000 X124.641 Y144.673 E197.391
G1 F2000 X122.759 Y145.22 E197.45
G1 F2000 X120.846 Y145.647 E197.509
G1 F2000 X118.91 Y145.954 E197.568
G1 F2000 X116.959 Y146.138 E197.627
G1 F2000 X115 Y146.2 E197.686
G1 F2000 X113.041 Y146.138 E197.744
G1 F2000 X111.09 Y145.954 E197.803
G1 F2000 X109.154 Y145.647 E197.862
G1 F2000 X107.241 Y145.22 E197.921
G1 F2000 X105.359 Y144.673 E197.98
G1 F2000 X103.515 Y144.009 E198.038
G1 F2000 X101.716 Y143.231 E198.097
G1 F2000 X99.9693 Y142.341 E198.156
G1 F2000 X98.2822 Y141.343 E198.215
G1 F2000 X96.6611 Y140.241 E198.274
G1 F2000 X95.1124 Y139.04 E198.332
G1 F2000 X93.6421 Y137.744 E198.391
G1 F2000 X92.2562 Y136.358 E198.45
G1 F2000 X90.96 Y134.888 E198.509
G1 F2000 X89.7587 Y133.339 E198.568
G1 F2000 X88.657 Y131.718 E198.626
G1 F2000 X87.6592 Y130.031 E198.685
G1 F2000 X86.7694 Y128.284 E198.744
G1 F2000 X85.991 Y126.485 E198.803
G1 F2000 X85.327 Y124.641 E198.862
G1 F2000 X84.7802 Y122.759 E198.92
G1 F2000 X84.3526 Y120.846 E198.979
G1 F2000 X84.046 Y118.91 E199.038
G1 F2000 X83.8616 Y116.959 E199.097
G1 F2000 X83.8 Y115 E199.156
G1 F2000 X83.8616 Y113.041 E199.215
G1 F2000 X84.046 Y111.09 E199.273
G1 F2000 X84.3526 Y109.154 E199.332
G1 F2000 X84.7802 Y107.241 E199.391
G1 F2000 X85.327 Y105.359 E199.45
G1 F2000 X85.991 Y103.515 E199.509
G1 F2000 X86.7694 Y101.716 E199.567
G1 F2000 X87.6592 Y99.9693 E199.626
G1 F2000 X88.657 Y98.2822 E199.685
G1 F2000 X89.7587 Y96.6611 E199.744
G1 F2000 X90.96 Y95.1124 E199.803
G1 F2000 X92.2562 Y93.6421 E199.861
G1 F2000 X93.6421 Y92.2562 E199.92
G1 F2000 X95.1124 Y90.96 E199.979
G1 F2000 X96.6611 Y89.7587 E200.038
G1 F2000 X98.2822 Y88.657 E200.097
G1 F2000 X99.9693 Y87.6592 E200.155
G1 F2000 X101.716 Y86.7694 E200.214
G1 F2000 X103.515 Y85.991 E200.273
G1 F2000 X105.359 Y85.327 E200.332
G1 F2000 X107.241 Y84.7802 E200.391
G1 F2000 X109.154 Y84.3526 E200.449
G1 F2000 X111.09 Y84.046 E200.508
G1 F2000 X113.041 Y83.8616 E200.567
G1 F2000 X115 Y83.8 E200.626
G1 F2000 X116.959 Y83.8616 E200.685
G1 F2000 X118.91 Y84.046 E200.744
G1 F2000 X120.846 Y84.3526 E200.802
G1 F2000 X122.759 Y84.7802 E200.861
G1 F2000 X124.641 Y85.327 E200.92
G1 F2000 X126.485 Y85.991 E200.979
G1 F2000 X128.284 Y86.7694 E201.038
G1 F2000 X130.031 Y87.6592 E201.096
G1 F2000 X131.718 Y88.657 E201.155
G1 F2000 X133.339 Y89.7587 E201.214
G1 F2000 X134.888 Y90.96 E201.273
G1 F2000 X136.358 Y92.2562 E201.332
G1 F2000 X137.744 Y93.6421 E201.39
G1 F2000 X139.04 Y95.1124 E201.449
G1 F2000 X140.241 Y96.6611 E201.508
G1 F2000 X141.343 Y98.2822 E201.567
G1 F2000 X142.341 Y99.9693 E201.626
G1 F2000 X143.231 Y101.716 E201.684
G1 F2000 X144.009 Y103.515 E201.743
G1 F2000 X144.673 Y105.359 E201.802
G1 F2000 X145.22 Y107.241 E201.861
G1 F2000 X145.647 Y109.154 E201.92
G1 F2000 X145.954 Y111.09 E201.978
G1 F2000 X146.138 Y113.041 E202.037
G1 F2000 X146.2 Y115 E202.096
;NEWLAYER
G1 F1200 X146.2 Y115 Z0.2
G1 F2000 X145.9 Y115 E202.105
G1 F2000 X145.9 Y115 E202.105
G1 F2000 X145.839 Y116.94 E202.163
G1 F2000 X145.656 Y118.873 E202.222
G1 F2000 X145.353 Y120.79 E202.28
G1 F2000 X144.929 Y122.685 E202.338
G1 F2000 X144.388 Y124.549 E202.396
G1 F2000 X143.73 Y126.375 E202.455
G1 F2000 X142.959 Y128.157 E202.513
G1 F2000 X142.078 Y129.886 E202.571
G1 F2000 X141.09 Y131.557 E202.629
G1 F2000 X139.999 Y133.163 E202.688
G1 F2000 X138.809 Y134.696 E202.746
G1 F2000 X137.525 Y136.153 E202.804
G1 F2000 X136.153 Y137.525 E202.862
G1 F2000 X134.696 Y138.809 E202.921
G1 F2000 X133.163 Y139.999 E202.979
G1 F2000 X131.557 Y141.09 E203.037
G1 F2000 X129.886 Y142.078 E203.095
G1 F2000 X128.157 Y142.959 E203.153
G1 F2000 X126.375 Y143.73 E203.212
G1 F2000 X124.549 Y144.388 E203.27
G1 F2000 X122.685 Y144.929 E203.328
G1 F2000 X120.79 Y145.353 E203.386
G1 F2000 X118.873 Y145.656 E203.445
G1 F2000 X116.94 Y145.839 E203.503
G1 F2000 X115 Y145.9 E203.561
G1 F2000 X113.06 Y145.839 E203.619
G1 F2000 X111.127 Y145.656 E203.678
G1 F2000 X109.21 Y145.353 E203.736
G1 F2000 X107.315 Y144.929 E203.794
G1 F2000 X105.451 Y144.388 E203.852
G1 F2000 X103.625 Y143.73 E203.911
G1 F2000 X101.843 Y142.959 E203.969
G1 F2000 X100.114 Y142.078 E204.027
G1 F2000 X98.443 Y141.09 E204.085
G1 F2000 X96.8374 Y139.999 E204.144
G1 F2000 X95.3036 Y138.809 E204.202
G1 F2000 X93.8475 Y137.525 E204.26
G1 F2000 X92.4749 Y136.153 E204.318
G1 F2000 X91.1911 Y134.696 E204.377
G1 F2000 X90.0014 Y133.163 E204.435
G1 F2000 X88.9103 Y131.557 E204.493
G1 F2000 X87.9221 Y129.886 E204.551
G1 F2000 X87.0408 Y128.157 E204.61
G1 F2000 X86.2699 Y126.375 E204.668
G1 F2000 X85.6124 Y124.549 E204.726
G1 F2000 X85.0708 Y122.685 E204.784
G1 F2000 X84.6473 Y120.79 E204.843
G1 F2000 X84.3437 Y118.873 E204.901
G1 F2000 X84.161 Y116.94 E204.959
G1 F2000 X84.1 Y115 E205.017
G1 F2000 X84.161 Y113.06 E205.075
G1 F2000 X84.3437 Y111.127 E205.134
G1 F2000 X84.6473 Y109.21 E205.192
G1 F2000 X85.0708 Y107.315 E205.25
G1 F2000 X85.6124 Y105.451 E205.308
G1 F2000 X86.2699 Y103.625 E205.367
G1 F2000 X87.0408 Y101.843 E205.425
G1 F2000 X87.9221 Y100.114 E205.483
G1 F2000 X88.9103 Y98.443 E205.541
G1 F2000 X90.0014 Y96.8374 E205.6
G1 F2000 X91.1911 Y95.3036 E205.658
G1 F2000 X92.4749 Y93.8475 E205.716
G1 F2000 X93.8475 Y92.4749 E205.774
G1 F2000 X95.3036 Y91.1911 E205.833
G1 F2000 X96.8374 Y90.0014 E205.891
G1 F2000 X98.4429 Y88.9103 E205.949
G1 F2000 X100.114 Y87.9221 E206.007
G1 F2000 X101.843 Y87.0408 E206.066
G1 F2000 X103.625 Y86.2699 E206.124
G1 F2000 X105.451 Y85.6124 E206.182
G1 F2000 X107.315 Y85.0708 E206.24
G1 F2000 X109.21 Y84.6473 E206.299
G1 F2000 X111.127 Y84.3437 E206.357
G1 F2000 X113.06 Y84.161 E206.415
G1 F2000 X115 Y84.1 E206.473
G1 F2000 X116.94 Y84.161 E206.532
G1 F2000 X118.873 Y84.3437 E206.59
G1 F2000 X120.79 Y84.6473 E206.648
G1 F2000 X122.685 Y85.0708 E206.706
G1 F2000 X124.549 Y85.6124 E206.765
G1 F2000 X126.375 Y86.2699 E206.823
G1 F2000 X128.157 Y87.0408 E206.881
G1 F2000 X129.886 Y87.9221 E206.939
G1 F2000 X131.557 Y88.9103 E206.997
G1 F2000 X133.163 Y90.0014 E207.056
G1 F2000 X134.696 Y91.1911 E207.114
G1 F2000 X136.152 Y92.4749 E207.172
G1 F2000 X137.525 Y93.8475 E207.23
G1 F2000 X138.809 Y95.3036 E207.289
G1 F2000 X139.999 Y96.8374 E207.347
G1 F2000 X141.09 Y98.4429 E207.405
G1 F2000 X142.078 Y100.114 E207.463
G1 F2000 X142.959 Y101.843 E207.522
G1 F2000 X143.73 Y103.625 E207.58
G1 F2000 X144.388 Y105.451 E207.638
G1 F2000 X144.929 Y107.315 E207.696
G1 F2000 X145.353 Y109.21 E207.755
G1 F2000 X145.656 Y111.127 E207.813
G1 F2000 X145.839 Y113.06 E207.871
G1 F2000 X145.9 Y115 E207.929
G1 F2000 X146.2 Y115 E207.938
G1 F2000 X146.2 Y115 E207.938
G1 F2000 X146.138 Y116.959 E207.997
G1 F2000 X145.954 Y118.91 E208.056
G1 F2000 X145.647 Y120.846 E208.115
G1 F2000 X145.22 Y122.759 E208.174
G1 F2000 X144.673 Y124.641 E208.232
G1 F2000 X144.009 Y126.485 E208.291
G1 F2000 X143.231 Y128.284 E208.35
G1 F2000 X142.341 Y130.031 E208.409
G1 F2000 X141.343 Y131.718 E208.468
G1 F2000 X140.241 Y133.339 E208.526
G1 F2000 X139.04 Y134.888 E208.585
G1 F2000 X137.744 Y136.358 E208.644
G1 F2000 X136.358 Y137.744 E208.703
G1 F2000 X134.888 Y139.04 E208.762
G1 F2000 X133.339 Y140.241 E208.821
G1 F2000 X131.718 Y141.343 E208.879
G1 F2000 X130.031 Y142.341 E208.938
G1 F2000 X128.284 Y143.231 E208.997
G1 F2000 X126.485 Y144.009 E209.056
G1 F2000 X124.641 Y144.673 E209.115
G1 F2000 X122.759 Y145.22 E209.173
G1 F2000 X120.846 Y145.647 E209.232
G1 F2000 X118.91 Y145.954 E209.291
G1 F2000 X116.959 Y146.138 E209.35
G1 F2000 X115 Y146.2 E209.409
G1 F2000 X113.041 Y146.138 E209.467
G1 F2000 X111.09 Y145.954 E209.526
G1 F2000 X109.154 Y145.647 E209.585
G1 F2000 X107.241 Y145.22 E209.644
G1 F2000 X105.359 Y144.673 E209.703
G1 F2000 X103.515 Y144.009 E209.761
G1 F2000 X101.716 Y143.231 E209.82
G1 F2000 X99.9693 Y142.341 E209.879
G1 F2000 X98.2822 Y141.343 E209.938
G1 F2000 X96.6611 Y140.241 E209.997
G1 F2000 X95.1124 Y139.04 E210.055
G1 F2000 X93.6421 Y137.744 E210.114
G1 F2000 X92.2562 Y136.358 E210.173
G1 F2000 X90.96 Y134.888 E210.232
G1 F2000 X89.7587 Y133.339 E210.291
G1 F2000 X88.657 Y131.718 E210.35
G1 F2000 X87.6592 Y130.031 E210.408
G1 F2000 X86.7694 Y128.284 E210.467
G1 F2000 X85.991 Y126.485 E210.526
G1 F2000 X85.327 Y124.641 E210.585
G1 F2000 X84.7802 Y122.759 E210.644
G1 F2000 X84.3526 Y120.846 E210.702
G1 F2000 X84.046 Y118.91 E210.761
G1 F2000 X83.8616 Y116.959 E210.82
G1 F2000 X83.8 Y115 E210.879
G1 F2000 X83.8616 Y113.041 E210.938
G1 F2000 X84.046 Y111.09 E210.996
G1 F2000 X84.3526 Y109.154 E211.055
G1 F2000 X84.7802 Y107.241 E211.114
G1 F2000 X85.327 Y105.359 E211.173
G1 F2000 X85.991 Y103.515 E211.232
G1 F2000 X86.7694 Y101.716 E211.29
G1 F2000 X87.6592 Y99.9693 E211.349
G1 F2000 X88.657 Y98.2822 E211.408
G1 F2000 X89.7587 Y96.6611 E211.467
G1 F2000 X90.96 Y95.1124 E211.526
G1 F2000 X92.2562 Y93.6421 E211.584
G1 F2000 X93.6421 Y92.2562 E211.643
G1 F2000 X95.1124 Y90.96 E211.702
G1 F2000 X96.6611 Y89.7587 E211.761
G1 F2000 X98.2822 Y88.657 E211.82
G1 F2000 X99.9693 Y87.6592 E211.878
G1 F2000 X101.716 Y86.7694 E211.937
G1 F2000 X103.515 Y85.991 E211.996
G1 F2000 X105.359 Y85.327 E212.055
G1 F2000 X107.241 Y84.7802 E212.114
G1 F2000 X109.154 Y84.3526 E212.173
G1 F2000 X111.09 Y84.046 E212.231
G1 F2000 X113.041 Y83.8616 E212.29
G1 F2000 X115 Y83.8 E212.349
G1 F2000 X116.959 Y83.8616 E212.408
G1 F2000 X118.91 Y84.046 E212.467
G1 F2000 X120.846 Y84.3526 E212.525
G1 F2000 X122.759 Y84.7802 E212.584
G1 F2000 X124.641 Y85.327 E212.643
G1 F2000 X126.485 Y85.991 E212.702
G1 F2000 X128.284 Y86.7694 E212.761
G1 F2000 X130.031 Y87.6592 E212.819
G1 F2000 X131.718 Y88.657 E212.878
G1 F2000 X133.339 Y89.7587 E212.937
G1 F2000 X134.888 Y90.96 E212.996
G1 F2000 X136.358 Y92.2562 E213.055
G1 F2000 X137.744 Y93.6421 E213.113
G1 F2000 X139.04 Y95.1124 E213.172
G1 F2000 X140.241 Y96.6611 E213.231
G1 F2000 X141.343 Y98.2822 E213.29
G1 F2000 X142.341 Y99.9693 E213.349
G1 F2000 X143.231 Y101.716 E213.407
G1 F2000 X144.009 Y103.515 E213.466
G1 F2000 X144.673 Y105.359 E213.525
G1 F2000 X145.22 Y107.241 E213.584
G1 F2000 X145.647 Y109.154 E213.643
G1 F2000 X145.954 Y111.09 E213.702
G1 F2000 X146.138 Y113.041 E213.76
G1 F2000 X146.2 Y115 E213.819
;NEWLAYER
G1 F1200 X146.2 Y115 Z0.3
G1 F2000 X145.9 Y115 E213.828
G1 F2000 X145.9 Y115 E213.828
G1 F2000 X145.839 Y116.94 E213.886
G1 F2000 X145.656 Y118.873 E213.945
G1 F2000 X145.353 Y120.79 E214.003
G1 F2000 X144.929 Y122.685 E214.061
G1 F2000 X144.388 Y124.549 E214.119
