;FLAVOR:UltiGCode
;TIME:6335      
;MATERIAL:10583     
;MATERIAL2:0         

;Layer count: 58
;LAYER:0
M107
;SKIRT
G1 F2000 X160 Y70 Z0.1 E5.23927
G1 F2000 X160 Y160 E10.0766
G1 F2000 X70 Y160 E18.9811
G1 F2000 X70 Y70 E26.7696
G1 F2000 X160 Y70 E28.9536
G1 F2000 X159.7 Y70.3
G1 F2000 X159.7 Y159.7 E33.7788
G1 F2000 X70.3 Y159.7 E42.6557
G1 F2000 X70.3 Y70.3 E50.4206
G1 F2000 X159.7 Y70.3 E52.606
G1 F2000 X159.4 Y70.6
G1 F2000 X159.4 Y159.4 E57.4191
G1 F2000 X70.6 Y159.4 E66.2684
G1 F2000 X70.6 Y70.6 E74.0098
G1 F2000 X159.4 Y70.6 E76.197
G1 F2000 X159.1 Y70.9
G1 F2000 X159.1 Y159.1 E80.9982
G1 F2000 X70.9 Y159.1 E89.8199
G1 F2000 X70.9 Y70.9 E97.5378
G1 F2000 X159.1 Y70.9 E99.7272
G1 F2000 X158.8 Y71.2
G1 F2000 X158.8 Y158.8 E104.517
G1 F2000 X71.2 Y158.8 E113.311
G1 F2000 X71.2 Y71.2 E121.005
G1 F2000 X158.8 Y71.2 E123.197
G1 F2000 X158.5 Y71.5
G1 F2000 X158.5 Y158.5 E127.975
G1 F2000 X71.5 Y158.5 E136.741
G1 F2000 X71.5 Y71.5001 E144.412
G1 F2000 X158.5 Y71.5001 E146.607
G1 F2000 X158.2 Y71.8001
G1 F2000 X158.2 Y158.2 E151.373
G1 F2000 X71.8 Y158.2 E160.112
G1 F2000 X71.8 Y71.8001 E167.76
G1 F2000 X158.2 Y71.8001 E169.958
G1 F2000 X157.9 Y72.1001
G1 F2000 X157.9 Y157.9 E174.713
G1 F2000 X72.1 Y157.9 E183.424
G1 F2000 X72.1 Y72.1001 E191.049
G1 F2000 X157.9 Y72.1001 E193.25
G1 F2000 X157.6 Y72.4001
G1 F2000 X155 Y130 E194.98
G1 F2000 X133.787 Y151.213 E201.193
G1 F2000 X79.6183 Y97.0445 E209.545
G1 F2000 X100.832 Y75.8314 E213.502
G1 F2000 X155 Y130 E215.045
G1 F2000 X155.424 Y130
G1 F2000 X134.211 Y151.213 E221.269
G1 F2000 X80.0426 Y97.0445 E229.629
G1 F2000 X101.256 Y75.8314 E233.592
G1 F2000 X155.424 Y130 E235.147
G1 F2000 X155.849 Y130
G1 F2000 X134.635 Y151.213 E241.381
G1 F2000 X80.4669 Y97.0445 E249.75
G1 F2000 X101.68 Y75.8314 E253.719
G1 F2000 X155.849 Y130 E255.285
G1 F2000 X156.273 Y130
G1 F2000 X135.06 Y151.213 E261.53
G1 F2000 X80.8911 Y97.0445 E269.908
G1 F2000 X102.104 Y75.8314 E273.882
G1 F2000 X156.273 Y130 E275.46
G1 F2000 X156.697 Y130
;NEWLAYER
G1 F1200 X156.697 Y130 Z0.2
G1 F2000 X155 Y130 E275.511
G1 F2000 X133.787 Y151.213 E281.724
G1 F2000 X79.6183 Y97.0445 E290.076
G1 F2000 X100.832 Y75.8314 E294.033
G1 F2000 X155 Y130 E295.576
G1 F2000 X155.424 Y130
G1 F2000 X134.211 Y151.213 E301.799
G1 F2000 X80.0426 Y97.0445 E310.16
G1 F2000 X101.256 Y75.8314 E314.123
G1 F2000 X155.424 Y130 E315.678
G1 F2000 X155.849 Y130
G1 F2000 X134.635 Y151.213 E321.912
G1 F2000 X80.4669 Y97.0445 E330.281
G1 F2000 X101.68 Y75.8314 E334.249
G1 F2000 X155.849 Y130 E335.816
G1 F2000 X156.273 Y130
G1 F2000 X135.06 Y151.213 E342.061
G1 F2000 X80.8911 Y97.0445 E350.439
G1 F2000 X102.104 Y75.8314 E354.413
G1 F2000 X156.273 Y130 E355.991
G1 F2000 X156.697 Y130
;NEWLAYER
G1 F1200 X156.697 Y130 Z0.3
G1 F2000 X155 Y130 E356.042
G1 F2000 X133.787 Y151.213 E362.255
G1 F2000 X79.6183 Y97.0445 E370.607
G1 F2000 X100.832 Y75.8314 E374.564
G1 F2000 X155 Y130 E376.107
G1 F2000 X155.424 Y130
G1 F2000 X134.211 Y151.213 E382.33
G1 F2000 X80.0426 Y97.0445 E390.691
G1 F2000 X101.256 Y75.8314 E394.654
G1 F2000 X155.424 Y130 E396.209
G1 F2000 X155.849 Y130
G1 F2000 X134.635 Y151.213 E402.443
G1 F2000 X80.4669 Y97.0445 E410.812
G1 F2000 X101.68 Y75.8314 E414.78
G1 F2000 X155.849 Y130 E416.347
G1 F2000 X156.273 Y130
G1 F2000 X135.06 Y151.213 E422.592
G1 F2000 X80.8911 Y97.0445 E430.97
G1 F2000 X102.104 Y75.8314 E434.944
G1 F2000 X156.273 Y130 E436.522
G1 F2000 X156.697 Y130
;NEWLAYER
G1 F1200 X156.697 Y130 Z0.4
G1 F2000 X155 Y130 E436.573
G1 F2000 X133.787 Y151.213 E442.786
G1 F2000 X79.6183 Y97.0445 E451.138
G1 F2000 X100.832 Y75.8314 E455.095
G1 F2000 X155 Y130 E456.638
G1 F2000 X155.424 Y130
G1 F2000 X134.211 Y151.213 E462.861
G1 F2000 X80.0426 Y97.0445 E471.222
G1 F2000 X101.256 Y75.8314 E475.185
G1 F2000 X155.424 Y130 E476.74
G1 F2000 X155.849 Y130
G1 F2000 X134.635 Y151.213 E482.974
G1 F2000 X80.4669 Y97.0445 E491.343
G1 F2000 X101.68 Y75.8314 E495.311
G1 F2000 X155.849 Y130 E496.878
G1 F2000 X156.273 Y130
G1 F2000 X135.06 Y151.213 E503.123
G1 F2000 X80.8911 Y97.0445 E511.501
G1 F2000 X102.104 Y75.8314 E515.475
G1 F2000 X156.273 Y130 E517.053
G1 F2000 X156.697 Y130
;NEWLAYER
G1 F1200 X156.697 Y130 Z0.5
G1 F2000 X155 Y130 E517.104
G1 F2000 X133.787 Y151.213 E523.317
G1 F2000 X79.6183 Y97.0445 E531.669
G1 F2000 X100.832 Y75.8314 E535.626
G1 F2000 X155 Y130 E537.169
G1 F2000 X155.424 Y130
G1 F2000 X134.211 Y151.213 E543.392
G1 F2000 X80.0426 Y97.0445 E551.753
G1 F2000 X101.256 Y75.8314 E555.716
G1 F2000 X155.424 Y130 E557.271
G1 F2000 X155.849 Y130
G1 F2000 X134.635 Y151.213 E563.505
G1 F2000 X80.4669 Y97.0445 E571.874
G1 F2000 X101.68 Y75.8314 E575.842
G1 F2000 X155.849 Y130 E577.409
G1 F2000 X156.273 Y130
G1 F2000 X135.06 Y151.213 E583.654
G1 F2000 X80.8911 Y97.0445 E592.032
G1 F2000 X102.104 Y75.8314 E596.006
G1 F2000 X156.273 Y130 E597.584
G1 F2000 X156.697 Y130
;NEWLAYER
G1 F1200 X156.697 Y130 Z0.6
G1 F2000 X155 Y130 E597.635
G1 F2000 X133.787 Y151.213 E603.848
G1 F2000 X79.6183 Y97.0445 E612.2
G1 F2000 X100.832 Y75.8314 E616.156
G1 F2000 X155 Y130 E617.7
G1 F2000 X155.424 Y130
G1 F2000 X134.211 Y151.213 E623.923
G1 F2000 X80.0426 Y97.0445 E632.284
G1 F2000 X101.256 Y75.8314 E636.247
G1 F2000 X155.424 Y130 E637.802
G1 F2000 X155.849 Y130
G1 F2000 X134.635 Y151.213 E644.036
G1 F2000 X80.4669 Y97.0445 E652.405
G1 F2000 X101.68 Y75.8314 E656.373
G1 F2000 X155.849 Y130 E657.94
G1 F2000 X156.273 Y130
G1 F2000 X135.06 Y151.213 E664.185
G1 F2000 X80.8911 Y97.0445 E672.563
G1 F2000 X102.104 Y75.8314 E676.537
G1 F2000 X156.273 Y130 E678.115
G1 F2000 X156.697 Y130
;NEWLAYER
G1 F1200 X156.697 Y130 Z0.7
G1 F2000 X155 Y130 E678.166
G1 F2000 X133.787 Y151.213 E684.378
G1 F2000 X79.6183 Y97.0445 E692.731
G1 F2000 X100.832 Y75.8314 E696.687
G1 F2000 X155 Y130 E698.231
G1 F2000 X155.424 Y130
G1 F2000 X134.211 Y151.213 E704.454
G1 F2000 X80.0426 Y97.0445 E712.815
G1 F2000 X101.256 Y75.8314 E716.778
G1 F2000 X155.424 Y130 E718.332
G1 F2000 X155.849 Y130
G1 F2000 X134.635 Y151.213 E724.567
G1 F2000 X80.4669 Y97.0445 E732.936
G1 F2000 X101.68 Y75.8314 E736.904
G1 F2000 X155.849 Y130 E738.471
G1 F2000 X156.273 Y130
G1 F2000 X135.06 Y151.213 E744.716
G1 F2000 X80.8911 Y97.0445 E753.094
G1 F2000 X102.104 Y75.8314 E757.068
G1 F2000 X156.273 Y130 E758.646
G1 F2000 X156.697 Y130
;NEWLAYER
G1 F1200 X156.697 Y130 Z0.8
G1 F2000 X155 Y130 E758.697
G1 F2000 X133.787 Y151.213 E764.909
G1 F2000 X79.6183 Y97.0445 E773.262
G1 F2000 X100.832 Y75.8314 E777.218
G1 F2000 X155 Y130 E778.762
G1 F2000 X155.424 Y130
G1 F2000 X134.211 Y151.213 E784.985
G1 F2000 X80.0426 Y97.0445 E793.346
G1 F2000 X101.256 Y75.8314 E797.308
G1 F2000 X155.424 Y130 E798.863
G1 F2000 X155.849 Y130
G1 F2000 X134.635 Y151.213 E805.098
G1 F2000 X80.4669 Y97.0445 E813.467
G1 F2000 X101.68 Y75.8314 E817.435
G1 F2000 X155.849 Y130 E819.002
G1 F2000 X156.273 Y130
G1 F2000 X135.06 Y151.213 E825.247
G1 F2000 X80.8911 Y97.0445 E833.625
G1 F2000 X102.104 Y75.8314 E837.599
G1 F2000 X156.273 Y130 E839.177
G1 F2000 X156.697 Y130
;NEWLAYER
G1 F1200 X156.697 Y130 Z0.9
G1 F2000 X155 Y130 E839.228
G1 F2000 X133.787 Y151.213 E845.44
G1 F2000 X79.6183 Y97.0445 E853.792
G1 F2000 X100.832 Y75.8314 E857.749
G1 F2000 X155 Y130 E859.293
G1 F2000 X155.424 Y130
G1 F2000 X134.211 Y151.213 E865.516
G1 F2000 X80.0426 Y97.0445 E873.877
G1 F2000 X101.256 Y75.8314 E877.839
G1 F2000 X155.424 Y130 E879.394
G1 F2000 X155.849 Y130
G1 F2000 X134.635 Y151.213 E885.629
G1 F2000 X80.4669 Y97.0445 E893.998
G1 F2000 X101.68 Y75.8314 E897.966
G1 F2000 X155.849 Y130 E899.533
G1 F2000 X156.273 Y130
G1 F2000 X135.06 Y151.213 E905.778
G1 F2000 X80.8911 Y97.0445 E914.156
G1 F2000 X102.104 Y75.8314 E918.13
G1 F2000 X156.273 Y130 E919.708
G1 F2000 X156.697 Y130
;NEWLAYER
G1 F1200 X156.697 Y130 Z1
G1 F2000 X155 Y130 E919.759
G1 F2000 X133.787 Y151.213 E925.971
G1 F2000 X79.6183 Y97.0445 E934.323
G1 F2000 X100.832 Y75.8314 E938.28
G1 F2000 X155 Y130 E939.824
G1 F2000 X155.424 Y130
G1 F2000 X134.211 Y151.213 E946.047
G1 F2000 X80.0426 Y97.0445 E954.408
G1 F2000 X101.256 Y75.8314 E958.37
G1 F2000 X155.424 Y130 E959.925
G1 F2000 X155.849 Y130
G1 F2000 X134.635 Y151.213 E966.16
G1 F2000 X80.4669 Y97.0445 E974.529
G1 F2000 X101.68 Y75.8314 E978.497
G1 F2000 X155.849 Y130 E980.064
G1 F2000 X156.273 Y130
G1 F2000 X135.06 Y151.213 E986.309
G1 F2000 X80.8911 Y97.0445 E994.687
G1 F2000 X102.104 Y75.8314 E998.661
G1 F2000 X156.273 Y130 E1000.24
G1 F2000 X156.697 Y130
;NEWLAYER
G1 F1200 X156.697 Y130 Z1.1
G1 F2000 X155 Y130 E1000.29
G1 F2000 X133.787 Y151.213 E1006.5
G1 F2000 X79.6183 Y97.0445 E1014.85
G1 F2000 X100.832 Y75.8314 E1018.81
G1 F2000 X155 Y130 E1020.35
G1 F2000 X155.424 Y130
G1 F2000 X134.211 Y151.213 E1026.58
G1 F2000 X80.0426 Y97.0445 E1034.94
G1 F2000 X101.256 Y75.8314 E1038.9
G1 F2000 X155.424 Y130 E1040.46
G1 F2000 X155.849 Y130
G1 F2000 X134.635 Y151.213 E1046.69
G1 F2000 X80.4669 Y97.0445 E1055.06
G1 F2000 X101.68 Y75.8314 E1059.03
G1 F2000 X155.849 Y130 E1060.59
G1 F2000 X156.273 Y130
G1 F2000 X135.06 Y151.213 E1066.84
G1 F2000 X80.8911 Y97.0445 E1075.22
G1 F2000 X102.104 Y75.8314 E1079.19
G1 F2000 X156.273 Y130 E1080.77
G1 F2000 X156.697 Y130
;NEWLAYER
G1 F1200 X156.697 Y130 Z1.2
G1 F2000 X155 Y130 E1080.82
G1 F2000 X133.787 Y151.213 E1087.03
G1 F2000 X79.6183 Y97.0445 E1095.39
G1 F2000 X100.832 Y75.8314 E1099.34
G1 F2000 X155 Y130 E1100.89
G1 F2000 X155.424 Y130
G1 F2000 X134.211 Y151.213 E1107.11
G1 F2000 X80.0426 Y97.0445 E1115.47
G1 F2000 X101.256 Y75.8314 E1119.43
G1 F2000 X155.424 Y130 E1120.99
G1 F2000 X155.849 Y130
G1 F2000 X134.635 Y151.213 E1127.22
G1 F2000 X80.4669 Y97.0445 E1135.59
G1 F2000 X101.68 Y75.8314 E1139.56
G1 F2000 X155.849 Y130 E1141.13
G1 F2000 X156.273 Y130
G1 F2000 X135.06 Y151.213 E1147.37
G1 F2000 X80.8911 Y97.0445 E1155.75
G1 F2000 X102.104 Y75.8314 E1159.72
G1 F2000 X156.273 Y130 E1161.3
G1 F2000 X156.697 Y130
;NEWLAYER
G1 F1200 X156.697 Y130 Z1.3
G1 F2000 X155 Y130 E1161.35
G1 F2000 X133.787 Y151.213 E1167.56
G1 F2000 X79.6183 Y97.0445 E1175.92
G1 F2000 X100.832 Y75.8314 E1179.87
G1 F2000 X155 Y130 E1181.42
G1 F2000 X155.424 Y130
G1 F2000 X134.211 Y151.213 E1187.64
G1 F2000 X80.0426 Y97.0445 E1196
G1 F2000 X101.256 Y75.8314 E1199.96
G1 F2000 X155.424 Y130 E1201.52
G1 F2000 X155.849 Y130
G1 F2000 X134.635 Y151.213 E1207.75
G1 F2000 X80.4669 Y97.0445 E1216.12
G1 F2000 X101.68 Y75.8314 E1220.09
G1 F2000 X155.849 Y130 E1221.66
G1 F2000 X156.273 Y130
G1 F2000 X135.06 Y151.213 E1227.9
G1 F2000 X80.8911 Y97.0445 E1236.28
G1 F2000 X102.104 Y75.8314 E1240.25
G1 F2000 X156.273 Y130 E1241.83
G1 F2000 X156.697 Y130
;NEWLAYER
G1 F1200 X156.697 Y130 Z1.4
G1 F2000 X155 Y130 E1241.88
G1 F2000 X133.787 Y151.213 E1248.1
G1 F2000 X79.6183 Y97.0445 E1256.45
G1 F2000 X100.832 Y75.8314 E1260.4
G1 F2000 X155 Y130 E1261.95
G1 F2000 X155.424 Y130
G1 F2000 X134.211 Y151.213 E1268.17
G1 F2000 X80.0426 Y97.0445 E1276.53
G1 F2000 X101.256 Y75.8314 E1280.49
G1 F2000 X155.424 Y130 E1282.05
G1 F2000 X155.849 Y130
G1 F2000 X134.635 Y151.213 E1288.28
G1 F2000 X80.4669 Y97.0445 E1296.65
G1 F2000 X101.68 Y75.8314 E1300.62
G1 F2000 X155.849 Y130 E1302.19
G1 F2000 X156.273 Y130
G1 F2000 X135.06 Y151.213 E1308.43
G1 F2000 X80.8911 Y97.0445 E1316.81
G1 F2000 X102.104 Y75.8314 E1320.79
G1 F2000 X156.273 Y130 E1322.36
G1 F2000 X156.697 Y130
;NEWLAYER
G1 F1200 X156.697 Y130 Z1.5
G1 F2000 X155 Y130 E1322.41
G1 F2000 X133.787 Y151.213 E1328.63
G1 F2000 X79.6183 Y97.0445 E1336.98
G1 F2000 X100.832 Y75.8314 E1340.94
G1 F2000 X155 Y130 E1342.48
G1 F2000 X155.424 Y130
G1 F2000 X134.211 Y151.213 E1348.7
G1 F2000 X80.0426 Y97.0445 E1357.06
G1 F2000 X101.256 Y75.8314 E1361.03
G1 F2000 X155.424 Y130 E1362.58
G1 F2000 X155.849 Y130
G1 F2000 X134.635 Y151.213 E1368.82
G1 F2000 X80.4669 Y97.0445 E1377.18
G1 F2000 X101.68 Y75.8314 E1381.15
G1 F2000 X155.849 Y130 E1382.72
G1 F2000 X156.273 Y130
G1 F2000 X135.06 Y151.213 E1388.96
G1 F2000 X80.8911 Y97.0445 E1397.34
G1 F2000 X102.104 Y75.8314 E1401.32
G1 F2000 X156.273 Y130 E1402.89
G1 F2000 X156.697 Y130
;NEWLAYER
G1 F1200 X156.697 Y130 Z1.6
G1 F2000 X155 Y130 E1402.95
G1 F2000 X133.787 Y151.213 E1409.16
G1 F2000 X79.6183 Y97.0445 E1417.51
G1 F2000 X100.832 Y75.8314 E1421.47
G1 F2000 X155 Y130 E1423.01
G1 F2000 X155.424 Y130
G1 F2000 X134.211 Y151.213 E1429.23
G1 F2000 X80.0426 Y97.0445 E1437.59
G1 F2000 X101.256 Y75.8314 E1441.56
G1 F2000 X155.424 Y130 E1443.11
G1 F2000 X155.849 Y130
G1 F2000 X134.635 Y151.213 E1449.35
G1 F2000 X80.4669 Y97.0445 E1457.72
G1 F2000 X101.68 Y75.8314 E1461.68
G1 F2000 X155.849 Y130 E1463.25
G1 F2000 X156.273 Y130
G1 F2000 X135.06 Y151.213 E1469.5
G1 F2000 X80.8911 Y97.0445 E1477.87
G1 F2000 X102.104 Y75.8314 E1481.85
G1 F2000 X156.273 Y130 E1483.43
G1 F2000 X156.697 Y130
;NEWLAYER
G1 F1200 X156.697 Y130 Z1.7
G1 F2000 X155 Y130 E1483.48
G1 F2000 X133.787 Y151.213 E1489.69
G1 F2000 X79.6183 Y97.0445 E1498.04
G1 F2000 X100.832 Y75.8314 E1502
G1 F2000 X155 Y130 E1503.54
G1 F2000 X155.424 Y130
G1 F2000 X134.211 Y151.213 E1509.76
G1 F2000 X80.0426 Y97.0445 E1518.13
G1 F2000 X101.256 Y75.8314 E1522.09
G1 F2000 X155.424 Y130 E1523.64
G1 F2000 X155.849 Y130
G1 F2000 X134.635 Y151.213 E1529.88
G1 F2000 X80.4669 Y97.0445 E1538.25
G1 F2000 X101.68 Y75.8314 E1542.21
G1 F2000 X155.849 Y130 E1543.78
G1 F2000 X156.273 Y130
G1 F2000 X135.06 Y151.213 E1550.03
G1 F2000 X80.8911 Y97.0445 E1558.4
G1 F2000 X102.104 Y75.8314 E1562.38
G1 F2000 X156.273 Y130 E1563.96
G1 F2000 X156.697 Y130
;NEWLAYER
G1 F1200 X156.697 Y130 Z1.8
G1 F2000 X155 Y130 E1564.01
G1 F2000 X133.787 Y151.213 E1570.22
G1 F2000 X79.6183 Y97.0445 E1578.57
G1 F2000 X100.832 Y75.8314 E1582.53
G1 F2000 X155 Y130 E1584.07
G1 F2000 X155.424 Y130
G1 F2000 X134.211 Y151.213 E1590.3
G1 F2000 X80.0426 Y97.0445 E1598.66
G1 F2000 X101.256 Y75.8314 E1602.62
G1 F2000 X155.424 Y130 E1604.17
G1 F2000 X155.849 Y130
G1 F2000 X134.635 Y151.213 E1610.41
G1 F2000 X80.4669 Y97.0445 E1618.78
G1 F2000 X101.68 Y75.8314 E1622.75
G1 F2000 X155.849 Y130 E1624.31
G1 F2000 X156.273 Y130
G1 F2000 X135.06 Y151.213 E1630.56
G1 F2000 X80.8911 Y97.0445 E1638.94
G1 F2000 X102.104 Y75.8314 E1642.91
G1 F2000 X156.273 Y130 E1644.49
G1 F2000 X156.697 Y130
;NEWLAYER
G1 F1200 X156.697 Y130 Z1.9
G1 F2000 X155 Y130 E1644.54
G1 F2000 X133.787 Y151.213 E1650.75
G1 F2000 X79.6183 Y97.0445 E1659.1
G1 F2000 X100.832 Y75.8314 E1663.06
G1 F2000 X155 Y130 E1664.6
G1 F2000 X155.424 Y130
G1 F2000 X134.211 Y151.213 E1670.83
G1 F2000 X80.0426 Y97.0445 E1679.19
G1 F2000 X101.256 Y75.8314 E1683.15
G1 F2000 X155.424 Y130 E1684.71
G1 F2000 X155.849 Y130
G1 F2000 X134.635 Y151.213 E1690.94
G1 F2000 X80.4669 Y97.0445 E1699.31
G1 F2000 X101.68 Y75.8314 E1703.28
G1 F2000 X155.849 Y130 E1704.84
G1 F2000 X156.273 Y130
G1 F2000 X135.06 Y151.213 E1711.09
G1 F2000 X80.8911 Y97.0445 E1719.47
G1 F2000 X102.104 Y75.8314 E1723.44
G1 F2000 X156.273 Y130 E1725.02
G1 F2000 X156.697 Y130
;NEWLAYER
G1 F1200 X156.697 Y130 Z2
G1 F2000 X155 Y130 E1725.07
G1 F2000 X133.787 Y151.213 E1731.28
G1 F2000 X79.6183 Y97.0445 E1739.63
G1 F2000 X100.832 Y75.8314 E1743.59
G1 F2000 X155 Y130 E1745.13
G1 F2000 X155.424 Y130
G1 F2000 X134.211 Y151.213 E1751.36
G1 F2000 X80.0426 Y97.0445 E1759.72
G1 F2000 X101.256 Y75.8314 E1763.68
G1 F2000 X155.424 Y130 E1765.24
G1 F2000 X155.849 Y130
G1 F2000 X134.635 Y151.213 E1771.47
G1 F2000 X80.4669 Y97.0445 E1779.84
G1 F2000 X101.68 Y75.8314 E1783.81
G1 F2000 X155.849 Y130 E1785.37
G1 F2000 X156.273 Y130
G1 F2000 X135.06 Y151.213 E1791.62
G1 F2000 X80.8911 Y97.0445 E1800
G1 F2000 X102.104 Y75.8314 E1803.97
G1 F2000 X156.273 Y130 E1805.55
G1 F2000 X156.697 Y130
;NEWLAYER
G1 F1200 X156.697 Y130 Z2.1
G1 F2000 X155 Y130 E1805.6
G1 F2000 X133.787 Y151.213 E1811.81
G1 F2000 X79.6183 Y97.0445 E1820.17
G1 F2000 X100.832 Y75.8314 E1824.12
G1 F2000 X155 Y130 E1825.67
G1 F2000 X155.424 Y130
G1 F2000 X134.211 Y151.213 E1831.89
G1 F2000 X80.0426 Y97.0445 E1840.25
G1 F2000 X101.256 Y75.8314 E1844.21
G1 F2000 X155.424 Y130 E1845.77
G1 F2000 X155.849 Y130
G1 F2000 X134.635 Y151.213 E1852
G1 F2000 X80.4669 Y97.0445 E1860.37
G1 F2000 X101.68 Y75.8314 E1864.34
