;FLAVOR:UltiGCode
;TIME:6335      
;MATERIAL:10583     
;MATERIAL2:0         

;Layer count: 58
;LAYER:0
M107
G92 E0 
;SKIRT
G1 F2000 X150 Y80 Z0.1 E15.1
G1 F2000 X150 Y150 E19.61
G1 F2000 X80 Y150 E27.5981
G1 F2000 X80 Y80 E34.6209
G1 F2000 X150 Y80 E37.0396
G1 F2000 X149.7 Y80.3
G1 F2000 X149.7 Y149.7 E41.5425
G1 F2000 X80.3 Y149.7 E49.5032
G1 F2000 X80.3 Y80.3 E56.5038
G1 F2000 X149.7 Y80.3 E58.9349
G1 F2000 X149.4 Y80.6
G1 F2000 X149.4 Y149.4 E63.4308
G1 F2000 X80.6 Y149.4 E71.3642
G1 F2000 X80.6 Y80.6 E78.3425
G1 F2000 X149.4 Y80.6 E80.7863
G1 F2000 X149.1 Y80.9
G1 F2000 X149.1 Y149.1 E85.2755
G1 F2000 X80.9 Y149.1 E93.1815
G1 F2000 X80.9 Y80.9 E100.138
G1 F2000 X149.1 Y80.9 E102.594
G1 F2000 X148.8 Y81.2
G1 F2000 X148.8 Y148.8 E107.077
G1 F2000 X81.2 Y148.8 E114.956
G1 F2000 X81.2 Y81.2 E121.89
G1 F2000 X148.8 Y81.2 E124.36
G1 F2000 X148.5 Y81.5
G1 F2000 X148.5 Y148.5 E128.836
G1 F2000 X81.5 Y148.5 E136.687
G1 F2000 X81.5 Y81.5001 E143.599
G1 F2000 X148.5 Y81.5001 E146.082
G1 F2000 X148.2 Y81.8001
G1 F2000 X148.2 Y148.2 E150.552
G1 F2000 X81.8 Y148.2 E158.376
G1 F2000 X81.8 Y81.8001 E165.266
G1 F2000 X148.2 Y81.8001 E167.763
G1 F2000 X147.9 Y82.1001
G1 F2000 X147.9 Y147.9 E172.227
G1 F2000 X82.1 Y147.9 E180.024
G1 F2000 X82.1 Y82.1001 E186.892
G1 F2000 X147.9 Y82.1001 E189.403
G1 F2000 X147.6 Y82.4001
G1 F2000 X145 Y115 E190.384
G1 F2000 X145 Y115 E190.384
G1 F2000 X144.941 Y116.884 E190.44
G1 F2000 X144.763 Y118.76 E190.497
G1 F2000 X144.469 Y120.621 E190.553
G1 F2000 X144.057 Y122.461 E190.61
G1 F2000 X143.532 Y124.271 E190.666
G1 F2000 X142.893 Y126.044 E190.723
G1 F2000 X142.145 Y127.773 E190.78
G1 F2000 X141.289 Y129.453 E190.836
G1 F2000 X140.33 Y131.075 E190.893
G1 F2000 X139.271 Y132.634 E190.949
G1 F2000 X138.115 Y134.123 E191.006
G1 F2000 X136.869 Y135.536 E191.062
G1 F2000 X135.536 Y136.869 E191.119
G1 F2000 X134.123 Y138.115 E191.175
G1 F2000 X132.634 Y139.271 E191.232
G1 F2000 X131.075 Y140.33 E191.288
G1 F2000 X129.453 Y141.289 E191.345
G1 F2000 X127.773 Y142.145 E191.401
G1 F2000 X126.044 Y142.893 E191.458
G1 F2000 X124.271 Y143.532 E191.514
G1 F2000 X122.461 Y144.057 E191.571
G1 F2000 X120.621 Y144.469 E191.628
G1 F2000 X118.76 Y144.763 E191.684
G1 F2000 X116.884 Y144.941 E191.741
G1 F2000 X115 Y145 E191.797
G1 F2000 X113.116 Y144.941 E191.854
G1 F2000 X111.24 Y144.763 E191.91
G1 F2000 X109.379 Y144.469 E191.967
G1 F2000 X107.539 Y144.057 E192.023
G1 F2000 X105.729 Y143.532 E192.08
G1 F2000 X103.956 Y142.893 E192.136
G1 F2000 X102.227 Y142.145 E192.193
G1 F2000 X100.547 Y141.289 E192.249
G1 F2000 X98.9252 Y140.33 E192.306
G1 F2000 X97.3664 Y139.271 E192.363
G1 F2000 X95.8773 Y138.115 E192.419
G1 F2000 X94.4636 Y136.869 E192.476
G1 F2000 X93.1309 Y135.536 E192.532
G1 F2000 X91.8846 Y134.123 E192.589
G1 F2000 X90.7295 Y132.634 E192.645
G1 F2000 X89.6702 Y131.075 E192.702
G1 F2000 X88.7108 Y129.453 E192.758
G1 F2000 X87.8552 Y127.773 E192.815
G1 F2000 X87.1067 Y126.044 E192.871
G1 F2000 X86.4683 Y124.271 E192.928
G1 F2000 X85.9425 Y122.461 E192.984
G1 F2000 X85.5314 Y120.621 E193.041
G1 F2000 X85.2366 Y118.76 E193.097
G1 F2000 X85.0592 Y116.884 E193.154
G1 F2000 X85 Y115 E193.211
G1 F2000 X85.0592 Y113.116 E193.267
G1 F2000 X85.2366 Y111.24 E193.324
G1 F2000 X85.5314 Y109.379 E193.38
G1 F2000 X85.9425 Y107.539 E193.437
G1 F2000 X86.4683 Y105.729 E193.493
G1 F2000 X87.1067 Y103.956 E193.55
G1 F2000 X87.8552 Y102.227 E193.606
G1 F2000 X88.7108 Y100.547 E193.663
G1 F2000 X89.6702 Y98.9252 E193.719
G1 F2000 X90.7295 Y97.3664 E193.776
G1 F2000 X91.8846 Y95.8773 E193.832
G1 F2000 X93.1309 Y94.4636 E193.889
G1 F2000 X94.4636 Y93.1309 E193.945
G1 F2000 X95.8773 Y91.8846 E194.002
G1 F2000 X97.3664 Y90.7295 E194.059
G1 F2000 X98.9252 Y89.6702 E194.115
G1 F2000 X100.547 Y88.7108 E194.172
G1 F2000 X102.227 Y87.8552 E194.228
G1 F2000 X103.956 Y87.1067 E194.285
G1 F2000 X105.729 Y86.4683 E194.341
G1 F2000 X107.539 Y85.9425 E194.398
G1 F2000 X109.379 Y85.5314 E194.454
G1 F2000 X111.24 Y85.2366 E194.511
G1 F2000 X113.116 Y85.0592 E194.567
G1 F2000 X115 Y85 E194.624
G1 F2000 X116.884 Y85.0592 E194.68
G1 F2000 X118.76 Y85.2366 E194.737
G1 F2000 X120.621 Y85.5314 E194.793
G1 F2000 X122.461 Y85.9425 E194.85
G1 F2000 X124.271 Y86.4683 E194.907
G1 F2000 X126.044 Y87.1067 E194.963
G1 F2000 X127.773 Y87.8552 E195.02
G1 F2000 X129.453 Y88.7108 E195.076
G1 F2000 X131.075 Y89.6702 E195.133
G1 F2000 X132.634 Y90.7295 E195.189
G1 F2000 X134.123 Y91.8846 E195.246
G1 F2000 X135.536 Y93.1309 E195.302
G1 F2000 X136.869 Y94.4636 E195.359
G1 F2000 X138.115 Y95.8773 E195.415
G1 F2000 X139.271 Y97.3664 E195.472
G1 F2000 X140.33 Y98.9252 E195.528
G1 F2000 X141.289 Y100.547 E195.585
G1 F2000 X142.145 Y102.227 E195.641
G1 F2000 X142.893 Y103.956 E195.698
G1 F2000 X143.532 Y105.729 E195.755
G1 F2000 X144.057 Y107.539 E195.811
G1 F2000 X144.469 Y109.379 E195.868
G1 F2000 X144.763 Y111.24 E195.924
G1 F2000 X144.941 Y113.116 E195.981
G1 F2000 X145 Y115 E196.037
G1 F2000 X145.3 Y115 E196.046
G1 F2000 X145.3 Y115 E196.046
G1 F2000 X145.24 Y116.903 E196.103
G1 F2000 X145.061 Y118.798 E196.16
G1 F2000 X144.763 Y120.678 E196.218
G1 F2000 X144.348 Y122.535 E196.275
G1 F2000 X143.817 Y124.363 E196.332
G1 F2000 X143.172 Y126.154 E196.389
G1 F2000 X142.416 Y127.901 E196.446
G1 F2000 X141.552 Y129.597 E196.503
G1 F2000 X140.583 Y131.236 E196.56
G1 F2000 X139.513 Y132.81 E196.617
G1 F2000 X138.347 Y134.314 E196.674
G1 F2000 X137.088 Y135.742 E196.731
G1 F2000 X135.742 Y137.088 E196.788
G1 F2000 X134.314 Y138.347 E196.846
G1 F2000 X132.81 Y139.513 E196.903
G1 F2000 X131.236 Y140.583 E196.96
G1 F2000 X129.597 Y141.552 E197.017
G1 F2000 X127.901 Y142.416 E197.074
G1 F2000 X126.154 Y143.172 E197.131
G1 F2000 X124.363 Y143.817 E197.188
G1 F2000 X122.535 Y144.348 E197.245
G1 F2000 X120.678 Y144.763 E197.302
G1 F2000 X118.798 Y145.061 E197.359
G1 F2000 X116.903 Y145.24 E197.417
G1 F2000 X115 Y145.3 E197.474
G1 F2000 X113.097 Y145.24 E197.531
G1 F2000 X111.202 Y145.061 E197.588
G1 F2000 X109.322 Y144.763 E197.645
G1 F2000 X107.465 Y144.348 E197.702
G1 F2000 X105.637 Y143.817 E197.759
G1 F2000 X103.846 Y143.172 E197.816
G1 F2000 X102.099 Y142.416 E197.873
G1 F2000 X100.403 Y141.552 E197.93
G1 F2000 X98.7645 Y140.583 E197.988
G1 F2000 X97.1901 Y139.513 E198.045
G1 F2000 X95.6861 Y138.347 E198.102
G1 F2000 X94.2582 Y137.088 E198.159
G1 F2000 X92.9123 Y135.742 E198.216
G1 F2000 X91.6535 Y134.314 E198.273
G1 F2000 X90.4868 Y132.81 E198.33
G1 F2000 X89.4169 Y131.236 E198.387
G1 F2000 X88.4479 Y129.597 E198.444
G1 F2000 X87.5837 Y127.901 E198.501
G1 F2000 X86.8278 Y126.154 E198.559
G1 F2000 X86.183 Y124.363 E198.616
G1 F2000 X85.6519 Y122.535 E198.673
G1 F2000 X85.2367 Y120.678 E198.73
G1 F2000 X84.9389 Y118.798 E198.787
G1 F2000 X84.7598 Y116.903 E198.844
G1 F2000 X84.7 Y115 E198.901
G1 F2000 X84.7598 Y113.097 E198.958
G1 F2000 X84.9389 Y111.202 E199.015
G1 F2000 X85.2367 Y109.322 E199.072
G1 F2000 X85.6519 Y107.465 E199.13
G1 F2000 X86.183 Y105.637 E199.187
G1 F2000 X86.8278 Y103.846 E199.244
G1 F2000 X87.5837 Y102.099 E199.301
G1 F2000 X88.4479 Y100.403 E199.358
G1 F2000 X89.4169 Y98.7645 E199.415
G1 F2000 X90.4868 Y97.1901 E199.472
G1 F2000 X91.6534 Y95.6861 E199.529
G1 F2000 X92.9122 Y94.2582 E199.586
G1 F2000 X94.2582 Y92.9123 E199.643
G1 F2000 X95.6861 Y91.6535 E199.701
G1 F2000 X97.1901 Y90.4868 E199.758
G1 F2000 X98.7644 Y89.4169 E199.815
G1 F2000 X100.403 Y88.4479 E199.872
G1 F2000 X102.099 Y87.5837 E199.929
G1 F2000 X103.846 Y86.8278 E199.986
G1 F2000 X105.637 Y86.183 E200.043
G1 F2000 X107.465 Y85.6519 E200.1
G1 F2000 X109.322 Y85.2367 E200.157
G1 F2000 X111.202 Y84.9389 E200.214
G1 F2000 X113.097 Y84.7598 E200.271
G1 F2000 X115 Y84.7 E200.329
G1 F2000 X116.903 Y84.7598 E200.386
G1 F2000 X118.798 Y84.9389 E200.443
G1 F2000 X120.678 Y85.2367 E200.5
G1 F2000 X122.535 Y85.6519 E200.557
G1 F2000 X124.363 Y86.183 E200.614
G1 F2000 X126.154 Y86.8278 E200.671
G1 F2000 X127.901 Y87.5837 E200.728
G1 F2000 X129.597 Y88.4479 E200.785
G1 F2000 X131.236 Y89.4169 E200.842
G1 F2000 X132.81 Y90.4868 E200.9
G1 F2000 X134.314 Y91.6534 E200.957
G1 F2000 X135.742 Y92.9122 E201.014
G1 F2000 X137.088 Y94.2582 E201.071
G1 F2000 X138.347 Y95.686 E201.128
G1 F2000 X139.513 Y97.1901 E201.185
G1 F2000 X140.583 Y98.7644 E201.242
G1 F2000 X141.552 Y100.403 E201.299
G1 F2000 X142.416 Y102.099 E201.356
G1 F2000 X143.172 Y103.846 E201.413
G1 F2000 X143.817 Y105.637 E201.471
G1 F2000 X144.348 Y107.465 E201.528
G1 F2000 X144.763 Y109.322 E201.585
G1 F2000 X145.061 Y111.202 E201.642
G1 F2000 X145.24 Y113.097 E201.699
G1 F2000 X145.3 Y115 E201.756
;NEWLAYER
G1 F1200 X145.3 Y115 Z0.2
G1 F2000 X145 Y115 E201.765
G1 F2000 X145 Y115 E201.765
G1 F2000 X144.941 Y116.884 E201.822
G1 F2000 X144.763 Y118.76 E201.878
G1 F2000 X144.469 Y120.621 E201.935
G1 F2000 X144.057 Y122.461 E201.991
G1 F2000 X143.532 Y124.271 E202.048
G1 F2000 X142.893 Y126.044 E202.104
G1 F2000 X142.145 Y127.773 E202.161
G1 F2000 X141.289 Y129.453 E202.217
G1 F2000 X140.33 Y131.075 E202.274
G1 F2000 X139.271 Y132.634 E202.33
G1 F2000 X138.115 Y134.123 E202.387
G1 F2000 X136.869 Y135.536 E202.443
G1 F2000 X135.536 Y136.869 E202.5
G1 F2000 X134.123 Y138.115 E202.557
G1 F2000 X132.634 Y139.271 E202.613
G1 F2000 X131.075 Y140.33 E202.67
G1 F2000 X129.453 Y141.289 E202.726
G1 F2000 X127.773 Y142.145 E202.783
G1 F2000 X126.044 Y142.893 E202.839
G1 F2000 X124.271 Y143.532 E202.896
G1 F2000 X122.461 Y144.057 E202.952
G1 F2000 X120.621 Y144.469 E203.009
G1 F2000 X118.76 Y144.763 E203.065
G1 F2000 X116.884 Y144.941 E203.122
G1 F2000 X115 Y145 E203.178
G1 F2000 X113.116 Y144.941 E203.235
G1 F2000 X111.24 Y144.763 E203.291
G1 F2000 X109.379 Y144.469 E203.348
G1 F2000 X107.539 Y144.057 E203.405
G1 F2000 X105.729 Y143.532 E203.461
G1 F2000 X103.956 Y142.893 E203.518
G1 F2000 X102.227 Y142.145 E203.574
G1 F2000 X100.547 Y141.289 E203.631
G1 F2000 X98.9252 Y140.33 E203.687
G1 F2000 X97.3664 Y139.271 E203.744
G1 F2000 X95.8773 Y138.115 E203.8
G1 F2000 X94.4636 Y136.869 E203.857
G1 F2000 X93.1309 Y135.536 E203.913
G1 F2000 X91.8846 Y134.123 E203.97
G1 F2000 X90.7295 Y132.634 E204.026
G1 F2000 X89.6702 Y131.075 E204.083
G1 F2000 X88.7108 Y129.453 E204.139
G1 F2000 X87.8552 Y127.773 E204.196
G1 F2000 X87.1067 Y126.044 E204.253
G1 F2000 X86.4683 Y124.271 E204.309
G1 F2000 X85.9425 Y122.461 E204.366
G1 F2000 X85.5314 Y120.621 E204.422
G1 F2000 X85.2366 Y118.76 E204.479
G1 F2000 X85.0592 Y116.884 E204.535
G1 F2000 X85 Y115 E204.592
G1 F2000 X85.0592 Y113.116 E204.648
G1 F2000 X85.2366 Y111.24 E204.705
G1 F2000 X85.5314 Y109.379 E204.761
G1 F2000 X85.9425 Y107.539 E204.818
G1 F2000 X86.4683 Y105.729 E204.874
G1 F2000 X87.1067 Y103.956 E204.931
G1 F2000 X87.8552 Y102.227 E204.988
G1 F2000 X88.7108 Y100.547 E205.044
G1 F2000 X89.6702 Y98.9252 E205.101
G1 F2000 X90.7295 Y97.3664 E205.157
G1 F2000 X91.8846 Y95.8773 E205.214
G1 F2000 X93.1309 Y94.4636 E205.27
G1 F2000 X94.4636 Y93.1309 E205.327
G1 F2000 X95.8773 Y91.8846 E205.383
G1 F2000 X97.3664 Y90.7295 E205.44
G1 F2000 X98.9252 Y89.6702 E205.496
G1 F2000 X100.547 Y88.7108 E205.553
G1 F2000 X102.227 Y87.8552 E205.609
G1 F2000 X103.956 Y87.1067 E205.666
G1 F2000 X105.729 Y86.4683 E205.722
G1 F2000 X107.539 Y85.9425 E205.779
G1 F2000 X109.379 Y85.5314 E205.836
G1 F2000 X111.24 Y85.2366 E205.892
G1 F2000 X113.116 Y85.0592 E205.949
G1 F2000 X115 Y85 E206.005
G1 F2000 X116.884 Y85.0592 E206.062
G1 F2000 X118.76 Y85.2366 E206.118
G1 F2000 X120.621 Y85.5314 E206.175
G1 F2000 X122.461 Y85.9425 E206.231
G1 F2000 X124.271 Y86.4683 E206.288
G1 F2000 X126.044 Y87.1067 E206.344
G1 F2000 X127.773 Y87.8552 E206.401
G1 F2000 X129.453 Y88.7108 E206.457
G1 F2000 X131.075 Y89.6702 E206.514
G1 F2000 X132.634 Y90.7295 E206.57
G1 F2000 X134.123 Y91.8846 E206.627
G1 F2000 X135.536 Y93.1309 E206.684
G1 F2000 X136.869 Y94.4636 E206.74
G1 F2000 X138.115 Y95.8773 E206.797
G1 F2000 X139.271 Y97.3664 E206.853
G1 F2000 X140.33 Y98.9252 E206.91
G1 F2000 X141.289 Y100.547 E206.966
G1 F2000 X142.145 Y102.227 E207.023
G1 F2000 X142.893 Y103.956 E207.079
G1 F2000 X143.532 Y105.729 E207.136
G1 F2000 X144.057 Y107.539 E207.192
G1 F2000 X144.469 Y109.379 E207.249
G1 F2000 X144.763 Y111.24 E207.305
G1 F2000 X144.941 Y113.116 E207.362
G1 F2000 X145 Y115 E207.418
G1 F2000 X145.3 Y115 E207.427
G1 F2000 X145.3 Y115 E207.427
G1 F2000 X145.24 Y116.903 E207.485
G1 F2000 X145.061 Y118.798 E207.542
G1 F2000 X144.763 Y120.678 E207.599
G1 F2000 X144.348 Y122.535 E207.656
G1 F2000 X143.817 Y124.363 E207.713
G1 F2000 X143.172 Y126.154 E207.77
G1 F2000 X142.416 Y127.901 E207.827
G1 F2000 X141.552 Y129.597 E207.884
G1 F2000 X140.583 Y131.236 E207.941
G1 F2000 X139.513 Y132.81 E207.998
G1 F2000 X138.347 Y134.314 E208.056
G1 F2000 X137.088 Y135.742 E208.113
G1 F2000 X135.742 Y137.088 E208.17
G1 F2000 X134.314 Y138.347 E208.227
G1 F2000 X132.81 Y139.513 E208.284
G1 F2000 X131.236 Y140.583 E208.341
G1 F2000 X129.597 Y141.552 E208.398
G1 F2000 X127.901 Y142.416 E208.455
G1 F2000 X126.154 Y143.172 E208.512
G1 F2000 X124.363 Y143.817 E208.569
G1 F2000 X122.535 Y144.348 E208.627
G1 F2000 X120.678 Y144.763 E208.684
G1 F2000 X118.798 Y145.061 E208.741
G1 F2000 X116.903 Y145.24 E208.798
G1 F2000 X115 Y145.3 E208.855
G1 F2000 X113.097 Y145.24 E208.912
G1 F2000 X111.202 Y145.061 E208.969
G1 F2000 X109.322 Y144.763 E209.026
G1 F2000 X107.465 Y144.348 E209.083
G1 F2000 X105.637 Y143.817 E209.14
G1 F2000 X103.846 Y143.172 E209.198
G1 F2000 X102.099 Y142.416 E209.255
G1 F2000 X100.403 Y141.552 E209.312
G1 F2000 X98.7645 Y140.583 E209.369
G1 F2000 X97.1901 Y139.513 E209.426
G1 F2000 X95.6861 Y138.347 E209.483
G1 F2000 X94.2582 Y137.088 E209.54
G1 F2000 X92.9123 Y135.742 E209.597
G1 F2000 X91.6535 Y134.314 E209.654
G1 F2000 X90.4868 Y132.81 E209.711
G1 F2000 X89.4169 Y131.236 E209.769
G1 F2000 X88.4479 Y129.597 E209.826
G1 F2000 X87.5837 Y127.901 E209.883
G1 F2000 X86.8278 Y126.154 E209.94
G1 F2000 X86.183 Y124.363 E209.997
G1 F2000 X85.6519 Y122.535 E210.054
G1 F2000 X85.2367 Y120.678 E210.111
G1 F2000 X84.9389 Y118.798 E210.168
G1 F2000 X84.7598 Y116.903 E210.225
G1 F2000 X84.7 Y115 E210.282
G1 F2000 X84.7598 Y113.097 E210.339
G1 F2000 X84.9389 Y111.202 E210.397
G1 F2000 X85.2367 Y109.322 E210.454
G1 F2000 X85.6519 Y107.465 E210.511
G1 F2000 X86.183 Y105.637 E210.568
G1 F2000 X86.8278 Y103.846 E210.625
G1 F2000 X87.5837 Y102.099 E210.682
G1 F2000 X88.4479 Y100.403 E210.739
G1 F2000 X89.4169 Y98.7645 E210.796
G1 F2000 X90.4868 Y97.1901 E210.853
G1 F2000 X91.6534 Y95.6861 E210.91
G1 F2000 X92.9122 Y94.2582 E210.968
G1 F2000 X94.2582 Y92.9123 E211.025
G1 F2000 X95.6861 Y91.6535 E211.082
G1 F2000 X97.1901 Y90.4868 E211.139
G1 F2000 X98.7644 Y89.4169 E211.196
G1 F2000 X100.403 Y88.4479 E211.253
G1 F2000 X102.099 Y87.5837 E211.31
G1 F2000 X103.846 Y86.8278 E211.367
G1 F2000 X105.637 Y86.183 E211.424
G1 F2000 X107.465 Y85.6519 E211.481
G1 F2000 X109.322 Y85.2367 E211.539
G1 F2000 X111.202 Y84.9389 E211.596
G1 F2000 X113.097 Y84.7598 E211.653
G1 F2000 X115 Y84.7 E211.71
G1 F2000 X116.903 Y84.7598 E211.767
G1 F2000 X118.798 Y84.9389 E211.824
G1 F2000 X120.678 Y85.2367 E211.881
G1 F2000 X122.535 Y85.6519 E211.938
G1 F2000 X124.363 Y86.183 E211.995
G1 F2000 X126.154 Y86.8278 E212.052
G1 F2000 X127.901 Y87.5837 E212.11
G1 F2000 X129.597 Y88.4479 E212.167
G1 F2000 X131.236 Y89.4169 E212.224
G1 F2000 X132.81 Y90.4868 E212.281
G1 F2000 X134.314 Y91.6534 E212.338
G1 F2000 X135.742 Y92.9122 E212.395
G1 F2000 X137.088 Y94.2582 E212.452
G1 F2000 X138.347 Y95.686 E212.509
G1 F2000 X139.513 Y97.1901 E212.566
G1 F2000 X140.583 Y98.7644 E212.623
G1 F2000 X141.552 Y100.403 E212.681
G1 F2000 X142.416 Y102.099 E212.738
G1 F2000 X143.172 Y103.846 E212.795
G1 F2000 X143.817 Y105.637 E212.852
G1 F2000 X144.348 Y107.465 E212.909
G1 F2000 X144.763 Y109.322 E212.966
G1 F2000 X145.061 Y111.202 E213.023
G1 F2000 X145.24 Y113.097 E213.08
G1 F2000 X145.3 Y115 E213.137
;NEWLAYER
G1 F1200 X145.3 Y115 Z0.3
G1 F2000 X145 Y115 E213.146
G1 F2000 X145 Y115 E213.146
G1 F2000 X144.941 Y116.884 E213.203
G1 F2000 X144.763 Y118.76 E213.259
G1 F2000 X144.469 Y120.621 E213.316
